<?xml version="1.0" encoding="UTF-8"?>
<map version="1.10" tiledversion="1.10.2" orientation="orthogonal" renderorder="right-down" width="16" height="24" tilewidth="16" tileheight="16" infinite="1" nextlayerid="16" nextobjectid="1">
 <tileset firstgid="1" name="Walls_street" tilewidth="16" tileheight="16" tilecount="378" columns="21">
  <image source="Walls_street.png" width="336" height="288"/>
 </tileset>
 <tileset firstgid="379" name="Decorative_cracks" tilewidth="16" tileheight="16" tilecount="285" columns="19">
  <image source="Decorative_cracks.png" width="304" height="240"/>
 </tileset>
 <tileset firstgid="664" name="Extrior_objects" tilewidth="16" tileheight="16" tilecount="310" columns="31">
  <image source="Extrior_objects.png" width="496" height="160"/>
 </tileset>
 <tileset firstgid="974" name="Doors" tilewidth="16" tileheight="16" tilecount="648" columns="18">
  <image source="Doors.png" width="288" height="576"/>
  <tile id="0">
   <animation>
    <frame tileid="0" duration="150"/>
    <frame tileid="0" duration="150"/>
    <frame tileid="0" duration="150"/>
    <frame tileid="0" duration="150"/>
    <frame tileid="108" duration="150"/>
    <frame tileid="216" duration="150"/>
    <frame tileid="324" duration="150"/>
    <frame tileid="324" duration="150"/>
    <frame tileid="324" duration="150"/>
    <frame tileid="324" duration="150"/>
    <frame tileid="432" duration="150"/>
    <frame tileid="540" duration="150"/>
   </animation>
  </tile>
  <tile id="1">
   <animation>
    <frame tileid="1" duration="150"/>
    <frame tileid="1" duration="150"/>
    <frame tileid="1" duration="150"/>
    <frame tileid="1" duration="150"/>
    <frame tileid="109" duration="150"/>
    <frame tileid="217" duration="150"/>
    <frame tileid="325" duration="150"/>
    <frame tileid="325" duration="150"/>
    <frame tileid="325" duration="150"/>
    <frame tileid="325" duration="150"/>
    <frame tileid="433" duration="150"/>
    <frame tileid="541" duration="150"/>
   </animation>
  </tile>
  <tile id="2">
   <animation>
    <frame tileid="2" duration="150"/>
    <frame tileid="2" duration="150"/>
    <frame tileid="2" duration="150"/>
    <frame tileid="2" duration="150"/>
    <frame tileid="110" duration="150"/>
    <frame tileid="218" duration="150"/>
    <frame tileid="326" duration="150"/>
    <frame tileid="326" duration="150"/>
    <frame tileid="326" duration="150"/>
    <frame tileid="326" duration="150"/>
    <frame tileid="434" duration="150"/>
    <frame tileid="542" duration="150"/>
   </animation>
  </tile>
  <tile id="3">
   <animation>
    <frame tileid="3" duration="150"/>
    <frame tileid="3" duration="150"/>
    <frame tileid="3" duration="150"/>
    <frame tileid="3" duration="150"/>
    <frame tileid="111" duration="150"/>
    <frame tileid="219" duration="150"/>
    <frame tileid="327" duration="150"/>
    <frame tileid="327" duration="150"/>
    <frame tileid="327" duration="150"/>
    <frame tileid="327" duration="150"/>
    <frame tileid="435" duration="150"/>
    <frame tileid="543" duration="150"/>
   </animation>
  </tile>
  <tile id="4">
   <animation>
    <frame tileid="4" duration="150"/>
    <frame tileid="4" duration="150"/>
    <frame tileid="4" duration="150"/>
    <frame tileid="4" duration="150"/>
    <frame tileid="112" duration="150"/>
    <frame tileid="220" duration="150"/>
    <frame tileid="328" duration="150"/>
    <frame tileid="328" duration="150"/>
    <frame tileid="328" duration="150"/>
    <frame tileid="328" duration="150"/>
    <frame tileid="436" duration="150"/>
    <frame tileid="544" duration="150"/>
   </animation>
  </tile>
  <tile id="5">
   <animation>
    <frame tileid="5" duration="150"/>
    <frame tileid="5" duration="150"/>
    <frame tileid="5" duration="150"/>
    <frame tileid="5" duration="150"/>
    <frame tileid="113" duration="150"/>
    <frame tileid="221" duration="150"/>
    <frame tileid="329" duration="150"/>
    <frame tileid="329" duration="150"/>
    <frame tileid="329" duration="150"/>
    <frame tileid="329" duration="150"/>
    <frame tileid="437" duration="150"/>
    <frame tileid="545" duration="150"/>
   </animation>
  </tile>
  <tile id="6">
   <animation>
    <frame tileid="6" duration="150"/>
    <frame tileid="6" duration="150"/>
    <frame tileid="6" duration="150"/>
    <frame tileid="6" duration="150"/>
    <frame tileid="114" duration="150"/>
    <frame tileid="222" duration="150"/>
    <frame tileid="330" duration="150"/>
    <frame tileid="330" duration="150"/>
    <frame tileid="330" duration="150"/>
    <frame tileid="330" duration="150"/>
    <frame tileid="438" duration="150"/>
    <frame tileid="546" duration="150"/>
   </animation>
  </tile>
  <tile id="7">
   <animation>
    <frame tileid="7" duration="150"/>
    <frame tileid="7" duration="150"/>
    <frame tileid="7" duration="150"/>
    <frame tileid="7" duration="150"/>
    <frame tileid="115" duration="150"/>
    <frame tileid="223" duration="150"/>
    <frame tileid="331" duration="150"/>
    <frame tileid="331" duration="150"/>
    <frame tileid="331" duration="150"/>
    <frame tileid="331" duration="150"/>
    <frame tileid="439" duration="150"/>
    <frame tileid="547" duration="150"/>
   </animation>
  </tile>
  <tile id="8">
   <animation>
    <frame tileid="8" duration="150"/>
    <frame tileid="8" duration="150"/>
    <frame tileid="8" duration="150"/>
    <frame tileid="8" duration="150"/>
    <frame tileid="116" duration="150"/>
    <frame tileid="224" duration="150"/>
    <frame tileid="332" duration="150"/>
    <frame tileid="332" duration="150"/>
    <frame tileid="332" duration="150"/>
    <frame tileid="332" duration="150"/>
    <frame tileid="440" duration="150"/>
    <frame tileid="548" duration="150"/>
   </animation>
  </tile>
  <tile id="9">
   <animation>
    <frame tileid="9" duration="150"/>
    <frame tileid="9" duration="150"/>
    <frame tileid="9" duration="150"/>
    <frame tileid="9" duration="150"/>
    <frame tileid="117" duration="150"/>
    <frame tileid="225" duration="150"/>
    <frame tileid="333" duration="150"/>
    <frame tileid="333" duration="150"/>
    <frame tileid="333" duration="150"/>
    <frame tileid="333" duration="150"/>
    <frame tileid="441" duration="150"/>
    <frame tileid="549" duration="150"/>
   </animation>
  </tile>
  <tile id="10">
   <animation>
    <frame tileid="10" duration="150"/>
    <frame tileid="10" duration="150"/>
    <frame tileid="10" duration="150"/>
    <frame tileid="10" duration="150"/>
    <frame tileid="118" duration="150"/>
    <frame tileid="226" duration="150"/>
    <frame tileid="334" duration="150"/>
    <frame tileid="334" duration="150"/>
    <frame tileid="334" duration="150"/>
    <frame tileid="334" duration="150"/>
    <frame tileid="442" duration="150"/>
    <frame tileid="550" duration="150"/>
   </animation>
  </tile>
  <tile id="11">
   <animation>
    <frame tileid="11" duration="150"/>
    <frame tileid="11" duration="150"/>
    <frame tileid="11" duration="150"/>
    <frame tileid="11" duration="150"/>
    <frame tileid="119" duration="150"/>
    <frame tileid="227" duration="150"/>
    <frame tileid="335" duration="150"/>
    <frame tileid="335" duration="150"/>
    <frame tileid="335" duration="150"/>
    <frame tileid="335" duration="150"/>
    <frame tileid="443" duration="150"/>
    <frame tileid="551" duration="150"/>
   </animation>
  </tile>
  <tile id="12">
   <animation>
    <frame tileid="12" duration="150"/>
    <frame tileid="12" duration="150"/>
    <frame tileid="12" duration="150"/>
    <frame tileid="12" duration="150"/>
    <frame tileid="120" duration="150"/>
    <frame tileid="228" duration="150"/>
    <frame tileid="336" duration="150"/>
    <frame tileid="336" duration="150"/>
    <frame tileid="336" duration="150"/>
    <frame tileid="336" duration="150"/>
    <frame tileid="444" duration="150"/>
    <frame tileid="552" duration="150"/>
   </animation>
  </tile>
  <tile id="13">
   <animation>
    <frame tileid="13" duration="150"/>
    <frame tileid="13" duration="150"/>
    <frame tileid="13" duration="150"/>
    <frame tileid="13" duration="150"/>
    <frame tileid="121" duration="150"/>
    <frame tileid="229" duration="150"/>
    <frame tileid="337" duration="150"/>
    <frame tileid="337" duration="150"/>
    <frame tileid="337" duration="150"/>
    <frame tileid="337" duration="150"/>
    <frame tileid="445" duration="150"/>
    <frame tileid="553" duration="150"/>
   </animation>
  </tile>
  <tile id="14">
   <animation>
    <frame tileid="14" duration="150"/>
    <frame tileid="14" duration="150"/>
    <frame tileid="14" duration="150"/>
    <frame tileid="14" duration="150"/>
    <frame tileid="122" duration="150"/>
    <frame tileid="230" duration="150"/>
    <frame tileid="338" duration="150"/>
    <frame tileid="338" duration="150"/>
    <frame tileid="338" duration="150"/>
    <frame tileid="338" duration="150"/>
    <frame tileid="446" duration="150"/>
    <frame tileid="554" duration="150"/>
   </animation>
  </tile>
  <tile id="15">
   <animation>
    <frame tileid="15" duration="150"/>
    <frame tileid="15" duration="150"/>
    <frame tileid="15" duration="150"/>
    <frame tileid="15" duration="150"/>
    <frame tileid="123" duration="150"/>
    <frame tileid="231" duration="150"/>
    <frame tileid="339" duration="150"/>
    <frame tileid="339" duration="150"/>
    <frame tileid="339" duration="150"/>
    <frame tileid="339" duration="150"/>
    <frame tileid="447" duration="150"/>
    <frame tileid="555" duration="150"/>
   </animation>
  </tile>
  <tile id="16">
   <animation>
    <frame tileid="16" duration="150"/>
    <frame tileid="16" duration="150"/>
    <frame tileid="16" duration="150"/>
    <frame tileid="16" duration="150"/>
    <frame tileid="124" duration="150"/>
    <frame tileid="232" duration="150"/>
    <frame tileid="340" duration="150"/>
    <frame tileid="340" duration="150"/>
    <frame tileid="340" duration="150"/>
    <frame tileid="340" duration="150"/>
    <frame tileid="448" duration="150"/>
    <frame tileid="556" duration="150"/>
   </animation>
  </tile>
  <tile id="17">
   <animation>
    <frame tileid="17" duration="150"/>
    <frame tileid="17" duration="150"/>
    <frame tileid="17" duration="150"/>
    <frame tileid="17" duration="150"/>
    <frame tileid="125" duration="150"/>
    <frame tileid="233" duration="150"/>
    <frame tileid="341" duration="150"/>
    <frame tileid="341" duration="150"/>
    <frame tileid="341" duration="150"/>
    <frame tileid="341" duration="150"/>
    <frame tileid="449" duration="150"/>
    <frame tileid="557" duration="150"/>
   </animation>
  </tile>
  <tile id="18">
   <animation>
    <frame tileid="18" duration="150"/>
    <frame tileid="18" duration="150"/>
    <frame tileid="18" duration="150"/>
    <frame tileid="18" duration="150"/>
    <frame tileid="126" duration="150"/>
    <frame tileid="234" duration="150"/>
    <frame tileid="342" duration="150"/>
    <frame tileid="342" duration="150"/>
    <frame tileid="342" duration="150"/>
    <frame tileid="342" duration="150"/>
    <frame tileid="450" duration="150"/>
    <frame tileid="558" duration="150"/>
   </animation>
  </tile>
  <tile id="19">
   <animation>
    <frame tileid="19" duration="150"/>
    <frame tileid="19" duration="150"/>
    <frame tileid="19" duration="150"/>
    <frame tileid="19" duration="150"/>
    <frame tileid="127" duration="150"/>
    <frame tileid="235" duration="150"/>
    <frame tileid="343" duration="150"/>
    <frame tileid="343" duration="150"/>
    <frame tileid="343" duration="150"/>
    <frame tileid="343" duration="150"/>
    <frame tileid="451" duration="150"/>
    <frame tileid="559" duration="150"/>
   </animation>
  </tile>
  <tile id="20">
   <animation>
    <frame tileid="20" duration="150"/>
    <frame tileid="20" duration="150"/>
    <frame tileid="20" duration="150"/>
    <frame tileid="20" duration="150"/>
    <frame tileid="128" duration="150"/>
    <frame tileid="236" duration="150"/>
    <frame tileid="344" duration="150"/>
    <frame tileid="344" duration="150"/>
    <frame tileid="344" duration="150"/>
    <frame tileid="344" duration="150"/>
    <frame tileid="452" duration="150"/>
    <frame tileid="560" duration="150"/>
   </animation>
  </tile>
  <tile id="21">
   <animation>
    <frame tileid="21" duration="150"/>
    <frame tileid="21" duration="150"/>
    <frame tileid="21" duration="150"/>
    <frame tileid="21" duration="150"/>
    <frame tileid="129" duration="150"/>
    <frame tileid="237" duration="150"/>
    <frame tileid="345" duration="150"/>
    <frame tileid="345" duration="150"/>
    <frame tileid="345" duration="150"/>
    <frame tileid="345" duration="150"/>
    <frame tileid="453" duration="150"/>
    <frame tileid="561" duration="150"/>
   </animation>
  </tile>
  <tile id="22">
   <animation>
    <frame tileid="22" duration="150"/>
    <frame tileid="22" duration="150"/>
    <frame tileid="22" duration="150"/>
    <frame tileid="22" duration="150"/>
    <frame tileid="130" duration="150"/>
    <frame tileid="238" duration="150"/>
    <frame tileid="346" duration="150"/>
    <frame tileid="346" duration="150"/>
    <frame tileid="346" duration="150"/>
    <frame tileid="346" duration="150"/>
    <frame tileid="454" duration="150"/>
    <frame tileid="562" duration="150"/>
   </animation>
  </tile>
  <tile id="23">
   <animation>
    <frame tileid="23" duration="150"/>
    <frame tileid="23" duration="150"/>
    <frame tileid="23" duration="150"/>
    <frame tileid="23" duration="150"/>
    <frame tileid="131" duration="150"/>
    <frame tileid="239" duration="150"/>
    <frame tileid="347" duration="150"/>
    <frame tileid="347" duration="150"/>
    <frame tileid="347" duration="150"/>
    <frame tileid="347" duration="150"/>
    <frame tileid="455" duration="150"/>
    <frame tileid="563" duration="150"/>
   </animation>
  </tile>
  <tile id="24">
   <animation>
    <frame tileid="24" duration="150"/>
    <frame tileid="24" duration="150"/>
    <frame tileid="24" duration="150"/>
    <frame tileid="24" duration="150"/>
    <frame tileid="132" duration="150"/>
    <frame tileid="240" duration="150"/>
    <frame tileid="348" duration="150"/>
    <frame tileid="348" duration="150"/>
    <frame tileid="348" duration="150"/>
    <frame tileid="348" duration="150"/>
    <frame tileid="456" duration="150"/>
    <frame tileid="564" duration="150"/>
   </animation>
  </tile>
  <tile id="25">
   <animation>
    <frame tileid="25" duration="150"/>
    <frame tileid="25" duration="150"/>
    <frame tileid="25" duration="150"/>
    <frame tileid="25" duration="150"/>
    <frame tileid="133" duration="150"/>
    <frame tileid="241" duration="150"/>
    <frame tileid="349" duration="150"/>
    <frame tileid="349" duration="150"/>
    <frame tileid="349" duration="150"/>
    <frame tileid="349" duration="150"/>
    <frame tileid="457" duration="150"/>
    <frame tileid="565" duration="150"/>
   </animation>
  </tile>
  <tile id="26">
   <animation>
    <frame tileid="26" duration="150"/>
    <frame tileid="26" duration="150"/>
    <frame tileid="26" duration="150"/>
    <frame tileid="26" duration="150"/>
    <frame tileid="134" duration="150"/>
    <frame tileid="242" duration="150"/>
    <frame tileid="350" duration="150"/>
    <frame tileid="350" duration="150"/>
    <frame tileid="350" duration="150"/>
    <frame tileid="350" duration="150"/>
    <frame tileid="458" duration="150"/>
    <frame tileid="566" duration="150"/>
   </animation>
  </tile>
  <tile id="27">
   <animation>
    <frame tileid="27" duration="150"/>
    <frame tileid="27" duration="150"/>
    <frame tileid="27" duration="150"/>
    <frame tileid="27" duration="150"/>
    <frame tileid="135" duration="150"/>
    <frame tileid="243" duration="150"/>
    <frame tileid="351" duration="150"/>
    <frame tileid="351" duration="150"/>
    <frame tileid="351" duration="150"/>
    <frame tileid="351" duration="150"/>
    <frame tileid="459" duration="150"/>
    <frame tileid="567" duration="150"/>
   </animation>
  </tile>
  <tile id="28">
   <animation>
    <frame tileid="28" duration="150"/>
    <frame tileid="28" duration="150"/>
    <frame tileid="28" duration="150"/>
    <frame tileid="28" duration="150"/>
    <frame tileid="136" duration="150"/>
    <frame tileid="244" duration="150"/>
    <frame tileid="352" duration="150"/>
    <frame tileid="352" duration="150"/>
    <frame tileid="352" duration="150"/>
    <frame tileid="352" duration="150"/>
    <frame tileid="460" duration="150"/>
    <frame tileid="568" duration="150"/>
   </animation>
  </tile>
  <tile id="29">
   <animation>
    <frame tileid="29" duration="150"/>
    <frame tileid="29" duration="150"/>
    <frame tileid="29" duration="150"/>
    <frame tileid="29" duration="150"/>
    <frame tileid="137" duration="150"/>
    <frame tileid="245" duration="150"/>
    <frame tileid="353" duration="150"/>
    <frame tileid="353" duration="150"/>
    <frame tileid="353" duration="150"/>
    <frame tileid="353" duration="150"/>
    <frame tileid="461" duration="150"/>
    <frame tileid="569" duration="150"/>
   </animation>
  </tile>
  <tile id="30">
   <animation>
    <frame tileid="30" duration="150"/>
    <frame tileid="30" duration="150"/>
    <frame tileid="30" duration="150"/>
    <frame tileid="30" duration="150"/>
    <frame tileid="138" duration="150"/>
    <frame tileid="246" duration="150"/>
    <frame tileid="354" duration="150"/>
    <frame tileid="354" duration="150"/>
    <frame tileid="354" duration="150"/>
    <frame tileid="354" duration="150"/>
    <frame tileid="462" duration="150"/>
    <frame tileid="570" duration="150"/>
   </animation>
  </tile>
  <tile id="31">
   <animation>
    <frame tileid="31" duration="150"/>
    <frame tileid="31" duration="150"/>
    <frame tileid="31" duration="150"/>
    <frame tileid="31" duration="150"/>
    <frame tileid="139" duration="150"/>
    <frame tileid="247" duration="150"/>
    <frame tileid="355" duration="150"/>
    <frame tileid="355" duration="150"/>
    <frame tileid="355" duration="150"/>
    <frame tileid="355" duration="150"/>
    <frame tileid="463" duration="150"/>
    <frame tileid="571" duration="150"/>
   </animation>
  </tile>
  <tile id="32">
   <animation>
    <frame tileid="32" duration="150"/>
    <frame tileid="32" duration="150"/>
    <frame tileid="32" duration="150"/>
    <frame tileid="32" duration="150"/>
    <frame tileid="140" duration="150"/>
    <frame tileid="248" duration="150"/>
    <frame tileid="356" duration="150"/>
    <frame tileid="356" duration="150"/>
    <frame tileid="356" duration="150"/>
    <frame tileid="356" duration="150"/>
    <frame tileid="464" duration="150"/>
    <frame tileid="572" duration="150"/>
   </animation>
  </tile>
  <tile id="33">
   <animation>
    <frame tileid="33" duration="150"/>
    <frame tileid="33" duration="150"/>
    <frame tileid="33" duration="150"/>
    <frame tileid="33" duration="150"/>
    <frame tileid="141" duration="150"/>
    <frame tileid="249" duration="150"/>
    <frame tileid="357" duration="150"/>
    <frame tileid="357" duration="150"/>
    <frame tileid="357" duration="150"/>
    <frame tileid="357" duration="150"/>
    <frame tileid="465" duration="150"/>
    <frame tileid="573" duration="150"/>
   </animation>
  </tile>
  <tile id="34">
   <animation>
    <frame tileid="34" duration="150"/>
    <frame tileid="34" duration="150"/>
    <frame tileid="34" duration="150"/>
    <frame tileid="34" duration="150"/>
    <frame tileid="142" duration="150"/>
    <frame tileid="250" duration="150"/>
    <frame tileid="358" duration="150"/>
    <frame tileid="358" duration="150"/>
    <frame tileid="358" duration="150"/>
    <frame tileid="358" duration="150"/>
    <frame tileid="466" duration="150"/>
    <frame tileid="574" duration="150"/>
   </animation>
  </tile>
  <tile id="35">
   <animation>
    <frame tileid="35" duration="150"/>
    <frame tileid="35" duration="150"/>
    <frame tileid="35" duration="150"/>
    <frame tileid="35" duration="150"/>
    <frame tileid="143" duration="150"/>
    <frame tileid="251" duration="150"/>
    <frame tileid="359" duration="150"/>
    <frame tileid="359" duration="150"/>
    <frame tileid="359" duration="150"/>
    <frame tileid="359" duration="150"/>
    <frame tileid="467" duration="150"/>
    <frame tileid="575" duration="150"/>
   </animation>
  </tile>
  <tile id="36">
   <animation>
    <frame tileid="36" duration="150"/>
    <frame tileid="36" duration="150"/>
    <frame tileid="36" duration="150"/>
    <frame tileid="36" duration="150"/>
    <frame tileid="144" duration="150"/>
    <frame tileid="252" duration="150"/>
    <frame tileid="360" duration="150"/>
    <frame tileid="360" duration="150"/>
    <frame tileid="360" duration="150"/>
    <frame tileid="360" duration="150"/>
    <frame tileid="468" duration="150"/>
    <frame tileid="576" duration="150"/>
   </animation>
  </tile>
  <tile id="37">
   <animation>
    <frame tileid="37" duration="150"/>
    <frame tileid="37" duration="150"/>
    <frame tileid="37" duration="150"/>
    <frame tileid="37" duration="150"/>
    <frame tileid="145" duration="150"/>
    <frame tileid="253" duration="150"/>
    <frame tileid="361" duration="150"/>
    <frame tileid="361" duration="150"/>
    <frame tileid="361" duration="150"/>
    <frame tileid="361" duration="150"/>
    <frame tileid="469" duration="150"/>
    <frame tileid="577" duration="150"/>
   </animation>
  </tile>
  <tile id="38">
   <animation>
    <frame tileid="38" duration="150"/>
    <frame tileid="38" duration="150"/>
    <frame tileid="38" duration="150"/>
    <frame tileid="38" duration="150"/>
    <frame tileid="146" duration="150"/>
    <frame tileid="254" duration="150"/>
    <frame tileid="362" duration="150"/>
    <frame tileid="362" duration="150"/>
    <frame tileid="362" duration="150"/>
    <frame tileid="362" duration="150"/>
    <frame tileid="470" duration="150"/>
    <frame tileid="578" duration="150"/>
   </animation>
  </tile>
  <tile id="39">
   <animation>
    <frame tileid="39" duration="150"/>
    <frame tileid="39" duration="150"/>
    <frame tileid="39" duration="150"/>
    <frame tileid="39" duration="150"/>
    <frame tileid="147" duration="150"/>
    <frame tileid="255" duration="150"/>
    <frame tileid="363" duration="150"/>
    <frame tileid="363" duration="150"/>
    <frame tileid="363" duration="150"/>
    <frame tileid="363" duration="150"/>
    <frame tileid="471" duration="150"/>
    <frame tileid="579" duration="150"/>
   </animation>
  </tile>
  <tile id="40">
   <animation>
    <frame tileid="40" duration="150"/>
    <frame tileid="40" duration="150"/>
    <frame tileid="40" duration="150"/>
    <frame tileid="40" duration="150"/>
    <frame tileid="148" duration="150"/>
    <frame tileid="256" duration="150"/>
    <frame tileid="364" duration="150"/>
    <frame tileid="364" duration="150"/>
    <frame tileid="364" duration="150"/>
    <frame tileid="364" duration="150"/>
    <frame tileid="472" duration="150"/>
    <frame tileid="580" duration="150"/>
   </animation>
  </tile>
  <tile id="41">
   <animation>
    <frame tileid="41" duration="150"/>
    <frame tileid="41" duration="150"/>
    <frame tileid="41" duration="150"/>
    <frame tileid="41" duration="150"/>
    <frame tileid="149" duration="150"/>
    <frame tileid="257" duration="150"/>
    <frame tileid="365" duration="150"/>
    <frame tileid="365" duration="150"/>
    <frame tileid="365" duration="150"/>
    <frame tileid="365" duration="150"/>
    <frame tileid="473" duration="150"/>
    <frame tileid="581" duration="150"/>
   </animation>
  </tile>
  <tile id="42">
   <animation>
    <frame tileid="42" duration="150"/>
    <frame tileid="42" duration="150"/>
    <frame tileid="42" duration="150"/>
    <frame tileid="42" duration="150"/>
    <frame tileid="150" duration="150"/>
    <frame tileid="258" duration="150"/>
    <frame tileid="366" duration="150"/>
    <frame tileid="366" duration="150"/>
    <frame tileid="366" duration="150"/>
    <frame tileid="366" duration="150"/>
    <frame tileid="474" duration="150"/>
    <frame tileid="582" duration="150"/>
   </animation>
  </tile>
  <tile id="43">
   <animation>
    <frame tileid="43" duration="150"/>
    <frame tileid="43" duration="150"/>
    <frame tileid="43" duration="150"/>
    <frame tileid="43" duration="150"/>
    <frame tileid="151" duration="150"/>
    <frame tileid="259" duration="150"/>
    <frame tileid="367" duration="150"/>
    <frame tileid="367" duration="150"/>
    <frame tileid="367" duration="150"/>
    <frame tileid="367" duration="150"/>
    <frame tileid="475" duration="150"/>
    <frame tileid="583" duration="150"/>
   </animation>
  </tile>
  <tile id="44">
   <animation>
    <frame tileid="44" duration="150"/>
    <frame tileid="44" duration="150"/>
    <frame tileid="44" duration="150"/>
    <frame tileid="44" duration="150"/>
    <frame tileid="152" duration="150"/>
    <frame tileid="260" duration="150"/>
    <frame tileid="368" duration="150"/>
    <frame tileid="368" duration="150"/>
    <frame tileid="368" duration="150"/>
    <frame tileid="368" duration="150"/>
    <frame tileid="476" duration="150"/>
    <frame tileid="584" duration="150"/>
   </animation>
  </tile>
  <tile id="45">
   <animation>
    <frame tileid="45" duration="150"/>
    <frame tileid="45" duration="150"/>
    <frame tileid="45" duration="150"/>
    <frame tileid="45" duration="150"/>
    <frame tileid="153" duration="150"/>
    <frame tileid="261" duration="150"/>
    <frame tileid="369" duration="150"/>
    <frame tileid="369" duration="150"/>
    <frame tileid="369" duration="150"/>
    <frame tileid="369" duration="150"/>
    <frame tileid="477" duration="150"/>
    <frame tileid="585" duration="150"/>
   </animation>
  </tile>
  <tile id="46">
   <animation>
    <frame tileid="46" duration="150"/>
    <frame tileid="46" duration="150"/>
    <frame tileid="46" duration="150"/>
    <frame tileid="46" duration="150"/>
    <frame tileid="154" duration="150"/>
    <frame tileid="262" duration="150"/>
    <frame tileid="370" duration="150"/>
    <frame tileid="370" duration="150"/>
    <frame tileid="370" duration="150"/>
    <frame tileid="370" duration="150"/>
    <frame tileid="478" duration="150"/>
    <frame tileid="586" duration="150"/>
   </animation>
  </tile>
  <tile id="47">
   <animation>
    <frame tileid="47" duration="150"/>
    <frame tileid="47" duration="150"/>
    <frame tileid="47" duration="150"/>
    <frame tileid="47" duration="150"/>
    <frame tileid="155" duration="150"/>
    <frame tileid="263" duration="150"/>
    <frame tileid="371" duration="150"/>
    <frame tileid="371" duration="150"/>
    <frame tileid="371" duration="150"/>
    <frame tileid="371" duration="150"/>
    <frame tileid="479" duration="150"/>
    <frame tileid="587" duration="150"/>
   </animation>
  </tile>
  <tile id="48">
   <animation>
    <frame tileid="48" duration="150"/>
    <frame tileid="48" duration="150"/>
    <frame tileid="48" duration="150"/>
    <frame tileid="48" duration="150"/>
    <frame tileid="156" duration="150"/>
    <frame tileid="264" duration="150"/>
    <frame tileid="372" duration="150"/>
    <frame tileid="372" duration="150"/>
    <frame tileid="372" duration="150"/>
    <frame tileid="372" duration="150"/>
    <frame tileid="480" duration="150"/>
    <frame tileid="588" duration="150"/>
   </animation>
  </tile>
  <tile id="49">
   <animation>
    <frame tileid="49" duration="150"/>
    <frame tileid="49" duration="150"/>
    <frame tileid="49" duration="150"/>
    <frame tileid="49" duration="150"/>
    <frame tileid="157" duration="150"/>
    <frame tileid="265" duration="150"/>
    <frame tileid="373" duration="150"/>
    <frame tileid="373" duration="150"/>
    <frame tileid="373" duration="150"/>
    <frame tileid="373" duration="150"/>
    <frame tileid="481" duration="150"/>
    <frame tileid="589" duration="150"/>
   </animation>
  </tile>
  <tile id="50">
   <animation>
    <frame tileid="50" duration="150"/>
    <frame tileid="50" duration="150"/>
    <frame tileid="50" duration="150"/>
    <frame tileid="50" duration="150"/>
    <frame tileid="158" duration="150"/>
    <frame tileid="266" duration="150"/>
    <frame tileid="374" duration="150"/>
    <frame tileid="374" duration="150"/>
    <frame tileid="374" duration="150"/>
    <frame tileid="374" duration="150"/>
    <frame tileid="482" duration="150"/>
    <frame tileid="590" duration="150"/>
   </animation>
  </tile>
  <tile id="51">
   <animation>
    <frame tileid="51" duration="150"/>
    <frame tileid="51" duration="150"/>
    <frame tileid="51" duration="150"/>
    <frame tileid="51" duration="150"/>
    <frame tileid="159" duration="150"/>
    <frame tileid="267" duration="150"/>
    <frame tileid="375" duration="150"/>
    <frame tileid="375" duration="150"/>
    <frame tileid="375" duration="150"/>
    <frame tileid="375" duration="150"/>
    <frame tileid="483" duration="150"/>
    <frame tileid="591" duration="150"/>
   </animation>
  </tile>
  <tile id="52">
   <animation>
    <frame tileid="52" duration="150"/>
    <frame tileid="52" duration="150"/>
    <frame tileid="52" duration="150"/>
    <frame tileid="52" duration="150"/>
    <frame tileid="160" duration="150"/>
    <frame tileid="268" duration="150"/>
    <frame tileid="376" duration="150"/>
    <frame tileid="376" duration="150"/>
    <frame tileid="376" duration="150"/>
    <frame tileid="376" duration="150"/>
    <frame tileid="484" duration="150"/>
    <frame tileid="592" duration="150"/>
   </animation>
  </tile>
  <tile id="53">
   <animation>
    <frame tileid="53" duration="150"/>
    <frame tileid="53" duration="150"/>
    <frame tileid="53" duration="150"/>
    <frame tileid="53" duration="150"/>
    <frame tileid="161" duration="150"/>
    <frame tileid="269" duration="150"/>
    <frame tileid="377" duration="150"/>
    <frame tileid="377" duration="150"/>
    <frame tileid="377" duration="150"/>
    <frame tileid="377" duration="150"/>
    <frame tileid="485" duration="150"/>
    <frame tileid="593" duration="150"/>
   </animation>
  </tile>
  <tile id="54">
   <animation>
    <frame tileid="54" duration="150"/>
    <frame tileid="54" duration="150"/>
    <frame tileid="54" duration="150"/>
    <frame tileid="54" duration="150"/>
    <frame tileid="162" duration="150"/>
    <frame tileid="270" duration="150"/>
    <frame tileid="378" duration="150"/>
    <frame tileid="378" duration="150"/>
    <frame tileid="378" duration="150"/>
    <frame tileid="378" duration="150"/>
    <frame tileid="486" duration="150"/>
    <frame tileid="594" duration="150"/>
   </animation>
  </tile>
  <tile id="55">
   <animation>
    <frame tileid="55" duration="150"/>
    <frame tileid="55" duration="150"/>
    <frame tileid="55" duration="150"/>
    <frame tileid="55" duration="150"/>
    <frame tileid="163" duration="150"/>
    <frame tileid="271" duration="150"/>
    <frame tileid="379" duration="150"/>
    <frame tileid="379" duration="150"/>
    <frame tileid="379" duration="150"/>
    <frame tileid="379" duration="150"/>
    <frame tileid="487" duration="150"/>
    <frame tileid="595" duration="150"/>
   </animation>
  </tile>
  <tile id="56">
   <animation>
    <frame tileid="56" duration="150"/>
    <frame tileid="56" duration="150"/>
    <frame tileid="56" duration="150"/>
    <frame tileid="56" duration="150"/>
    <frame tileid="164" duration="150"/>
    <frame tileid="272" duration="150"/>
    <frame tileid="380" duration="150"/>
    <frame tileid="380" duration="150"/>
    <frame tileid="380" duration="150"/>
    <frame tileid="380" duration="150"/>
    <frame tileid="488" duration="150"/>
    <frame tileid="596" duration="150"/>
   </animation>
  </tile>
  <tile id="57">
   <animation>
    <frame tileid="57" duration="150"/>
    <frame tileid="57" duration="150"/>
    <frame tileid="57" duration="150"/>
    <frame tileid="57" duration="150"/>
    <frame tileid="165" duration="150"/>
    <frame tileid="273" duration="150"/>
    <frame tileid="381" duration="150"/>
    <frame tileid="381" duration="150"/>
    <frame tileid="381" duration="150"/>
    <frame tileid="381" duration="150"/>
    <frame tileid="489" duration="150"/>
    <frame tileid="597" duration="150"/>
   </animation>
  </tile>
  <tile id="58">
   <animation>
    <frame tileid="58" duration="150"/>
    <frame tileid="58" duration="150"/>
    <frame tileid="58" duration="150"/>
    <frame tileid="58" duration="150"/>
    <frame tileid="166" duration="150"/>
    <frame tileid="274" duration="150"/>
    <frame tileid="382" duration="150"/>
    <frame tileid="382" duration="150"/>
    <frame tileid="382" duration="150"/>
    <frame tileid="382" duration="150"/>
    <frame tileid="490" duration="150"/>
    <frame tileid="598" duration="150"/>
   </animation>
  </tile>
  <tile id="59">
   <animation>
    <frame tileid="59" duration="150"/>
    <frame tileid="59" duration="150"/>
    <frame tileid="59" duration="150"/>
    <frame tileid="59" duration="150"/>
    <frame tileid="167" duration="150"/>
    <frame tileid="275" duration="150"/>
    <frame tileid="383" duration="150"/>
    <frame tileid="383" duration="150"/>
    <frame tileid="383" duration="150"/>
    <frame tileid="383" duration="150"/>
    <frame tileid="491" duration="150"/>
    <frame tileid="599" duration="150"/>
   </animation>
  </tile>
  <tile id="60">
   <animation>
    <frame tileid="60" duration="150"/>
    <frame tileid="60" duration="150"/>
    <frame tileid="60" duration="150"/>
    <frame tileid="60" duration="150"/>
    <frame tileid="168" duration="150"/>
    <frame tileid="276" duration="150"/>
    <frame tileid="384" duration="150"/>
    <frame tileid="384" duration="150"/>
    <frame tileid="384" duration="150"/>
    <frame tileid="384" duration="150"/>
    <frame tileid="492" duration="150"/>
    <frame tileid="600" duration="150"/>
   </animation>
  </tile>
  <tile id="61">
   <animation>
    <frame tileid="61" duration="150"/>
    <frame tileid="61" duration="150"/>
    <frame tileid="61" duration="150"/>
    <frame tileid="61" duration="150"/>
    <frame tileid="169" duration="150"/>
    <frame tileid="277" duration="150"/>
    <frame tileid="385" duration="150"/>
    <frame tileid="385" duration="150"/>
    <frame tileid="385" duration="150"/>
    <frame tileid="385" duration="150"/>
    <frame tileid="493" duration="150"/>
    <frame tileid="601" duration="150"/>
   </animation>
  </tile>
  <tile id="62">
   <animation>
    <frame tileid="62" duration="150"/>
    <frame tileid="62" duration="150"/>
    <frame tileid="62" duration="150"/>
    <frame tileid="62" duration="150"/>
    <frame tileid="170" duration="150"/>
    <frame tileid="278" duration="150"/>
    <frame tileid="386" duration="150"/>
    <frame tileid="386" duration="150"/>
    <frame tileid="386" duration="150"/>
    <frame tileid="386" duration="150"/>
    <frame tileid="494" duration="150"/>
    <frame tileid="602" duration="150"/>
   </animation>
  </tile>
  <tile id="63">
   <animation>
    <frame tileid="63" duration="150"/>
    <frame tileid="63" duration="150"/>
    <frame tileid="63" duration="150"/>
    <frame tileid="63" duration="150"/>
    <frame tileid="171" duration="150"/>
    <frame tileid="279" duration="150"/>
    <frame tileid="387" duration="150"/>
    <frame tileid="387" duration="150"/>
    <frame tileid="387" duration="150"/>
    <frame tileid="387" duration="150"/>
    <frame tileid="495" duration="150"/>
    <frame tileid="603" duration="150"/>
   </animation>
  </tile>
  <tile id="64">
   <animation>
    <frame tileid="64" duration="150"/>
    <frame tileid="64" duration="150"/>
    <frame tileid="64" duration="150"/>
    <frame tileid="64" duration="150"/>
    <frame tileid="172" duration="150"/>
    <frame tileid="280" duration="150"/>
    <frame tileid="388" duration="150"/>
    <frame tileid="388" duration="150"/>
    <frame tileid="388" duration="150"/>
    <frame tileid="388" duration="150"/>
    <frame tileid="496" duration="150"/>
    <frame tileid="604" duration="150"/>
   </animation>
  </tile>
  <tile id="65">
   <animation>
    <frame tileid="65" duration="150"/>
    <frame tileid="65" duration="150"/>
    <frame tileid="65" duration="150"/>
    <frame tileid="65" duration="150"/>
    <frame tileid="173" duration="150"/>
    <frame tileid="281" duration="150"/>
    <frame tileid="389" duration="150"/>
    <frame tileid="389" duration="150"/>
    <frame tileid="389" duration="150"/>
    <frame tileid="389" duration="150"/>
    <frame tileid="497" duration="150"/>
    <frame tileid="605" duration="150"/>
   </animation>
  </tile>
  <tile id="66">
   <animation>
    <frame tileid="66" duration="150"/>
    <frame tileid="66" duration="150"/>
    <frame tileid="66" duration="150"/>
    <frame tileid="66" duration="150"/>
    <frame tileid="174" duration="150"/>
    <frame tileid="282" duration="150"/>
    <frame tileid="390" duration="150"/>
    <frame tileid="390" duration="150"/>
    <frame tileid="390" duration="150"/>
    <frame tileid="390" duration="150"/>
    <frame tileid="498" duration="150"/>
    <frame tileid="606" duration="150"/>
   </animation>
  </tile>
  <tile id="67">
   <animation>
    <frame tileid="67" duration="150"/>
    <frame tileid="67" duration="150"/>
    <frame tileid="67" duration="150"/>
    <frame tileid="67" duration="150"/>
    <frame tileid="175" duration="150"/>
    <frame tileid="283" duration="150"/>
    <frame tileid="391" duration="150"/>
    <frame tileid="391" duration="150"/>
    <frame tileid="391" duration="150"/>
    <frame tileid="391" duration="150"/>
    <frame tileid="499" duration="150"/>
    <frame tileid="607" duration="150"/>
   </animation>
  </tile>
  <tile id="68">
   <animation>
    <frame tileid="68" duration="150"/>
    <frame tileid="68" duration="150"/>
    <frame tileid="68" duration="150"/>
    <frame tileid="68" duration="150"/>
    <frame tileid="176" duration="150"/>
    <frame tileid="284" duration="150"/>
    <frame tileid="392" duration="150"/>
    <frame tileid="392" duration="150"/>
    <frame tileid="392" duration="150"/>
    <frame tileid="392" duration="150"/>
    <frame tileid="500" duration="150"/>
    <frame tileid="608" duration="150"/>
   </animation>
  </tile>
  <tile id="69">
   <animation>
    <frame tileid="69" duration="150"/>
    <frame tileid="69" duration="150"/>
    <frame tileid="69" duration="150"/>
    <frame tileid="69" duration="150"/>
    <frame tileid="177" duration="150"/>
    <frame tileid="285" duration="150"/>
    <frame tileid="393" duration="150"/>
    <frame tileid="393" duration="150"/>
    <frame tileid="393" duration="150"/>
    <frame tileid="393" duration="150"/>
    <frame tileid="501" duration="150"/>
    <frame tileid="609" duration="150"/>
   </animation>
  </tile>
  <tile id="72">
   <animation>
    <frame tileid="72" duration="150"/>
    <frame tileid="72" duration="150"/>
    <frame tileid="72" duration="150"/>
    <frame tileid="72" duration="150"/>
    <frame tileid="180" duration="150"/>
    <frame tileid="288" duration="150"/>
    <frame tileid="396" duration="150"/>
    <frame tileid="396" duration="150"/>
    <frame tileid="396" duration="150"/>
    <frame tileid="396" duration="150"/>
    <frame tileid="504" duration="150"/>
    <frame tileid="612" duration="150"/>
   </animation>
  </tile>
  <tile id="73">
   <animation>
    <frame tileid="73" duration="150"/>
    <frame tileid="73" duration="150"/>
    <frame tileid="73" duration="150"/>
    <frame tileid="73" duration="150"/>
    <frame tileid="181" duration="150"/>
    <frame tileid="289" duration="150"/>
    <frame tileid="397" duration="150"/>
    <frame tileid="397" duration="150"/>
    <frame tileid="397" duration="150"/>
    <frame tileid="397" duration="150"/>
    <frame tileid="505" duration="150"/>
    <frame tileid="613" duration="150"/>
   </animation>
  </tile>
  <tile id="74">
   <animation>
    <frame tileid="74" duration="150"/>
    <frame tileid="74" duration="150"/>
    <frame tileid="74" duration="150"/>
    <frame tileid="74" duration="150"/>
    <frame tileid="182" duration="150"/>
    <frame tileid="290" duration="150"/>
    <frame tileid="398" duration="150"/>
    <frame tileid="398" duration="150"/>
    <frame tileid="398" duration="150"/>
    <frame tileid="398" duration="150"/>
    <frame tileid="506" duration="150"/>
    <frame tileid="614" duration="150"/>
   </animation>
  </tile>
  <tile id="75">
   <animation>
    <frame tileid="75" duration="150"/>
    <frame tileid="75" duration="150"/>
    <frame tileid="75" duration="150"/>
    <frame tileid="75" duration="150"/>
    <frame tileid="183" duration="150"/>
    <frame tileid="291" duration="150"/>
    <frame tileid="399" duration="150"/>
    <frame tileid="399" duration="150"/>
    <frame tileid="399" duration="150"/>
    <frame tileid="399" duration="150"/>
    <frame tileid="507" duration="150"/>
    <frame tileid="615" duration="150"/>
   </animation>
  </tile>
  <tile id="76">
   <animation>
    <frame tileid="76" duration="150"/>
    <frame tileid="76" duration="150"/>
    <frame tileid="76" duration="150"/>
    <frame tileid="76" duration="150"/>
    <frame tileid="184" duration="150"/>
    <frame tileid="292" duration="150"/>
    <frame tileid="400" duration="150"/>
    <frame tileid="400" duration="150"/>
    <frame tileid="400" duration="150"/>
    <frame tileid="400" duration="150"/>
    <frame tileid="508" duration="150"/>
    <frame tileid="616" duration="150"/>
   </animation>
  </tile>
  <tile id="77">
   <animation>
    <frame tileid="77" duration="150"/>
    <frame tileid="77" duration="150"/>
    <frame tileid="77" duration="150"/>
    <frame tileid="77" duration="150"/>
    <frame tileid="185" duration="150"/>
    <frame tileid="293" duration="150"/>
    <frame tileid="401" duration="150"/>
    <frame tileid="401" duration="150"/>
    <frame tileid="401" duration="150"/>
    <frame tileid="401" duration="150"/>
    <frame tileid="509" duration="150"/>
    <frame tileid="617" duration="150"/>
   </animation>
  </tile>
  <tile id="78">
   <animation>
    <frame tileid="78" duration="150"/>
    <frame tileid="78" duration="150"/>
    <frame tileid="78" duration="150"/>
    <frame tileid="78" duration="150"/>
    <frame tileid="186" duration="150"/>
    <frame tileid="294" duration="150"/>
    <frame tileid="402" duration="150"/>
    <frame tileid="402" duration="150"/>
    <frame tileid="402" duration="150"/>
    <frame tileid="402" duration="150"/>
    <frame tileid="510" duration="150"/>
    <frame tileid="618" duration="150"/>
   </animation>
  </tile>
  <tile id="79">
   <animation>
    <frame tileid="79" duration="150"/>
    <frame tileid="79" duration="150"/>
    <frame tileid="79" duration="150"/>
    <frame tileid="79" duration="150"/>
    <frame tileid="187" duration="150"/>
    <frame tileid="295" duration="150"/>
    <frame tileid="403" duration="150"/>
    <frame tileid="403" duration="150"/>
    <frame tileid="403" duration="150"/>
    <frame tileid="403" duration="150"/>
    <frame tileid="511" duration="150"/>
    <frame tileid="619" duration="150"/>
   </animation>
  </tile>
  <tile id="80">
   <animation>
    <frame tileid="80" duration="150"/>
    <frame tileid="80" duration="150"/>
    <frame tileid="80" duration="150"/>
    <frame tileid="80" duration="150"/>
    <frame tileid="188" duration="150"/>
    <frame tileid="296" duration="150"/>
    <frame tileid="404" duration="150"/>
    <frame tileid="404" duration="150"/>
    <frame tileid="404" duration="150"/>
    <frame tileid="404" duration="150"/>
    <frame tileid="512" duration="150"/>
    <frame tileid="620" duration="150"/>
   </animation>
  </tile>
  <tile id="81">
   <animation>
    <frame tileid="81" duration="150"/>
    <frame tileid="81" duration="150"/>
    <frame tileid="81" duration="150"/>
    <frame tileid="81" duration="150"/>
    <frame tileid="189" duration="150"/>
    <frame tileid="297" duration="150"/>
    <frame tileid="405" duration="150"/>
    <frame tileid="405" duration="150"/>
    <frame tileid="405" duration="150"/>
    <frame tileid="405" duration="150"/>
    <frame tileid="513" duration="150"/>
    <frame tileid="621" duration="150"/>
   </animation>
  </tile>
  <tile id="82">
   <animation>
    <frame tileid="82" duration="150"/>
    <frame tileid="82" duration="150"/>
    <frame tileid="82" duration="150"/>
    <frame tileid="82" duration="150"/>
    <frame tileid="190" duration="150"/>
    <frame tileid="298" duration="150"/>
    <frame tileid="406" duration="150"/>
    <frame tileid="406" duration="150"/>
    <frame tileid="406" duration="150"/>
    <frame tileid="406" duration="150"/>
    <frame tileid="514" duration="150"/>
    <frame tileid="622" duration="150"/>
   </animation>
  </tile>
  <tile id="83">
   <animation>
    <frame tileid="83" duration="150"/>
    <frame tileid="83" duration="150"/>
    <frame tileid="83" duration="150"/>
    <frame tileid="83" duration="150"/>
    <frame tileid="191" duration="150"/>
    <frame tileid="299" duration="150"/>
    <frame tileid="407" duration="150"/>
    <frame tileid="407" duration="150"/>
    <frame tileid="407" duration="150"/>
    <frame tileid="407" duration="150"/>
    <frame tileid="515" duration="150"/>
    <frame tileid="623" duration="150"/>
   </animation>
  </tile>
  <tile id="84">
   <animation>
    <frame tileid="84" duration="150"/>
    <frame tileid="84" duration="150"/>
    <frame tileid="84" duration="150"/>
    <frame tileid="84" duration="150"/>
    <frame tileid="192" duration="150"/>
    <frame tileid="300" duration="150"/>
    <frame tileid="408" duration="150"/>
    <frame tileid="408" duration="150"/>
    <frame tileid="408" duration="150"/>
    <frame tileid="408" duration="150"/>
    <frame tileid="516" duration="150"/>
    <frame tileid="624" duration="150"/>
   </animation>
  </tile>
  <tile id="85">
   <animation>
    <frame tileid="85" duration="150"/>
    <frame tileid="85" duration="150"/>
    <frame tileid="85" duration="150"/>
    <frame tileid="85" duration="150"/>
    <frame tileid="193" duration="150"/>
    <frame tileid="301" duration="150"/>
    <frame tileid="409" duration="150"/>
    <frame tileid="409" duration="150"/>
    <frame tileid="409" duration="150"/>
    <frame tileid="409" duration="150"/>
    <frame tileid="517" duration="150"/>
    <frame tileid="625" duration="150"/>
   </animation>
  </tile>
  <tile id="86">
   <animation>
    <frame tileid="86" duration="150"/>
    <frame tileid="86" duration="150"/>
    <frame tileid="86" duration="150"/>
    <frame tileid="86" duration="150"/>
    <frame tileid="194" duration="150"/>
    <frame tileid="302" duration="150"/>
    <frame tileid="410" duration="150"/>
    <frame tileid="410" duration="150"/>
    <frame tileid="410" duration="150"/>
    <frame tileid="410" duration="150"/>
    <frame tileid="518" duration="150"/>
    <frame tileid="626" duration="150"/>
   </animation>
  </tile>
  <tile id="87">
   <animation>
    <frame tileid="87" duration="150"/>
    <frame tileid="87" duration="150"/>
    <frame tileid="87" duration="150"/>
    <frame tileid="87" duration="150"/>
    <frame tileid="195" duration="150"/>
    <frame tileid="303" duration="150"/>
    <frame tileid="411" duration="150"/>
    <frame tileid="411" duration="150"/>
    <frame tileid="411" duration="150"/>
    <frame tileid="411" duration="150"/>
    <frame tileid="519" duration="150"/>
    <frame tileid="627" duration="150"/>
   </animation>
  </tile>
  <tile id="90">
   <animation>
    <frame tileid="90" duration="150"/>
    <frame tileid="90" duration="150"/>
    <frame tileid="90" duration="150"/>
    <frame tileid="90" duration="150"/>
    <frame tileid="198" duration="150"/>
    <frame tileid="306" duration="150"/>
    <frame tileid="414" duration="150"/>
    <frame tileid="414" duration="150"/>
    <frame tileid="414" duration="150"/>
    <frame tileid="414" duration="150"/>
    <frame tileid="522" duration="150"/>
    <frame tileid="630" duration="150"/>
   </animation>
  </tile>
  <tile id="91">
   <animation>
    <frame tileid="91" duration="150"/>
    <frame tileid="91" duration="150"/>
    <frame tileid="91" duration="150"/>
    <frame tileid="91" duration="150"/>
    <frame tileid="199" duration="150"/>
    <frame tileid="307" duration="150"/>
    <frame tileid="415" duration="150"/>
    <frame tileid="415" duration="150"/>
    <frame tileid="415" duration="150"/>
    <frame tileid="415" duration="150"/>
    <frame tileid="523" duration="150"/>
    <frame tileid="631" duration="150"/>
   </animation>
  </tile>
  <tile id="92">
   <animation>
    <frame tileid="92" duration="150"/>
    <frame tileid="92" duration="150"/>
    <frame tileid="92" duration="150"/>
    <frame tileid="92" duration="150"/>
    <frame tileid="200" duration="150"/>
    <frame tileid="308" duration="150"/>
    <frame tileid="416" duration="150"/>
    <frame tileid="416" duration="150"/>
    <frame tileid="416" duration="150"/>
    <frame tileid="416" duration="150"/>
    <frame tileid="524" duration="150"/>
    <frame tileid="632" duration="150"/>
   </animation>
  </tile>
  <tile id="93">
   <animation>
    <frame tileid="93" duration="150"/>
    <frame tileid="93" duration="150"/>
    <frame tileid="93" duration="150"/>
    <frame tileid="93" duration="150"/>
    <frame tileid="201" duration="150"/>
    <frame tileid="309" duration="150"/>
    <frame tileid="417" duration="150"/>
    <frame tileid="417" duration="150"/>
    <frame tileid="417" duration="150"/>
    <frame tileid="417" duration="150"/>
    <frame tileid="525" duration="150"/>
    <frame tileid="633" duration="150"/>
   </animation>
  </tile>
  <tile id="94">
   <animation>
    <frame tileid="94" duration="150"/>
    <frame tileid="94" duration="150"/>
    <frame tileid="94" duration="150"/>
    <frame tileid="94" duration="150"/>
    <frame tileid="202" duration="150"/>
    <frame tileid="310" duration="150"/>
    <frame tileid="418" duration="150"/>
    <frame tileid="418" duration="150"/>
    <frame tileid="418" duration="150"/>
    <frame tileid="418" duration="150"/>
    <frame tileid="526" duration="150"/>
    <frame tileid="634" duration="150"/>
   </animation>
  </tile>
  <tile id="95">
   <animation>
    <frame tileid="95" duration="150"/>
    <frame tileid="95" duration="150"/>
    <frame tileid="95" duration="150"/>
    <frame tileid="95" duration="150"/>
    <frame tileid="203" duration="150"/>
    <frame tileid="311" duration="150"/>
    <frame tileid="419" duration="150"/>
    <frame tileid="419" duration="150"/>
    <frame tileid="419" duration="150"/>
    <frame tileid="419" duration="150"/>
    <frame tileid="527" duration="150"/>
    <frame tileid="635" duration="150"/>
   </animation>
  </tile>
  <tile id="96">
   <animation>
    <frame tileid="96" duration="150"/>
    <frame tileid="96" duration="150"/>
    <frame tileid="96" duration="150"/>
    <frame tileid="96" duration="150"/>
    <frame tileid="204" duration="150"/>
    <frame tileid="312" duration="150"/>
    <frame tileid="420" duration="150"/>
    <frame tileid="420" duration="150"/>
    <frame tileid="420" duration="150"/>
    <frame tileid="420" duration="150"/>
    <frame tileid="528" duration="150"/>
    <frame tileid="636" duration="150"/>
   </animation>
  </tile>
  <tile id="97">
   <animation>
    <frame tileid="97" duration="150"/>
    <frame tileid="97" duration="150"/>
    <frame tileid="97" duration="150"/>
    <frame tileid="97" duration="150"/>
    <frame tileid="205" duration="150"/>
    <frame tileid="313" duration="150"/>
    <frame tileid="421" duration="150"/>
    <frame tileid="421" duration="150"/>
    <frame tileid="421" duration="150"/>
    <frame tileid="421" duration="150"/>
    <frame tileid="529" duration="150"/>
    <frame tileid="637" duration="150"/>
   </animation>
  </tile>
  <tile id="98">
   <animation>
    <frame tileid="98" duration="150"/>
    <frame tileid="98" duration="150"/>
    <frame tileid="98" duration="150"/>
    <frame tileid="98" duration="150"/>
    <frame tileid="206" duration="150"/>
    <frame tileid="314" duration="150"/>
    <frame tileid="422" duration="150"/>
    <frame tileid="422" duration="150"/>
    <frame tileid="422" duration="150"/>
    <frame tileid="422" duration="150"/>
    <frame tileid="530" duration="150"/>
    <frame tileid="638" duration="150"/>
   </animation>
  </tile>
  <tile id="99">
   <animation>
    <frame tileid="99" duration="150"/>
    <frame tileid="99" duration="150"/>
    <frame tileid="99" duration="150"/>
    <frame tileid="99" duration="150"/>
    <frame tileid="207" duration="150"/>
    <frame tileid="315" duration="150"/>
    <frame tileid="423" duration="150"/>
    <frame tileid="423" duration="150"/>
    <frame tileid="423" duration="150"/>
    <frame tileid="423" duration="150"/>
    <frame tileid="531" duration="150"/>
    <frame tileid="639" duration="150"/>
   </animation>
  </tile>
  <tile id="100">
   <animation>
    <frame tileid="100" duration="150"/>
    <frame tileid="100" duration="150"/>
    <frame tileid="100" duration="150"/>
    <frame tileid="100" duration="150"/>
    <frame tileid="208" duration="150"/>
    <frame tileid="316" duration="150"/>
    <frame tileid="424" duration="150"/>
    <frame tileid="424" duration="150"/>
    <frame tileid="424" duration="150"/>
    <frame tileid="424" duration="150"/>
    <frame tileid="532" duration="150"/>
    <frame tileid="640" duration="150"/>
   </animation>
  </tile>
  <tile id="101">
   <animation>
    <frame tileid="101" duration="150"/>
    <frame tileid="101" duration="150"/>
    <frame tileid="101" duration="150"/>
    <frame tileid="101" duration="150"/>
    <frame tileid="209" duration="150"/>
    <frame tileid="317" duration="150"/>
    <frame tileid="425" duration="150"/>
    <frame tileid="425" duration="150"/>
    <frame tileid="425" duration="150"/>
    <frame tileid="425" duration="150"/>
    <frame tileid="533" duration="150"/>
    <frame tileid="641" duration="150"/>
   </animation>
  </tile>
  <tile id="102">
   <animation>
    <frame tileid="102" duration="150"/>
    <frame tileid="102" duration="150"/>
    <frame tileid="102" duration="150"/>
    <frame tileid="102" duration="150"/>
    <frame tileid="210" duration="150"/>
    <frame tileid="318" duration="150"/>
    <frame tileid="426" duration="150"/>
    <frame tileid="426" duration="150"/>
    <frame tileid="426" duration="150"/>
    <frame tileid="426" duration="150"/>
    <frame tileid="534" duration="150"/>
    <frame tileid="642" duration="150"/>
   </animation>
  </tile>
  <tile id="103">
   <animation>
    <frame tileid="103" duration="150"/>
    <frame tileid="103" duration="150"/>
    <frame tileid="103" duration="150"/>
    <frame tileid="103" duration="150"/>
    <frame tileid="211" duration="150"/>
    <frame tileid="319" duration="150"/>
    <frame tileid="427" duration="150"/>
    <frame tileid="427" duration="150"/>
    <frame tileid="427" duration="150"/>
    <frame tileid="427" duration="150"/>
    <frame tileid="535" duration="150"/>
    <frame tileid="643" duration="150"/>
   </animation>
  </tile>
  <tile id="104">
   <animation>
    <frame tileid="104" duration="150"/>
    <frame tileid="104" duration="150"/>
    <frame tileid="104" duration="150"/>
    <frame tileid="104" duration="150"/>
    <frame tileid="212" duration="150"/>
    <frame tileid="320" duration="150"/>
    <frame tileid="428" duration="150"/>
    <frame tileid="428" duration="150"/>
    <frame tileid="428" duration="150"/>
    <frame tileid="428" duration="150"/>
    <frame tileid="536" duration="150"/>
    <frame tileid="644" duration="150"/>
   </animation>
  </tile>
  <tile id="105">
   <animation>
    <frame tileid="105" duration="150"/>
    <frame tileid="105" duration="150"/>
    <frame tileid="105" duration="150"/>
    <frame tileid="105" duration="150"/>
    <frame tileid="213" duration="150"/>
    <frame tileid="321" duration="150"/>
    <frame tileid="429" duration="150"/>
    <frame tileid="429" duration="150"/>
    <frame tileid="429" duration="150"/>
    <frame tileid="429" duration="150"/>
    <frame tileid="537" duration="150"/>
    <frame tileid="645" duration="150"/>
   </animation>
  </tile>
 </tileset>
 <layer id="6" name="Floor" width="16" height="24">
  <data encoding="csv">
   <chunk x="-16" y="-16" width="16" height="16">
0,0,0,0,0,0,0,0,0,0,0,0,0,0,0,0,
0,0,0,0,0,0,0,0,0,0,0,0,0,0,0,0,
0,0,0,0,0,0,0,0,0,0,0,0,0,0,0,0,
0,0,0,0,0,0,0,0,0,0,0,0,0,0,0,0,
0,0,0,0,0,0,0,0,0,0,0,0,0,0,0,0,
0,0,0,0,0,0,0,0,0,0,0,0,0,0,0,0,
0,0,0,0,0,0,0,0,0,0,0,0,0,0,0,0,
0,0,0,0,0,0,0,0,0,0,0,0,0,0,0,0,
0,0,0,0,0,0,0,0,0,0,0,0,0,0,0,0,
0,0,0,0,0,0,0,0,0,0,0,0,0,0,0,0,
0,0,0,0,0,0,0,0,0,0,0,0,0,0,0,0,
0,0,0,0,0,0,0,0,0,0,0,0,0,0,0,0,
0,0,0,0,0,328,328,329,330,328,329,330,328,329,330,328,
0,0,0,0,0,349,349,350,351,349,350,351,349,350,351,349,
0,0,0,0,0,370,370,371,372,370,371,372,370,371,372,370,
0,0,0,0,0,328,329,330,330,328,328,328,328,328,328,328
</chunk>
   <chunk x="0" y="-16" width="16" height="16">
0,0,0,0,0,0,0,0,0,0,0,0,0,0,0,0,
0,0,0,0,0,0,0,0,0,0,0,0,0,0,0,0,
0,0,0,0,0,0,0,0,0,0,0,0,0,0,0,0,
0,0,0,0,0,0,0,0,0,0,0,0,0,0,0,0,
0,0,0,0,0,0,0,0,0,0,0,0,0,0,0,0,
0,0,0,0,0,0,0,0,0,0,0,0,0,0,0,0,
0,0,0,0,0,0,0,0,0,0,0,0,0,0,0,0,
0,0,0,0,0,0,0,0,0,0,0,0,0,0,0,0,
0,0,0,0,0,0,0,0,0,0,0,0,0,0,0,0,
0,0,0,0,0,0,0,0,0,0,0,0,0,0,0,0,
0,0,0,0,0,0,0,0,0,0,0,0,0,0,0,0,
0,0,0,0,0,0,0,0,0,0,0,0,0,0,0,0,
329,330,328,329,330,328,329,328,329,330,328,0,0,0,0,0,
350,351,349,350,351,349,350,349,350,351,349,0,0,0,0,0,
371,372,370,371,372,370,371,370,371,372,370,0,0,0,0,0,
328,328,328,328,328,328,328,328,328,329,330,0,0,0,0,0
</chunk>
   <chunk x="-16" y="0" width="16" height="16">
0,0,0,0,0,349,350,351,351,349,349,349,349,349,349,349,
0,0,0,0,0,370,371,372,372,370,370,370,370,370,370,370,
0,0,0,0,0,328,370,371,372,328,370,371,372,372,372,372,
0,0,0,0,0,349,350,351,351,349,350,351,349,350,351,349,
0,0,0,0,0,370,371,372,372,370,371,372,370,371,372,370,
0,0,0,0,0,370,371,372,347,349,338,347,280,254,255,344,
0,0,0,0,0,368,359,254,368,254,359,368,369,275,367,365,
0,0,0,0,0,275,275,275,275,275,275,275,275,275,275,275,
0,0,0,0,0,275,275,275,275,275,275,275,275,275,275,275,
0,0,0,0,0,275,275,275,275,275,275,275,275,275,275,275,
0,0,0,0,0,0,0,0,0,0,0,0,0,0,0,0,
0,0,0,0,0,0,0,0,0,0,0,0,0,0,0,0,
0,0,0,0,0,0,0,0,0,0,0,0,0,0,0,0,
0,0,0,0,0,0,0,0,0,0,0,0,0,0,0,0,
0,0,0,0,0,0,0,0,0,0,0,0,0,0,0,0,
0,0,0,0,0,0,0,0,0,0,0,0,0,0,0,0
</chunk>
   <chunk x="0" y="0" width="16" height="16">
349,349,349,349,349,349,349,349,349,350,351,0,0,0,0,0,
370,370,370,370,370,370,370,370,370,371,372,0,0,0,0,0,
372,372,372,372,372,372,372,372,372,372,372,0,0,0,0,0,
350,351,349,350,351,349,350,351,328,329,330,0,0,0,0,0,
371,372,370,371,372,370,371,372,349,350,351,0,0,0,0,0,
350,253,254,365,346,347,338,347,370,371,372,0,0,0,0,0,
257,360,275,275,367,368,359,368,365,263,368,0,0,0,0,0,
275,275,275,275,275,275,275,275,275,275,275,0,0,0,0,0,
275,275,275,275,275,275,275,275,275,275,275,0,0,0,0,0,
275,275,275,275,275,275,275,275,275,275,275,0,0,0,0,0,
0,0,0,0,0,0,0,0,0,0,0,0,0,0,0,0,
0,0,0,0,0,0,0,0,0,0,0,0,0,0,0,0,
0,0,0,0,0,0,0,0,0,0,0,0,0,0,0,0,
0,0,0,0,0,0,0,0,0,0,0,0,0,0,0,0,
0,0,0,0,0,0,0,0,0,0,0,0,0,0,0,0,
0,0,0,0,0,0,0,0,0,0,0,0,0,0,0,0
</chunk>
  </data>
 </layer>
 <layer id="9" name="Floor_details" width="16" height="24">
  <data encoding="csv">
   <chunk x="-16" y="0" width="16" height="16">
0,0,0,0,0,0,0,0,0,0,0,0,0,0,0,0,
0,0,0,0,0,0,0,0,0,0,0,0,0,0,0,0,
0,0,0,0,0,0,0,0,0,0,0,0,0,0,0,0,
0,0,0,0,0,0,0,0,0,0,0,0,0,0,0,0,
0,0,0,0,0,0,0,0,0,0,0,0,0,0,0,0,
0,0,0,0,0,0,0,0,0,0,0,0,0,0,0,0,
0,0,0,0,0,0,0,0,0,0,0,0,0,0,0,0,
0,0,0,0,0,0,0,336,0,377,378,0,0,333,334,0,
0,0,0,0,0,0,0,0,356,0,0,0,335,0,0,0,
0,0,0,0,0,0,0,0,0,0,0,0,0,0,373,0,
0,0,0,0,0,0,0,0,0,0,0,0,0,0,0,0,
0,0,0,0,0,0,0,0,0,0,0,0,0,0,0,0,
0,0,0,0,0,0,0,0,0,0,0,0,0,0,0,0,
0,0,0,0,0,0,0,0,0,0,0,0,0,0,0,0,
0,0,0,0,0,0,0,0,0,0,0,0,0,0,0,0,
0,0,0,0,0,0,0,0,0,0,0,0,0,0,0,0
</chunk>
   <chunk x="0" y="0" width="16" height="16">
0,0,0,0,0,0,0,0,0,0,0,0,0,0,0,0,
0,0,0,0,0,0,0,0,0,0,0,0,0,0,0,0,
0,0,0,0,0,0,0,0,0,0,0,0,0,0,0,0,
0,0,0,0,0,0,0,0,0,0,0,0,0,0,0,0,
0,0,0,0,0,0,0,0,0,0,0,0,0,0,0,0,
0,0,0,0,0,0,0,0,0,0,0,0,0,0,0,0,
0,0,331,332,0,0,0,0,0,0,0,0,0,0,0,0,
0,0,352,353,0,0,373,0,0,0,0,0,0,0,0,0,
377,378,0,0,354,355,0,0,374,0,0,0,0,0,0,0,
0,0,0,356,0,0,0,0,0,0,0,0,0,0,0,0,
0,0,0,0,0,0,0,0,0,0,0,0,0,0,0,0,
0,0,0,0,0,0,0,0,0,0,0,0,0,0,0,0,
0,0,0,0,0,0,0,0,0,0,0,0,0,0,0,0,
0,0,0,0,0,0,0,0,0,0,0,0,0,0,0,0,
0,0,0,0,0,0,0,0,0,0,0,0,0,0,0,0,
0,0,0,0,0,0,0,0,0,0,0,0,0,0,0,0
</chunk>
  </data>
 </layer>
 <layer id="3" name="Walls_grass" width="16" height="24">
  <data encoding="csv">
   <chunk x="-16" y="-16" width="16" height="16">
0,0,0,0,0,0,0,0,0,0,0,0,0,0,0,0,
0,0,0,0,0,0,0,0,0,0,0,0,0,0,0,0,
0,0,0,0,0,0,0,0,0,0,0,0,0,0,0,0,
0,0,0,0,0,0,0,0,0,0,0,0,0,0,0,0,
0,0,0,0,0,0,0,0,0,0,0,0,0,0,0,0,
0,0,0,0,0,0,0,0,0,0,0,0,0,0,0,0,
0,0,0,0,0,0,0,0,0,0,0,0,0,0,0,0,
0,0,0,0,0,0,0,0,0,0,0,0,0,0,0,0,
0,0,0,0,0,0,0,0,0,0,0,0,0,0,0,0,
0,0,0,0,0,0,0,0,0,0,0,0,0,0,0,0,
0,0,0,0,0,0,0,0,0,0,0,0,0,0,0,0,
0,0,0,0,0,204,204,204,204,204,204,204,204,204,204,204,
0,0,0,0,0,204,204,204,204,204,205,225,204,204,206,204,
0,0,0,0,0,204,228,204,204,7,44,208,44,209,44,44,
0,0,0,0,0,204,204,204,207,439,65,65,380,65,65,65,
0,0,0,0,0,44,44,231,44,114,418,589,121,122,120,121
</chunk>
   <chunk x="0" y="-16" width="16" height="16">
0,0,0,0,0,0,0,0,0,0,0,0,0,0,0,0,
0,0,0,0,0,0,0,0,0,0,0,0,0,0,0,0,
0,0,0,0,0,0,0,0,0,0,0,0,0,0,0,0,
0,0,0,0,0,0,0,0,0,0,0,0,0,0,0,0,
0,0,0,0,0,0,0,0,0,0,0,0,0,0,0,0,
0,0,0,0,0,0,0,0,0,0,0,0,0,0,0,0,
0,0,0,0,0,0,0,0,0,0,0,0,0,0,0,0,
0,0,0,0,0,0,0,0,0,0,0,0,0,0,0,0,
0,0,0,0,0,0,0,0,0,0,0,0,0,0,0,0,
0,0,0,0,0,0,0,0,0,0,0,0,0,0,0,0,
0,0,0,0,0,0,0,0,0,0,0,0,0,0,0,0,
204,204,204,204,204,204,204,204,204,204,204,0,0,0,0,0,
204,204,205,206,225,204,204,204,204,204,204,0,0,0,0,0,
44,44,44,44,44,229,8,204,204,225,204,0,0,0,0,0,
65,65,65,551,65,65,387,227,204,204,204,0,0,0,0,0,
122,120,121,122,475,532,115,210,230,44,44,0,0,0,0,0
</chunk>
   <chunk x="-16" y="0" width="16" height="16">
0,0,0,0,0,65,437,65,65,135,193,193,193,193,193,193,
0,0,0,0,0,122,120,475,532,156,193,193,193,193,193,193,
0,0,0,0,0,193,193,193,193,193,193,195,219,220,221,214,
0,0,0,0,0,193,193,193,193,193,193,170,0,0,0,0,
0,0,0,0,0,193,193,193,193,193,193,194,0,0,0,0,
0,0,0,0,0,220,221,219,220,221,214,215,0,0,0,0,
0,0,0,0,0,0,0,0,0,0,0,0,0,0,0,0,
0,0,0,0,0,0,0,0,0,0,0,0,0,0,0,0,
0,0,0,0,0,0,0,0,0,0,0,0,0,0,0,0,
0,0,0,0,0,0,0,0,0,0,0,0,0,0,0,0,
0,0,0,0,0,0,0,0,0,0,0,0,0,0,0,0,
0,0,0,0,0,0,0,0,0,0,0,0,0,0,0,0,
0,0,0,0,0,0,0,0,0,0,0,0,0,0,0,0,
0,0,0,0,0,0,0,0,0,0,0,0,0,0,0,0,
0,0,0,0,0,0,0,0,0,0,0,0,0,0,0,0,
0,0,0,0,0,0,0,0,0,0,0,0,0,0,0,0
</chunk>
   <chunk x="0" y="0" width="16" height="16">
193,193,193,193,193,193,136,608,65,494,65,0,0,0,0,0,
193,193,193,193,193,193,157,589,418,121,122,0,0,0,0,0,
219,220,221,214,196,193,193,193,193,193,193,0,0,0,0,0,
0,0,0,0,169,193,193,193,193,193,193,0,0,0,0,0,
0,0,0,0,192,193,193,193,193,193,193,0,0,0,0,0,
0,0,0,0,213,214,219,220,221,219,220,0,0,0,0,0,
0,0,0,0,0,0,0,0,0,0,0,0,0,0,0,0,
0,0,0,0,0,0,0,0,0,0,0,0,0,0,0,0,
0,0,0,0,0,0,0,0,0,0,0,0,0,0,0,0,
0,0,0,0,0,0,0,0,0,0,0,0,0,0,0,0,
0,0,0,0,0,0,0,0,0,0,0,0,0,0,0,0,
0,0,0,0,0,0,0,0,0,0,0,0,0,0,0,0,
0,0,0,0,0,0,0,0,0,0,0,0,0,0,0,0,
0,0,0,0,0,0,0,0,0,0,0,0,0,0,0,0,
0,0,0,0,0,0,0,0,0,0,0,0,0,0,0,0,
0,0,0,0,0,0,0,0,0,0,0,0,0,0,0,0
</chunk>
  </data>
 </layer>
 <layer id="10" name="Grass_details" width="16" height="24">
  <data encoding="csv">
   <chunk x="-16" y="0" width="16" height="16">
0,0,0,0,0,0,0,0,0,0,266,267,0,0,0,0,
0,0,0,0,0,0,0,0,0,0,249,250,0,0,0,0,
0,0,0,0,0,251,252,0,266,267,0,0,0,0,0,0,
0,0,0,0,0,246,0,0,249,250,0,0,0,0,0,0,
0,0,0,0,0,0,271,272,0,290,291,292,0,0,0,0,
0,0,0,0,0,0,0,0,0,0,0,0,0,0,0,0,
0,0,0,0,0,0,0,0,0,0,0,0,0,0,0,0,
0,0,0,0,0,0,0,0,0,0,0,0,0,0,0,0,
0,0,0,0,0,0,0,0,0,0,0,0,0,0,0,0,
0,0,0,0,0,0,0,0,0,0,0,0,0,0,0,0,
0,0,0,0,0,0,0,0,0,0,0,0,0,0,0,0,
0,0,0,0,0,0,0,0,0,0,0,0,0,0,0,0,
0,0,0,0,0,0,0,0,0,0,0,0,0,0,0,0,
0,0,0,0,0,0,0,0,0,0,0,0,0,0,0,0,
0,0,0,0,0,0,0,0,0,0,0,0,0,0,0,0,
0,0,0,0,0,0,0,0,0,0,0,0,0,0,0,0
</chunk>
   <chunk x="0" y="0" width="16" height="16">
0,0,0,0,313,314,315,0,0,0,0,0,0,0,0,0,
0,0,0,0,249,250,0,0,0,0,0,0,0,0,0,0,
0,0,0,0,0,0,273,0,2147483916,310,311,0,0,0,0,0,
0,0,0,0,0,2147483915,2147483914,0,0,0,0,0,0,0,0,0,
0,0,0,0,251,252,0,290,291,292,246,0,0,0,0,0,
0,0,0,0,0,0,0,0,0,0,0,0,0,0,0,0,
0,0,0,0,0,0,0,0,0,0,0,0,0,0,0,0,
0,0,0,0,0,0,0,0,0,0,0,0,0,0,0,0,
0,0,0,0,0,0,0,0,0,0,0,0,0,0,0,0,
0,0,0,0,0,0,0,0,0,0,0,0,0,0,0,0,
0,0,0,0,0,0,0,0,0,0,0,0,0,0,0,0,
0,0,0,0,0,0,0,0,0,0,0,0,0,0,0,0,
0,0,0,0,0,0,0,0,0,0,0,0,0,0,0,0,
0,0,0,0,0,0,0,0,0,0,0,0,0,0,0,0,
0,0,0,0,0,0,0,0,0,0,0,0,0,0,0,0,
0,0,0,0,0,0,0,0,0,0,0,0,0,0,0,0
</chunk>
  </data>
 </layer>
 <layer id="11" name="Grass_details2" width="16" height="24">
  <data encoding="csv">
   <chunk x="0" y="0" width="16" height="16">
0,0,0,0,0,0,0,0,0,0,0,0,0,0,0,0,
0,0,0,0,0,0,0,0,0,0,0,0,0,0,0,0,
0,0,0,0,0,0,0,0,0,0,0,0,0,0,0,0,
0,0,0,0,0,0,0,0,0,0,0,0,0,0,0,0,
0,0,0,0,0,249,250,0,0,0,0,0,0,0,0,0,
0,0,0,0,0,0,0,0,0,0,0,0,0,0,0,0,
0,0,0,0,0,0,0,0,0,0,0,0,0,0,0,0,
0,0,0,0,0,0,0,0,0,0,0,0,0,0,0,0,
0,0,0,0,0,0,0,0,0,0,0,0,0,0,0,0,
0,0,0,0,0,0,0,0,0,0,0,0,0,0,0,0,
0,0,0,0,0,0,0,0,0,0,0,0,0,0,0,0,
0,0,0,0,0,0,0,0,0,0,0,0,0,0,0,0,
0,0,0,0,0,0,0,0,0,0,0,0,0,0,0,0,
0,0,0,0,0,0,0,0,0,0,0,0,0,0,0,0,
0,0,0,0,0,0,0,0,0,0,0,0,0,0,0,0,
0,0,0,0,0,0,0,0,0,0,0,0,0,0,0,0
</chunk>
  </data>
 </layer>
 <layer id="12" name="House" width="16" height="24">
  <data encoding="csv">
   <chunk x="-16" y="-16" width="16" height="16">
0,0,0,0,0,0,0,0,0,0,0,0,0,0,0,0,
0,0,0,0,0,0,0,0,0,0,0,0,0,0,0,0,
0,0,0,0,0,0,0,0,0,0,0,0,0,0,0,0,
0,0,0,0,0,0,0,0,0,0,0,0,0,0,0,0,
0,0,0,0,0,0,0,0,0,0,0,0,0,0,0,0,
0,0,0,0,0,0,0,0,0,0,0,0,0,0,0,0,
0,0,0,0,0,0,0,0,0,0,0,0,0,0,0,0,
0,0,0,0,0,0,0,0,0,0,0,0,0,0,0,0,
0,0,0,0,0,0,0,0,0,0,0,0,0,0,0,0,
0,0,0,0,0,0,0,0,0,0,0,0,0,0,0,0,
0,0,0,0,0,0,0,0,0,0,0,0,0,0,0,0,
0,0,0,0,0,0,0,0,0,0,0,0,0,0,0,0,
0,0,0,0,0,0,0,0,0,0,0,0,672,673,674,675,
0,0,0,0,0,0,0,0,0,0,0,0,703,704,705,706,
0,0,0,0,0,0,0,0,0,0,0,0,734,735,736,737,
0,0,0,0,0,0,0,0,0,0,0,0,765,766,767,768
</chunk>
   <chunk x="0" y="-16" width="16" height="16">
0,0,0,0,0,0,0,0,0,0,0,0,0,0,0,0,
0,0,0,0,0,0,0,0,0,0,0,0,0,0,0,0,
0,0,0,0,0,0,0,0,0,0,0,0,0,0,0,0,
0,0,0,0,0,0,0,0,0,0,0,0,0,0,0,0,
0,0,0,0,0,0,0,0,0,0,0,0,0,0,0,0,
0,0,0,0,0,0,0,0,0,0,0,0,0,0,0,0,
0,0,0,0,0,0,0,0,0,0,0,0,0,0,0,0,
0,0,0,0,0,0,0,0,0,0,0,0,0,0,0,0,
0,0,0,0,0,0,0,0,0,0,0,0,0,0,0,0,
0,0,0,0,0,0,0,0,0,0,0,0,0,0,0,0,
0,0,0,0,0,0,0,0,0,0,0,0,0,0,0,0,
0,0,0,0,0,0,0,0,0,0,0,0,0,0,0,0,
676,677,678,679,0,0,0,0,0,0,0,0,0,0,0,0,
707,708,709,710,0,0,0,0,0,0,0,0,0,0,0,0,
738,739,740,741,0,0,0,0,0,0,0,0,0,0,0,0,
769,770,771,772,0,0,0,0,0,0,0,0,0,0,0,0
</chunk>
   <chunk x="-16" y="0" width="16" height="16">
0,0,0,0,0,0,0,0,0,0,0,0,796,797,798,799,
0,0,0,0,0,0,0,0,0,0,0,0,827,828,829,830,
0,0,0,0,0,0,0,0,0,0,0,0,858,859,860,861,
0,0,0,0,0,0,0,0,0,0,0,0,889,890,891,990,
0,0,0,0,0,0,0,0,0,0,0,0,920,921,922,1008,
0,0,0,0,0,0,0,0,0,0,0,0,951,952,953,1026,
0,0,0,0,0,0,0,0,0,0,0,0,0,0,0,0,
0,0,0,0,0,0,0,0,0,0,0,0,0,0,0,0,
0,0,0,0,0,0,0,0,0,0,0,0,0,0,0,0,
0,0,0,0,0,0,0,0,0,0,0,0,0,0,0,0,
0,0,0,0,0,0,0,0,0,0,0,0,0,0,0,0,
0,0,0,0,0,0,0,0,0,0,0,0,0,0,0,0,
0,0,0,0,0,0,0,0,0,0,0,0,0,0,0,0,
0,0,0,0,0,0,0,0,0,0,0,0,0,0,0,0,
0,0,0,0,0,0,0,0,0,0,0,0,0,0,0,0,
0,0,0,0,0,0,0,0,0,0,0,0,0,0,0,0
</chunk>
   <chunk x="0" y="0" width="16" height="16">
800,801,802,803,0,0,0,0,0,0,0,0,0,0,0,0,
831,832,833,834,0,0,0,0,0,0,0,0,0,0,0,0,
862,863,864,865,0,0,0,0,0,0,0,0,0,0,0,0,
991,894,895,896,0,0,0,0,0,0,0,0,0,0,0,0,
1009,925,926,927,0,0,0,0,0,0,0,0,0,0,0,0,
1027,956,957,958,0,0,0,0,0,0,0,0,0,0,0,0,
0,0,0,0,0,0,0,0,0,0,0,0,0,0,0,0,
0,0,0,0,0,0,0,0,0,0,0,0,0,0,0,0,
0,0,0,0,0,0,0,0,0,0,0,0,0,0,0,0,
0,0,0,0,0,0,0,0,0,0,0,0,0,0,0,0,
0,0,0,0,0,0,0,0,0,0,0,0,0,0,0,0,
0,0,0,0,0,0,0,0,0,0,0,0,0,0,0,0,
0,0,0,0,0,0,0,0,0,0,0,0,0,0,0,0,
0,0,0,0,0,0,0,0,0,0,0,0,0,0,0,0,
0,0,0,0,0,0,0,0,0,0,0,0,0,0,0,0,
0,0,0,0,0,0,0,0,0,0,0,0,0,0,0,0
</chunk>
  </data>
 </layer>
 <layer id="13" name="Trees" width="16" height="24">
  <data encoding="csv">
   <chunk x="-16" y="-16" width="16" height="16">
0,0,0,0,0,0,0,0,0,0,0,0,0,0,0,0,
0,0,0,0,0,0,0,0,0,0,0,0,0,0,0,0,
0,0,0,0,0,0,0,0,0,0,0,0,0,0,0,0,
0,0,0,0,0,0,0,0,0,0,0,0,0,0,0,0,
0,0,0,0,0,0,0,0,0,0,0,0,0,0,0,0,
0,0,0,0,0,0,0,0,0,0,0,0,0,0,0,0,
0,0,0,0,0,0,0,0,0,0,0,0,0,0,0,0,
0,0,0,0,0,0,0,0,0,0,0,0,0,0,0,0,
0,0,0,0,0,0,0,0,0,0,0,0,0,0,0,0,
0,0,0,0,0,0,0,0,0,0,0,0,0,0,0,0,
0,0,0,0,0,0,0,0,0,0,0,0,0,0,0,0,
0,0,0,0,0,0,0,0,0,0,0,0,0,0,0,0,
0,0,0,0,0,0,0,0,0,0,0,0,0,0,0,0,
0,0,0,0,0,0,0,0,0,0,0,0,0,0,0,0,
0,0,0,0,0,0,0,0,0,0,0,0,0,0,0,0,
0,0,0,0,0,0,0,0,688,689,690,691,0,0,0,0
</chunk>
   <chunk x="-16" y="0" width="16" height="16">
0,0,0,0,0,0,0,0,719,720,721,722,0,0,0,0,
0,0,0,0,0,0,0,0,750,751,752,753,0,0,0,0,
0,0,0,0,0,0,0,0,781,782,783,784,0,0,0,0,
0,0,0,0,0,0,0,0,812,813,814,815,0,0,0,0,
0,0,0,0,0,0,0,0,0,0,0,0,0,0,0,0,
0,0,0,0,0,0,0,0,0,0,0,0,0,0,0,0,
0,0,0,0,0,0,0,0,0,0,0,0,0,0,0,0,
0,0,0,0,0,0,0,0,0,0,0,0,0,0,0,0,
0,0,0,0,0,0,0,0,0,0,0,0,0,0,0,0,
0,0,0,0,0,0,0,0,0,0,0,0,0,0,0,0,
0,0,0,0,0,0,0,0,0,0,0,0,0,0,0,0,
0,0,0,0,0,0,0,0,0,0,0,0,0,0,0,0,
0,0,0,0,0,0,0,0,0,0,0,0,0,0,0,0,
0,0,0,0,0,0,0,0,0,0,0,0,0,0,0,0,
0,0,0,0,0,0,0,0,0,0,0,0,0,0,0,0,
0,0,0,0,0,0,0,0,0,0,0,0,0,0,0,0
</chunk>
   <chunk x="0" y="0" width="16" height="16">
0,0,0,0,0,0,685,686,687,0,0,0,0,0,0,0,
0,0,0,0,0,0,716,717,718,0,0,0,0,0,0,0,
0,0,0,0,0,0,747,748,749,0,0,0,0,0,0,0,
0,0,0,0,0,0,778,779,780,0,0,0,0,0,0,0,
0,0,0,0,0,0,0,0,0,0,0,0,0,0,0,0,
0,0,0,0,0,0,0,0,0,0,0,0,0,0,0,0,
0,0,0,0,0,0,0,0,0,0,0,0,0,0,0,0,
0,0,0,0,0,0,0,0,0,0,0,0,0,0,0,0,
0,0,0,0,0,0,0,0,0,0,0,0,0,0,0,0,
0,0,0,0,0,0,0,0,0,0,0,0,0,0,0,0,
0,0,0,0,0,0,0,0,0,0,0,0,0,0,0,0,
0,0,0,0,0,0,0,0,0,0,0,0,0,0,0,0,
0,0,0,0,0,0,0,0,0,0,0,0,0,0,0,0,
0,0,0,0,0,0,0,0,0,0,0,0,0,0,0,0,
0,0,0,0,0,0,0,0,0,0,0,0,0,0,0,0,
0,0,0,0,0,0,0,0,0,0,0,0,0,0,0,0
</chunk>
  </data>
 </layer>
 <layer id="14" name="Bushes" width="16" height="24">
  <data encoding="csv">
   <chunk x="-16" y="0" width="16" height="16">
0,0,0,0,0,0,0,0,0,0,0,0,0,0,0,0,
0,0,0,0,0,0,0,0,0,0,0,0,0,0,0,0,
0,0,0,0,0,844,845,0,0,0,0,0,0,0,0,0,
0,0,0,0,0,875,876,785,786,787,0,0,0,0,0,0,
0,0,0,0,0,906,907,816,817,818,0,0,0,0,0,0,
0,0,0,0,0,0,0,0,0,0,0,0,0,0,0,0,
0,0,0,0,0,0,0,0,0,0,0,0,0,0,0,0,
0,0,0,0,0,0,0,0,0,0,0,0,0,0,0,0,
0,0,0,0,0,0,0,0,0,0,0,0,0,0,0,0,
0,0,0,0,0,0,0,0,0,0,0,0,0,0,0,0,
0,0,0,0,0,0,0,0,0,0,0,0,0,0,0,0,
0,0,0,0,0,0,0,0,0,0,0,0,0,0,0,0,
0,0,0,0,0,0,0,0,0,0,0,0,0,0,0,0,
0,0,0,0,0,0,0,0,0,0,0,0,0,0,0,0,
0,0,0,0,0,0,0,0,0,0,0,0,0,0,0,0,
0,0,0,0,0,0,0,0,0,0,0,0,0,0,0,0
</chunk>
   <chunk x="0" y="0" width="16" height="16">
0,0,0,0,0,0,0,0,0,0,0,0,0,0,0,0,
0,0,0,0,847,848,849,0,0,0,0,0,0,0,0,0,
0,0,0,0,878,879,880,692,693,694,0,0,0,0,0,0,
0,0,0,0,909,910,911,723,724,725,0,0,0,0,0,0,
0,0,0,0,940,941,942,754,755,756,0,0,0,0,0,0,
0,0,0,0,971,972,973,0,0,0,0,0,0,0,0,0,
0,0,0,0,0,0,0,0,0,0,0,0,0,0,0,0,
0,0,0,0,0,0,0,0,0,0,0,0,0,0,0,0,
0,0,0,0,0,0,0,0,0,0,0,0,0,0,0,0,
0,0,0,0,0,0,0,0,0,0,0,0,0,0,0,0,
0,0,0,0,0,0,0,0,0,0,0,0,0,0,0,0,
0,0,0,0,0,0,0,0,0,0,0,0,0,0,0,0,
0,0,0,0,0,0,0,0,0,0,0,0,0,0,0,0,
0,0,0,0,0,0,0,0,0,0,0,0,0,0,0,0,
0,0,0,0,0,0,0,0,0,0,0,0,0,0,0,0,
0,0,0,0,0,0,0,0,0,0,0,0,0,0,0,0
</chunk>
  </data>
 </layer>
 <layer id="15" name="Small_bushes" width="16" height="24">
  <data encoding="csv">
   <chunk x="-16" y="0" width="16" height="16">
0,0,0,0,0,0,0,0,0,0,0,0,0,0,0,0,
0,0,0,0,0,0,0,0,0,0,0,0,0,0,0,0,
0,0,0,0,0,0,934,935,0,0,0,0,0,0,0,0,
0,0,0,0,0,0,965,966,0,0,0,0,0,0,0,0,
0,0,0,0,0,0,0,0,0,0,0,0,0,0,0,0,
0,0,0,0,0,0,0,0,0,0,0,0,0,0,0,0,
0,0,0,0,0,0,0,0,0,0,0,0,0,0,0,0,
0,0,0,0,0,0,0,0,0,0,0,0,0,0,0,0,
0,0,0,0,0,0,0,0,0,0,0,0,0,0,0,0,
0,0,0,0,0,0,0,0,0,0,0,0,0,0,0,0,
0,0,0,0,0,0,0,0,0,0,0,0,0,0,0,0,
0,0,0,0,0,0,0,0,0,0,0,0,0,0,0,0,
0,0,0,0,0,0,0,0,0,0,0,0,0,0,0,0,
0,0,0,0,0,0,0,0,0,0,0,0,0,0,0,0,
0,0,0,0,0,0,0,0,0,0,0,0,0,0,0,0,
0,0,0,0,0,0,0,0,0,0,0,0,0,0,0,0
</chunk>
   <chunk x="0" y="0" width="16" height="16">
0,0,0,0,936,937,0,0,0,0,0,0,0,0,0,0,
0,0,0,0,967,968,0,0,0,934,935,0,0,0,0,0,
0,0,0,0,0,0,0,0,0,965,966,0,0,0,0,0,
0,0,0,0,0,0,0,0,0,938,939,0,0,0,0,0,
0,0,0,0,0,0,0,0,0,969,970,0,0,0,0,0,
0,0,0,0,0,0,0,0,0,0,0,0,0,0,0,0,
0,0,0,0,0,0,0,0,0,0,0,0,0,0,0,0,
0,0,0,0,0,0,0,0,0,0,0,0,0,0,0,0,
0,0,0,0,0,0,0,0,0,0,0,0,0,0,0,0,
0,0,0,0,0,0,0,0,0,0,0,0,0,0,0,0,
0,0,0,0,0,0,0,0,0,0,0,0,0,0,0,0,
0,0,0,0,0,0,0,0,0,0,0,0,0,0,0,0,
0,0,0,0,0,0,0,0,0,0,0,0,0,0,0,0,
0,0,0,0,0,0,0,0,0,0,0,0,0,0,0,0,
0,0,0,0,0,0,0,0,0,0,0,0,0,0,0,0,
0,0,0,0,0,0,0,0,0,0,0,0,0,0,0,0
</chunk>
  </data>
 </layer>
</map>
