<?xml version="1.0" encoding="UTF-8"?>
<map version="1.10" tiledversion="1.10.2" orientation="orthogonal" renderorder="right-down" width="16" height="24" tilewidth="16" tileheight="16" infinite="1" nextlayerid="15" nextobjectid="1">
 <tileset firstgid="1" name="Walls_main" tilewidth="16" tileheight="16" tilecount="203" columns="7">
  <image source="Walls_main.png" width="112" height="464"/>
 </tileset>
 <tileset firstgid="204" name="Walls_floor2" tilewidth="16" tileheight="16" tilecount="104" columns="13">
  <image source="Walls_floor2.png" width="208" height="128"/>
 </tileset>
 <tileset firstgid="308" name="Candelabra" tilewidth="16" tileheight="16" tilecount="90" columns="15">
  <image source="Candelabra.png" width="240" height="96"/>
  <tile id="0">
   <animation>
    <frame tileid="0" duration="150"/>
    <frame tileid="5" duration="150"/>
    <frame tileid="10" duration="150"/>
   </animation>
  </tile>
  <tile id="1">
   <animation>
    <frame tileid="1" duration="150"/>
    <frame tileid="6" duration="150"/>
    <frame tileid="11" duration="150"/>
   </animation>
  </tile>
  <tile id="2">
   <animation>
    <frame tileid="2" duration="150"/>
    <frame tileid="7" duration="150"/>
    <frame tileid="12" duration="150"/>
   </animation>
  </tile>
  <tile id="3">
   <animation>
    <frame tileid="3" duration="150"/>
    <frame tileid="8" duration="150"/>
    <frame tileid="13" duration="150"/>
   </animation>
  </tile>
  <tile id="15">
   <animation>
    <frame tileid="15" duration="150"/>
    <frame tileid="20" duration="150"/>
    <frame tileid="25" duration="150"/>
   </animation>
  </tile>
  <tile id="16">
   <animation>
    <frame tileid="16" duration="150"/>
    <frame tileid="21" duration="150"/>
    <frame tileid="26" duration="150"/>
   </animation>
  </tile>
  <tile id="17">
   <animation>
    <frame tileid="17" duration="150"/>
    <frame tileid="22" duration="150"/>
    <frame tileid="27" duration="150"/>
   </animation>
  </tile>
  <tile id="18">
   <animation>
    <frame tileid="18" duration="150"/>
    <frame tileid="23" duration="150"/>
    <frame tileid="28" duration="150"/>
   </animation>
  </tile>
  <tile id="45">
   <animation>
    <frame tileid="45" duration="150"/>
    <frame tileid="50" duration="150"/>
    <frame tileid="55" duration="150"/>
   </animation>
  </tile>
  <tile id="46">
   <animation>
    <frame tileid="46" duration="150"/>
    <frame tileid="51" duration="150"/>
    <frame tileid="56" duration="150"/>
   </animation>
  </tile>
  <tile id="47">
   <animation>
    <frame tileid="47" duration="150"/>
    <frame tileid="52" duration="150"/>
    <frame tileid="57" duration="150"/>
   </animation>
  </tile>
  <tile id="48">
   <animation>
    <frame tileid="48" duration="150"/>
    <frame tileid="53" duration="150"/>
    <frame tileid="58" duration="150"/>
   </animation>
  </tile>
  <tile id="49">
   <animation>
    <frame tileid="49" duration="150"/>
    <frame tileid="54" duration="150"/>
    <frame tileid="59" duration="150"/>
   </animation>
  </tile>
  <tile id="60">
   <animation>
    <frame tileid="60" duration="150"/>
    <frame tileid="65" duration="150"/>
    <frame tileid="70" duration="150"/>
   </animation>
  </tile>
  <tile id="61">
   <animation>
    <frame tileid="61" duration="150"/>
    <frame tileid="66" duration="150"/>
    <frame tileid="71" duration="150"/>
   </animation>
  </tile>
  <tile id="62">
   <animation>
    <frame tileid="62" duration="150"/>
    <frame tileid="67" duration="150"/>
    <frame tileid="72" duration="150"/>
   </animation>
  </tile>
  <tile id="63">
   <animation>
    <frame tileid="63" duration="150"/>
    <frame tileid="68" duration="150"/>
    <frame tileid="73" duration="150"/>
   </animation>
  </tile>
  <tile id="64">
   <animation>
    <frame tileid="64" duration="150"/>
    <frame tileid="69" duration="150"/>
    <frame tileid="74" duration="150"/>
   </animation>
  </tile>
 </tileset>
 <tileset firstgid="398" name="Clock" tilewidth="16" tileheight="16" tilecount="192" columns="6">
  <image source="Clock.png" width="96" height="512"/>
  <tile id="6">
   <animation>
    <frame tileid="6" duration="150"/>
    <frame tileid="30" duration="150"/>
    <frame tileid="54" duration="150"/>
    <frame tileid="78" duration="150"/>
    <frame tileid="102" duration="150"/>
    <frame tileid="126" duration="150"/>
    <frame tileid="150" duration="150"/>
    <frame tileid="174" duration="150"/>
   </animation>
  </tile>
  <tile id="7">
   <animation>
    <frame tileid="7" duration="150"/>
    <frame tileid="31" duration="150"/>
    <frame tileid="55" duration="150"/>
    <frame tileid="79" duration="150"/>
    <frame tileid="103" duration="150"/>
    <frame tileid="127" duration="150"/>
    <frame tileid="151" duration="150"/>
    <frame tileid="175" duration="150"/>
   </animation>
  </tile>
  <tile id="8">
   <animation>
    <frame tileid="8" duration="150"/>
    <frame tileid="32" duration="150"/>
    <frame tileid="56" duration="150"/>
    <frame tileid="80" duration="150"/>
    <frame tileid="104" duration="150"/>
    <frame tileid="128" duration="150"/>
    <frame tileid="152" duration="150"/>
    <frame tileid="176" duration="150"/>
   </animation>
  </tile>
  <tile id="9">
   <animation>
    <frame tileid="9" duration="150"/>
    <frame tileid="33" duration="150"/>
    <frame tileid="57" duration="150"/>
    <frame tileid="81" duration="150"/>
    <frame tileid="105" duration="150"/>
    <frame tileid="129" duration="150"/>
    <frame tileid="153" duration="150"/>
    <frame tileid="177" duration="150"/>
   </animation>
  </tile>
  <tile id="10">
   <animation>
    <frame tileid="10" duration="150"/>
    <frame tileid="34" duration="150"/>
    <frame tileid="58" duration="150"/>
    <frame tileid="82" duration="150"/>
    <frame tileid="106" duration="150"/>
    <frame tileid="130" duration="150"/>
    <frame tileid="154" duration="150"/>
    <frame tileid="178" duration="150"/>
   </animation>
  </tile>
  <tile id="11">
   <animation>
    <frame tileid="11" duration="150"/>
    <frame tileid="35" duration="150"/>
    <frame tileid="59" duration="150"/>
    <frame tileid="83" duration="150"/>
    <frame tileid="107" duration="150"/>
    <frame tileid="131" duration="150"/>
    <frame tileid="155" duration="150"/>
    <frame tileid="179" duration="150"/>
   </animation>
  </tile>
  <tile id="12">
   <animation>
    <frame tileid="12" duration="150"/>
    <frame tileid="36" duration="150"/>
    <frame tileid="60" duration="150"/>
    <frame tileid="84" duration="150"/>
    <frame tileid="108" duration="150"/>
    <frame tileid="132" duration="150"/>
    <frame tileid="156" duration="150"/>
    <frame tileid="180" duration="150"/>
   </animation>
  </tile>
  <tile id="13">
   <animation>
    <frame tileid="13" duration="150"/>
    <frame tileid="37" duration="150"/>
    <frame tileid="61" duration="150"/>
    <frame tileid="85" duration="150"/>
    <frame tileid="109" duration="150"/>
    <frame tileid="133" duration="150"/>
    <frame tileid="157" duration="150"/>
    <frame tileid="181" duration="150"/>
   </animation>
  </tile>
  <tile id="14">
   <animation>
    <frame tileid="14" duration="150"/>
    <frame tileid="38" duration="150"/>
    <frame tileid="62" duration="150"/>
    <frame tileid="86" duration="150"/>
    <frame tileid="110" duration="150"/>
    <frame tileid="134" duration="150"/>
    <frame tileid="158" duration="150"/>
    <frame tileid="182" duration="150"/>
   </animation>
  </tile>
  <tile id="15">
   <animation>
    <frame tileid="15" duration="150"/>
    <frame tileid="39" duration="150"/>
    <frame tileid="63" duration="150"/>
    <frame tileid="87" duration="150"/>
    <frame tileid="111" duration="150"/>
    <frame tileid="135" duration="150"/>
    <frame tileid="159" duration="150"/>
    <frame tileid="183" duration="150"/>
   </animation>
  </tile>
  <tile id="16">
   <animation>
    <frame tileid="16" duration="150"/>
    <frame tileid="40" duration="150"/>
    <frame tileid="64" duration="150"/>
    <frame tileid="88" duration="150"/>
    <frame tileid="112" duration="150"/>
    <frame tileid="136" duration="150"/>
    <frame tileid="160" duration="150"/>
    <frame tileid="184" duration="150"/>
   </animation>
  </tile>
  <tile id="17">
   <animation>
    <frame tileid="17" duration="150"/>
    <frame tileid="41" duration="150"/>
    <frame tileid="65" duration="150"/>
    <frame tileid="89" duration="150"/>
    <frame tileid="113" duration="150"/>
    <frame tileid="137" duration="150"/>
    <frame tileid="161" duration="150"/>
    <frame tileid="185" duration="150"/>
   </animation>
  </tile>
 </tileset>
 <tileset firstgid="590" name="Globe_spin_cycled" tilewidth="16" tileheight="16" tilecount="72" columns="24">
  <image source="Globe_spin_cycled.png" width="384" height="48"/>
  <tile id="0">
   <animation>
    <frame tileid="0" duration="150"/>
    <frame tileid="3" duration="150"/>
    <frame tileid="6" duration="150"/>
    <frame tileid="9" duration="150"/>
    <frame tileid="12" duration="150"/>
    <frame tileid="15" duration="150"/>
    <frame tileid="18" duration="150"/>
    <frame tileid="21" duration="150"/>
   </animation>
  </tile>
  <tile id="1">
   <animation>
    <frame tileid="1" duration="150"/>
    <frame tileid="4" duration="150"/>
    <frame tileid="7" duration="150"/>
    <frame tileid="10" duration="150"/>
    <frame tileid="13" duration="150"/>
    <frame tileid="16" duration="150"/>
    <frame tileid="19" duration="150"/>
    <frame tileid="22" duration="150"/>
   </animation>
  </tile>
  <tile id="2">
   <animation>
    <frame tileid="2" duration="150"/>
    <frame tileid="5" duration="150"/>
    <frame tileid="8" duration="150"/>
    <frame tileid="11" duration="150"/>
    <frame tileid="14" duration="150"/>
    <frame tileid="17" duration="150"/>
    <frame tileid="20" duration="150"/>
    <frame tileid="23" duration="150"/>
   </animation>
  </tile>
  <tile id="24">
   <animation>
    <frame tileid="24" duration="150"/>
    <frame tileid="27" duration="150"/>
    <frame tileid="30" duration="150"/>
    <frame tileid="33" duration="150"/>
    <frame tileid="36" duration="150"/>
    <frame tileid="39" duration="150"/>
    <frame tileid="42" duration="150"/>
    <frame tileid="45" duration="150"/>
   </animation>
  </tile>
  <tile id="25">
   <animation>
    <frame tileid="25" duration="150"/>
    <frame tileid="28" duration="150"/>
    <frame tileid="31" duration="150"/>
    <frame tileid="34" duration="150"/>
    <frame tileid="37" duration="150"/>
    <frame tileid="40" duration="150"/>
    <frame tileid="43" duration="150"/>
    <frame tileid="46" duration="150"/>
   </animation>
  </tile>
  <tile id="26">
   <animation>
    <frame tileid="26" duration="150"/>
    <frame tileid="29" duration="150"/>
    <frame tileid="32" duration="150"/>
    <frame tileid="35" duration="150"/>
    <frame tileid="38" duration="150"/>
    <frame tileid="41" duration="150"/>
    <frame tileid="44" duration="150"/>
    <frame tileid="47" duration="150"/>
   </animation>
  </tile>
  <tile id="48">
   <animation>
    <frame tileid="48" duration="150"/>
    <frame tileid="51" duration="150"/>
    <frame tileid="54" duration="150"/>
    <frame tileid="57" duration="150"/>
    <frame tileid="60" duration="150"/>
    <frame tileid="63" duration="150"/>
    <frame tileid="66" duration="150"/>
    <frame tileid="69" duration="150"/>
   </animation>
  </tile>
  <tile id="49">
   <animation>
    <frame tileid="49" duration="150"/>
    <frame tileid="52" duration="150"/>
    <frame tileid="55" duration="150"/>
    <frame tileid="58" duration="150"/>
    <frame tileid="61" duration="150"/>
    <frame tileid="64" duration="150"/>
    <frame tileid="67" duration="150"/>
    <frame tileid="70" duration="150"/>
   </animation>
  </tile>
  <tile id="50">
   <animation>
    <frame tileid="50" duration="150"/>
    <frame tileid="53" duration="150"/>
    <frame tileid="56" duration="150"/>
    <frame tileid="59" duration="150"/>
    <frame tileid="62" duration="150"/>
    <frame tileid="65" duration="150"/>
    <frame tileid="68" duration="150"/>
    <frame tileid="71" duration="150"/>
   </animation>
  </tile>
 </tileset>
 <tileset firstgid="662" name="Globe_character_idle" tilewidth="16" tileheight="16" tilecount="144" columns="18">
  <image source="Globe_character_idle.png" width="288" height="128"/>
  <tile id="0">
   <animation>
    <frame tileid="0" duration="150"/>
    <frame tileid="3" duration="150"/>
    <frame tileid="6" duration="150"/>
    <frame tileid="9" duration="150"/>
    <frame tileid="12" duration="150"/>
    <frame tileid="15" duration="150"/>
    <frame tileid="72" duration="150"/>
    <frame tileid="75" duration="150"/>
    <frame tileid="78" duration="150"/>
    <frame tileid="81" duration="150"/>
    <frame tileid="84" duration="150"/>
    <frame tileid="87" duration="150"/>
   </animation>
  </tile>
  <tile id="1">
   <animation>
    <frame tileid="1" duration="150"/>
    <frame tileid="4" duration="150"/>
    <frame tileid="7" duration="150"/>
    <frame tileid="10" duration="150"/>
    <frame tileid="13" duration="150"/>
    <frame tileid="16" duration="150"/>
    <frame tileid="73" duration="150"/>
    <frame tileid="76" duration="150"/>
    <frame tileid="79" duration="150"/>
    <frame tileid="82" duration="150"/>
    <frame tileid="85" duration="150"/>
    <frame tileid="88" duration="150"/>
   </animation>
  </tile>
  <tile id="2">
   <animation>
    <frame tileid="2" duration="150"/>
    <frame tileid="5" duration="150"/>
    <frame tileid="8" duration="150"/>
    <frame tileid="11" duration="150"/>
    <frame tileid="14" duration="150"/>
    <frame tileid="17" duration="150"/>
    <frame tileid="74" duration="150"/>
    <frame tileid="77" duration="150"/>
    <frame tileid="80" duration="150"/>
    <frame tileid="83" duration="150"/>
    <frame tileid="86" duration="150"/>
    <frame tileid="89" duration="150"/>
   </animation>
  </tile>
  <tile id="18">
   <animation>
    <frame tileid="18" duration="150"/>
    <frame tileid="21" duration="150"/>
    <frame tileid="24" duration="150"/>
    <frame tileid="27" duration="150"/>
    <frame tileid="30" duration="150"/>
    <frame tileid="33" duration="150"/>
    <frame tileid="90" duration="150"/>
    <frame tileid="93" duration="150"/>
    <frame tileid="96" duration="150"/>
    <frame tileid="99" duration="150"/>
    <frame tileid="102" duration="150"/>
    <frame tileid="105" duration="150"/>
   </animation>
  </tile>
  <tile id="19">
   <animation>
    <frame tileid="19" duration="150"/>
    <frame tileid="22" duration="150"/>
    <frame tileid="25" duration="150"/>
    <frame tileid="28" duration="150"/>
    <frame tileid="31" duration="150"/>
    <frame tileid="34" duration="150"/>
    <frame tileid="91" duration="150"/>
    <frame tileid="94" duration="150"/>
    <frame tileid="97" duration="150"/>
    <frame tileid="100" duration="150"/>
    <frame tileid="103" duration="150"/>
    <frame tileid="106" duration="150"/>
   </animation>
  </tile>
  <tile id="20">
   <animation>
    <frame tileid="20" duration="150"/>
    <frame tileid="23" duration="150"/>
    <frame tileid="26" duration="150"/>
    <frame tileid="29" duration="150"/>
    <frame tileid="32" duration="150"/>
    <frame tileid="35" duration="150"/>
    <frame tileid="92" duration="150"/>
    <frame tileid="95" duration="150"/>
    <frame tileid="98" duration="150"/>
    <frame tileid="101" duration="150"/>
    <frame tileid="104" duration="150"/>
    <frame tileid="107" duration="150"/>
   </animation>
  </tile>
  <tile id="36">
   <animation>
    <frame tileid="36" duration="150"/>
    <frame tileid="39" duration="150"/>
    <frame tileid="42" duration="150"/>
    <frame tileid="45" duration="150"/>
    <frame tileid="48" duration="150"/>
    <frame tileid="51" duration="150"/>
    <frame tileid="108" duration="150"/>
    <frame tileid="111" duration="150"/>
    <frame tileid="114" duration="150"/>
    <frame tileid="117" duration="150"/>
    <frame tileid="120" duration="150"/>
    <frame tileid="123" duration="150"/>
   </animation>
  </tile>
  <tile id="37">
   <animation>
    <frame tileid="37" duration="150"/>
    <frame tileid="40" duration="150"/>
    <frame tileid="43" duration="150"/>
    <frame tileid="46" duration="150"/>
    <frame tileid="49" duration="150"/>
    <frame tileid="52" duration="150"/>
    <frame tileid="109" duration="150"/>
    <frame tileid="112" duration="150"/>
    <frame tileid="115" duration="150"/>
    <frame tileid="118" duration="150"/>
    <frame tileid="121" duration="150"/>
    <frame tileid="124" duration="150"/>
   </animation>
  </tile>
  <tile id="38">
   <animation>
    <frame tileid="38" duration="150"/>
    <frame tileid="41" duration="150"/>
    <frame tileid="44" duration="150"/>
    <frame tileid="47" duration="150"/>
    <frame tileid="50" duration="150"/>
    <frame tileid="53" duration="150"/>
    <frame tileid="110" duration="150"/>
    <frame tileid="113" duration="150"/>
    <frame tileid="116" duration="150"/>
    <frame tileid="119" duration="150"/>
    <frame tileid="122" duration="150"/>
    <frame tileid="125" duration="150"/>
   </animation>
  </tile>
  <tile id="54">
   <animation>
    <frame tileid="54" duration="150"/>
    <frame tileid="57" duration="150"/>
    <frame tileid="60" duration="150"/>
    <frame tileid="63" duration="150"/>
    <frame tileid="66" duration="150"/>
    <frame tileid="69" duration="150"/>
    <frame tileid="126" duration="150"/>
    <frame tileid="129" duration="150"/>
    <frame tileid="132" duration="150"/>
    <frame tileid="135" duration="150"/>
    <frame tileid="138" duration="150"/>
    <frame tileid="141" duration="150"/>
   </animation>
  </tile>
  <tile id="55">
   <animation>
    <frame tileid="55" duration="150"/>
    <frame tileid="58" duration="150"/>
    <frame tileid="61" duration="150"/>
    <frame tileid="64" duration="150"/>
    <frame tileid="67" duration="150"/>
    <frame tileid="70" duration="150"/>
    <frame tileid="127" duration="150"/>
    <frame tileid="130" duration="150"/>
    <frame tileid="133" duration="150"/>
    <frame tileid="136" duration="150"/>
    <frame tileid="139" duration="150"/>
    <frame tileid="142" duration="150"/>
   </animation>
  </tile>
  <tile id="56">
   <animation>
    <frame tileid="56" duration="150"/>
    <frame tileid="59" duration="150"/>
    <frame tileid="62" duration="150"/>
    <frame tileid="65" duration="150"/>
    <frame tileid="68" duration="150"/>
    <frame tileid="71" duration="150"/>
    <frame tileid="128" duration="150"/>
    <frame tileid="131" duration="150"/>
    <frame tileid="134" duration="150"/>
    <frame tileid="137" duration="150"/>
    <frame tileid="140" duration="150"/>
    <frame tileid="143" duration="150"/>
   </animation>
  </tile>
 </tileset>
 <tileset firstgid="806" name="Globe_character_idle" tilewidth="16" tileheight="16" tilecount="144" columns="18">
  <image source="Globe_character_spins.png" width="288" height="128"/>
  <tile id="0">
   <animation>
    <frame tileid="0" duration="150"/>
    <frame tileid="3" duration="150"/>
    <frame tileid="6" duration="150"/>
    <frame tileid="9" duration="150"/>
    <frame tileid="12" duration="150"/>
    <frame tileid="15" duration="150"/>
    <frame tileid="72" duration="150"/>
    <frame tileid="75" duration="150"/>
    <frame tileid="78" duration="150"/>
    <frame tileid="81" duration="150"/>
    <frame tileid="84" duration="150"/>
    <frame tileid="87" duration="150"/>
   </animation>
  </tile>
  <tile id="1">
   <animation>
    <frame tileid="1" duration="150"/>
    <frame tileid="4" duration="150"/>
    <frame tileid="7" duration="150"/>
    <frame tileid="10" duration="150"/>
    <frame tileid="13" duration="150"/>
    <frame tileid="16" duration="150"/>
    <frame tileid="73" duration="150"/>
    <frame tileid="76" duration="150"/>
    <frame tileid="79" duration="150"/>
    <frame tileid="82" duration="150"/>
    <frame tileid="85" duration="150"/>
    <frame tileid="88" duration="150"/>
   </animation>
  </tile>
  <tile id="2">
   <animation>
    <frame tileid="2" duration="150"/>
    <frame tileid="5" duration="150"/>
    <frame tileid="8" duration="150"/>
    <frame tileid="11" duration="150"/>
    <frame tileid="14" duration="150"/>
    <frame tileid="17" duration="150"/>
    <frame tileid="74" duration="150"/>
    <frame tileid="77" duration="150"/>
    <frame tileid="80" duration="150"/>
    <frame tileid="83" duration="150"/>
    <frame tileid="86" duration="150"/>
    <frame tileid="89" duration="150"/>
   </animation>
  </tile>
  <tile id="18">
   <animation>
    <frame tileid="18" duration="150"/>
    <frame tileid="21" duration="150"/>
    <frame tileid="24" duration="150"/>
    <frame tileid="27" duration="150"/>
    <frame tileid="30" duration="150"/>
    <frame tileid="33" duration="150"/>
    <frame tileid="90" duration="150"/>
    <frame tileid="93" duration="150"/>
    <frame tileid="96" duration="150"/>
    <frame tileid="99" duration="150"/>
    <frame tileid="102" duration="150"/>
    <frame tileid="105" duration="150"/>
   </animation>
  </tile>
  <tile id="19">
   <animation>
    <frame tileid="19" duration="150"/>
    <frame tileid="22" duration="150"/>
    <frame tileid="25" duration="150"/>
    <frame tileid="28" duration="150"/>
    <frame tileid="31" duration="150"/>
    <frame tileid="34" duration="150"/>
    <frame tileid="91" duration="150"/>
    <frame tileid="94" duration="150"/>
    <frame tileid="97" duration="150"/>
    <frame tileid="100" duration="150"/>
    <frame tileid="103" duration="150"/>
    <frame tileid="106" duration="150"/>
   </animation>
  </tile>
  <tile id="20">
   <animation>
    <frame tileid="20" duration="150"/>
    <frame tileid="23" duration="150"/>
    <frame tileid="26" duration="150"/>
    <frame tileid="29" duration="150"/>
    <frame tileid="32" duration="150"/>
    <frame tileid="35" duration="150"/>
    <frame tileid="92" duration="150"/>
    <frame tileid="95" duration="150"/>
    <frame tileid="98" duration="150"/>
    <frame tileid="101" duration="150"/>
    <frame tileid="104" duration="150"/>
    <frame tileid="107" duration="150"/>
   </animation>
  </tile>
  <tile id="36">
   <animation>
    <frame tileid="36" duration="150"/>
    <frame tileid="39" duration="150"/>
    <frame tileid="42" duration="150"/>
    <frame tileid="45" duration="150"/>
    <frame tileid="48" duration="150"/>
    <frame tileid="51" duration="150"/>
    <frame tileid="108" duration="150"/>
    <frame tileid="111" duration="150"/>
    <frame tileid="114" duration="150"/>
    <frame tileid="117" duration="150"/>
    <frame tileid="120" duration="150"/>
    <frame tileid="123" duration="150"/>
   </animation>
  </tile>
  <tile id="37">
   <animation>
    <frame tileid="37" duration="150"/>
    <frame tileid="40" duration="150"/>
    <frame tileid="43" duration="150"/>
    <frame tileid="46" duration="150"/>
    <frame tileid="49" duration="150"/>
    <frame tileid="52" duration="150"/>
    <frame tileid="109" duration="150"/>
    <frame tileid="112" duration="150"/>
    <frame tileid="115" duration="150"/>
    <frame tileid="118" duration="150"/>
    <frame tileid="121" duration="150"/>
    <frame tileid="124" duration="150"/>
   </animation>
  </tile>
  <tile id="38">
   <animation>
    <frame tileid="38" duration="150"/>
    <frame tileid="41" duration="150"/>
    <frame tileid="44" duration="150"/>
    <frame tileid="47" duration="150"/>
    <frame tileid="50" duration="150"/>
    <frame tileid="53" duration="150"/>
    <frame tileid="110" duration="150"/>
    <frame tileid="113" duration="150"/>
    <frame tileid="116" duration="150"/>
    <frame tileid="119" duration="150"/>
    <frame tileid="122" duration="150"/>
    <frame tileid="125" duration="150"/>
   </animation>
  </tile>
  <tile id="54">
   <animation>
    <frame tileid="54" duration="150"/>
    <frame tileid="57" duration="150"/>
    <frame tileid="60" duration="150"/>
    <frame tileid="63" duration="150"/>
    <frame tileid="66" duration="150"/>
    <frame tileid="69" duration="150"/>
    <frame tileid="126" duration="150"/>
    <frame tileid="129" duration="150"/>
    <frame tileid="132" duration="150"/>
    <frame tileid="135" duration="150"/>
    <frame tileid="138" duration="150"/>
    <frame tileid="141" duration="150"/>
   </animation>
  </tile>
  <tile id="55">
   <animation>
    <frame tileid="55" duration="150"/>
    <frame tileid="58" duration="150"/>
    <frame tileid="61" duration="150"/>
    <frame tileid="64" duration="150"/>
    <frame tileid="67" duration="150"/>
    <frame tileid="70" duration="150"/>
    <frame tileid="127" duration="150"/>
    <frame tileid="130" duration="150"/>
    <frame tileid="133" duration="150"/>
    <frame tileid="136" duration="150"/>
    <frame tileid="139" duration="150"/>
    <frame tileid="142" duration="150"/>
   </animation>
  </tile>
  <tile id="56">
   <animation>
    <frame tileid="56" duration="150"/>
    <frame tileid="59" duration="150"/>
    <frame tileid="62" duration="150"/>
    <frame tileid="65" duration="150"/>
    <frame tileid="68" duration="150"/>
    <frame tileid="71" duration="150"/>
    <frame tileid="128" duration="150"/>
    <frame tileid="131" duration="150"/>
    <frame tileid="134" duration="150"/>
    <frame tileid="137" duration="150"/>
    <frame tileid="140" duration="150"/>
    <frame tileid="143" duration="150"/>
   </animation>
  </tile>
 </tileset>
 <tileset firstgid="950" name="Interior_objects" tilewidth="16" tileheight="16" tilecount="936" columns="39">
  <image source="Interior_objects.png" width="624" height="384"/>
 </tileset>
 <tileset firstgid="1886" name="Reader2" tilewidth="16" tileheight="16" tilecount="120" columns="24">
  <image source="Reader2.png" width="384" height="80"/>
  <tile id="0">
   <animation>
    <frame tileid="0" duration="150"/>
    <frame tileid="2" duration="150"/>
    <frame tileid="4" duration="150"/>
    <frame tileid="6" duration="150"/>
    <frame tileid="8" duration="150"/>
    <frame tileid="10" duration="150"/>
    <frame tileid="12" duration="150"/>
    <frame tileid="14" duration="150"/>
    <frame tileid="16" duration="150"/>
    <frame tileid="18" duration="150"/>
    <frame tileid="20" duration="150"/>
    <frame tileid="22" duration="150"/>
   </animation>
  </tile>
  <tile id="1">
   <animation>
    <frame tileid="1" duration="150"/>
    <frame tileid="3" duration="150"/>
    <frame tileid="5" duration="150"/>
    <frame tileid="7" duration="150"/>
    <frame tileid="9" duration="150"/>
    <frame tileid="11" duration="150"/>
    <frame tileid="13" duration="150"/>
    <frame tileid="15" duration="150"/>
    <frame tileid="17" duration="150"/>
    <frame tileid="19" duration="150"/>
    <frame tileid="21" duration="150"/>
    <frame tileid="23" duration="150"/>
   </animation>
  </tile>
  <tile id="24">
   <animation>
    <frame tileid="24" duration="150"/>
    <frame tileid="26" duration="150"/>
    <frame tileid="28" duration="150"/>
    <frame tileid="30" duration="150"/>
    <frame tileid="32" duration="150"/>
    <frame tileid="34" duration="150"/>
    <frame tileid="36" duration="150"/>
    <frame tileid="38" duration="150"/>
    <frame tileid="40" duration="150"/>
    <frame tileid="42" duration="150"/>
    <frame tileid="44" duration="150"/>
    <frame tileid="46" duration="150"/>
   </animation>
  </tile>
  <tile id="25">
   <animation>
    <frame tileid="25" duration="150"/>
    <frame tileid="27" duration="150"/>
    <frame tileid="29" duration="150"/>
    <frame tileid="31" duration="150"/>
    <frame tileid="33" duration="150"/>
    <frame tileid="35" duration="150"/>
    <frame tileid="37" duration="150"/>
    <frame tileid="39" duration="150"/>
    <frame tileid="41" duration="150"/>
    <frame tileid="43" duration="150"/>
    <frame tileid="45" duration="150"/>
    <frame tileid="47" duration="150"/>
   </animation>
  </tile>
  <tile id="48">
   <animation>
    <frame tileid="48" duration="150"/>
    <frame tileid="50" duration="150"/>
    <frame tileid="52" duration="150"/>
    <frame tileid="54" duration="150"/>
    <frame tileid="56" duration="150"/>
    <frame tileid="58" duration="150"/>
    <frame tileid="60" duration="150"/>
    <frame tileid="62" duration="150"/>
    <frame tileid="64" duration="150"/>
    <frame tileid="66" duration="150"/>
    <frame tileid="68" duration="150"/>
    <frame tileid="70" duration="150"/>
   </animation>
  </tile>
  <tile id="49">
   <animation>
    <frame tileid="49" duration="150"/>
    <frame tileid="51" duration="150"/>
    <frame tileid="53" duration="150"/>
    <frame tileid="55" duration="150"/>
    <frame tileid="57" duration="150"/>
    <frame tileid="59" duration="150"/>
    <frame tileid="61" duration="150"/>
    <frame tileid="63" duration="150"/>
    <frame tileid="65" duration="150"/>
    <frame tileid="67" duration="150"/>
    <frame tileid="69" duration="150"/>
    <frame tileid="71" duration="150"/>
   </animation>
  </tile>
  <tile id="72">
   <animation>
    <frame tileid="72" duration="150"/>
    <frame tileid="74" duration="150"/>
    <frame tileid="76" duration="150"/>
    <frame tileid="78" duration="150"/>
    <frame tileid="80" duration="150"/>
    <frame tileid="82" duration="150"/>
    <frame tileid="84" duration="150"/>
    <frame tileid="86" duration="150"/>
    <frame tileid="88" duration="150"/>
    <frame tileid="90" duration="150"/>
    <frame tileid="92" duration="150"/>
    <frame tileid="94" duration="150"/>
   </animation>
  </tile>
  <tile id="73">
   <animation>
    <frame tileid="73" duration="150"/>
    <frame tileid="75" duration="150"/>
    <frame tileid="77" duration="150"/>
    <frame tileid="79" duration="150"/>
    <frame tileid="81" duration="150"/>
    <frame tileid="83" duration="150"/>
    <frame tileid="85" duration="150"/>
    <frame tileid="87" duration="150"/>
    <frame tileid="89" duration="150"/>
    <frame tileid="91" duration="150"/>
    <frame tileid="93" duration="150"/>
    <frame tileid="95" duration="150"/>
   </animation>
  </tile>
  <tile id="96">
   <animation>
    <frame tileid="96" duration="150"/>
    <frame tileid="98" duration="150"/>
    <frame tileid="100" duration="150"/>
    <frame tileid="102" duration="150"/>
    <frame tileid="104" duration="150"/>
    <frame tileid="106" duration="150"/>
    <frame tileid="108" duration="150"/>
    <frame tileid="110" duration="150"/>
    <frame tileid="112" duration="150"/>
    <frame tileid="114" duration="150"/>
    <frame tileid="116" duration="150"/>
    <frame tileid="118" duration="150"/>
   </animation>
  </tile>
  <tile id="97">
   <animation>
    <frame tileid="97" duration="150"/>
    <frame tileid="99" duration="150"/>
    <frame tileid="101" duration="150"/>
    <frame tileid="103" duration="150"/>
    <frame tileid="105" duration="150"/>
    <frame tileid="107" duration="150"/>
    <frame tileid="109" duration="150"/>
    <frame tileid="111" duration="150"/>
    <frame tileid="113" duration="150"/>
    <frame tileid="115" duration="150"/>
    <frame tileid="117" duration="150"/>
    <frame tileid="119" duration="150"/>
   </animation>
  </tile>
 </tileset>
 <tileset firstgid="2006" name="Reader5" tilewidth="16" tileheight="16" tilecount="72" columns="24">
  <image source="Reader5.png" width="384" height="48"/>
  <tile id="0">
   <animation>
    <frame tileid="0" duration="150"/>
    <frame tileid="2" duration="150"/>
    <frame tileid="4" duration="150"/>
    <frame tileid="6" duration="150"/>
    <frame tileid="8" duration="150"/>
    <frame tileid="10" duration="150"/>
    <frame tileid="12" duration="150"/>
    <frame tileid="14" duration="150"/>
    <frame tileid="16" duration="150"/>
    <frame tileid="18" duration="150"/>
    <frame tileid="20" duration="150"/>
    <frame tileid="22" duration="150"/>
   </animation>
  </tile>
  <tile id="1">
   <animation>
    <frame tileid="1" duration="150"/>
    <frame tileid="3" duration="150"/>
    <frame tileid="5" duration="150"/>
    <frame tileid="7" duration="150"/>
    <frame tileid="9" duration="150"/>
    <frame tileid="11" duration="150"/>
    <frame tileid="13" duration="150"/>
    <frame tileid="15" duration="150"/>
    <frame tileid="17" duration="150"/>
    <frame tileid="19" duration="150"/>
    <frame tileid="21" duration="150"/>
    <frame tileid="23" duration="150"/>
   </animation>
  </tile>
  <tile id="24">
   <animation>
    <frame tileid="24" duration="150"/>
    <frame tileid="26" duration="150"/>
    <frame tileid="28" duration="150"/>
    <frame tileid="30" duration="150"/>
    <frame tileid="32" duration="150"/>
    <frame tileid="34" duration="150"/>
    <frame tileid="36" duration="150"/>
    <frame tileid="38" duration="150"/>
    <frame tileid="40" duration="150"/>
    <frame tileid="42" duration="150"/>
    <frame tileid="44" duration="150"/>
    <frame tileid="46" duration="150"/>
   </animation>
  </tile>
  <tile id="25">
   <animation>
    <frame tileid="25" duration="150"/>
    <frame tileid="27" duration="150"/>
    <frame tileid="29" duration="150"/>
    <frame tileid="31" duration="150"/>
    <frame tileid="33" duration="150"/>
    <frame tileid="35" duration="150"/>
    <frame tileid="37" duration="150"/>
    <frame tileid="39" duration="150"/>
    <frame tileid="41" duration="150"/>
    <frame tileid="43" duration="150"/>
    <frame tileid="45" duration="150"/>
    <frame tileid="47" duration="150"/>
   </animation>
  </tile>
  <tile id="48">
   <animation>
    <frame tileid="48" duration="150"/>
    <frame tileid="50" duration="150"/>
    <frame tileid="52" duration="150"/>
    <frame tileid="54" duration="150"/>
    <frame tileid="56" duration="150"/>
    <frame tileid="58" duration="150"/>
    <frame tileid="60" duration="150"/>
    <frame tileid="62" duration="150"/>
    <frame tileid="64" duration="150"/>
    <frame tileid="66" duration="150"/>
    <frame tileid="68" duration="150"/>
    <frame tileid="70" duration="150"/>
   </animation>
  </tile>
  <tile id="49">
   <animation>
    <frame tileid="49" duration="150"/>
    <frame tileid="51" duration="150"/>
    <frame tileid="53" duration="150"/>
    <frame tileid="55" duration="150"/>
    <frame tileid="57" duration="150"/>
    <frame tileid="59" duration="150"/>
    <frame tileid="61" duration="150"/>
    <frame tileid="63" duration="150"/>
    <frame tileid="65" duration="150"/>
    <frame tileid="67" duration="150"/>
    <frame tileid="69" duration="150"/>
    <frame tileid="71" duration="150"/>
   </animation>
  </tile>
 </tileset>
 <tileset firstgid="2078" name="Reader6" tilewidth="16" tileheight="16" tilecount="32" columns="8">
  <image source="Reader6.png" width="128" height="64"/>
  <tile id="0">
   <animation>
    <frame tileid="0" duration="150"/>
    <frame tileid="0" duration="150"/>
    <frame tileid="0" duration="150"/>
    <frame tileid="2" duration="150"/>
    <frame tileid="4" duration="150"/>
    <frame tileid="4" duration="150"/>
    <frame tileid="4" duration="150"/>
    <frame tileid="6" duration="150"/>
    <frame tileid="6" duration="150"/>
    <frame tileid="6" duration="150"/>
    <frame tileid="6" duration="150"/>
    <frame tileid="6" duration="150"/>
   </animation>
  </tile>
  <tile id="1">
   <animation>
    <frame tileid="1" duration="150"/>
    <frame tileid="1" duration="150"/>
    <frame tileid="1" duration="150"/>
    <frame tileid="3" duration="150"/>
    <frame tileid="5" duration="150"/>
    <frame tileid="5" duration="150"/>
    <frame tileid="5" duration="150"/>
    <frame tileid="7" duration="150"/>
    <frame tileid="7" duration="150"/>
    <frame tileid="7" duration="150"/>
    <frame tileid="7" duration="150"/>
    <frame tileid="7" duration="150"/>
   </animation>
  </tile>
  <tile id="8">
   <animation>
    <frame tileid="8" duration="150"/>
    <frame tileid="8" duration="150"/>
    <frame tileid="8" duration="150"/>
    <frame tileid="10" duration="150"/>
    <frame tileid="12" duration="150"/>
    <frame tileid="12" duration="150"/>
    <frame tileid="12" duration="150"/>
    <frame tileid="14" duration="150"/>
    <frame tileid="14" duration="150"/>
    <frame tileid="14" duration="150"/>
    <frame tileid="14" duration="150"/>
    <frame tileid="14" duration="150"/>
   </animation>
  </tile>
  <tile id="9">
   <animation>
    <frame tileid="9" duration="150"/>
    <frame tileid="9" duration="150"/>
    <frame tileid="9" duration="150"/>
    <frame tileid="11" duration="150"/>
    <frame tileid="13" duration="150"/>
    <frame tileid="13" duration="150"/>
    <frame tileid="13" duration="150"/>
    <frame tileid="15" duration="150"/>
    <frame tileid="15" duration="150"/>
    <frame tileid="15" duration="150"/>
    <frame tileid="15" duration="150"/>
    <frame tileid="15" duration="150"/>
   </animation>
  </tile>
  <tile id="16">
   <animation>
    <frame tileid="16" duration="150"/>
    <frame tileid="16" duration="150"/>
    <frame tileid="16" duration="150"/>
    <frame tileid="18" duration="150"/>
    <frame tileid="20" duration="150"/>
    <frame tileid="20" duration="150"/>
    <frame tileid="20" duration="150"/>
    <frame tileid="22" duration="150"/>
    <frame tileid="22" duration="150"/>
    <frame tileid="22" duration="150"/>
    <frame tileid="22" duration="150"/>
    <frame tileid="22" duration="150"/>
   </animation>
  </tile>
  <tile id="17">
   <animation>
    <frame tileid="17" duration="150"/>
    <frame tileid="17" duration="150"/>
    <frame tileid="17" duration="150"/>
    <frame tileid="19" duration="150"/>
    <frame tileid="21" duration="150"/>
    <frame tileid="21" duration="150"/>
    <frame tileid="21" duration="150"/>
    <frame tileid="23" duration="150"/>
    <frame tileid="23" duration="150"/>
    <frame tileid="23" duration="150"/>
    <frame tileid="23" duration="150"/>
    <frame tileid="23" duration="150"/>
   </animation>
  </tile>
  <tile id="24">
   <animation>
    <frame tileid="24" duration="150"/>
    <frame tileid="24" duration="150"/>
    <frame tileid="24" duration="150"/>
    <frame tileid="26" duration="150"/>
    <frame tileid="28" duration="150"/>
    <frame tileid="28" duration="150"/>
    <frame tileid="28" duration="150"/>
    <frame tileid="30" duration="150"/>
    <frame tileid="30" duration="150"/>
    <frame tileid="30" duration="150"/>
    <frame tileid="30" duration="150"/>
    <frame tileid="30" duration="150"/>
   </animation>
  </tile>
  <tile id="25">
   <animation>
    <frame tileid="25" duration="150"/>
    <frame tileid="25" duration="150"/>
    <frame tileid="25" duration="150"/>
    <frame tileid="27" duration="150"/>
    <frame tileid="29" duration="150"/>
    <frame tileid="29" duration="150"/>
    <frame tileid="29" duration="150"/>
    <frame tileid="31" duration="150"/>
    <frame tileid="31" duration="150"/>
    <frame tileid="31" duration="150"/>
    <frame tileid="31" duration="150"/>
    <frame tileid="31" duration="150"/>
   </animation>
  </tile>
 </tileset>
 <tileset firstgid="2110" name="Reader5" tilewidth="16" tileheight="16" tilecount="72" columns="24">
  <image source="Visitor.png" width="384" height="48"/>
  <tile id="0">
   <animation>
    <frame tileid="0" duration="150"/>
    <frame tileid="2" duration="150"/>
    <frame tileid="4" duration="150"/>
    <frame tileid="6" duration="150"/>
    <frame tileid="8" duration="150"/>
    <frame tileid="10" duration="150"/>
    <frame tileid="12" duration="150"/>
    <frame tileid="14" duration="150"/>
    <frame tileid="16" duration="150"/>
    <frame tileid="18" duration="150"/>
    <frame tileid="20" duration="150"/>
    <frame tileid="22" duration="150"/>
   </animation>
  </tile>
  <tile id="1">
   <animation>
    <frame tileid="1" duration="150"/>
    <frame tileid="3" duration="150"/>
    <frame tileid="5" duration="150"/>
    <frame tileid="7" duration="150"/>
    <frame tileid="9" duration="150"/>
    <frame tileid="11" duration="150"/>
    <frame tileid="13" duration="150"/>
    <frame tileid="15" duration="150"/>
    <frame tileid="17" duration="150"/>
    <frame tileid="19" duration="150"/>
    <frame tileid="21" duration="150"/>
    <frame tileid="23" duration="150"/>
   </animation>
  </tile>
  <tile id="24">
   <animation>
    <frame tileid="24" duration="150"/>
    <frame tileid="26" duration="150"/>
    <frame tileid="28" duration="150"/>
    <frame tileid="30" duration="150"/>
    <frame tileid="32" duration="150"/>
    <frame tileid="34" duration="150"/>
    <frame tileid="36" duration="150"/>
    <frame tileid="38" duration="150"/>
    <frame tileid="40" duration="150"/>
    <frame tileid="42" duration="150"/>
    <frame tileid="44" duration="150"/>
    <frame tileid="46" duration="150"/>
   </animation>
  </tile>
  <tile id="25">
   <animation>
    <frame tileid="25" duration="150"/>
    <frame tileid="27" duration="150"/>
    <frame tileid="29" duration="150"/>
    <frame tileid="31" duration="150"/>
    <frame tileid="33" duration="150"/>
    <frame tileid="35" duration="150"/>
    <frame tileid="37" duration="150"/>
    <frame tileid="39" duration="150"/>
    <frame tileid="41" duration="150"/>
    <frame tileid="43" duration="150"/>
    <frame tileid="45" duration="150"/>
    <frame tileid="47" duration="150"/>
   </animation>
  </tile>
  <tile id="48">
   <animation>
    <frame tileid="48" duration="150"/>
    <frame tileid="50" duration="150"/>
    <frame tileid="52" duration="150"/>
    <frame tileid="54" duration="150"/>
    <frame tileid="56" duration="150"/>
    <frame tileid="58" duration="150"/>
    <frame tileid="60" duration="150"/>
    <frame tileid="62" duration="150"/>
    <frame tileid="64" duration="150"/>
    <frame tileid="66" duration="150"/>
    <frame tileid="68" duration="150"/>
    <frame tileid="70" duration="150"/>
   </animation>
  </tile>
  <tile id="49">
   <animation>
    <frame tileid="49" duration="150"/>
    <frame tileid="51" duration="150"/>
    <frame tileid="53" duration="150"/>
    <frame tileid="55" duration="150"/>
    <frame tileid="57" duration="150"/>
    <frame tileid="59" duration="150"/>
    <frame tileid="61" duration="150"/>
    <frame tileid="63" duration="150"/>
    <frame tileid="65" duration="150"/>
    <frame tileid="67" duration="150"/>
    <frame tileid="69" duration="150"/>
    <frame tileid="71" duration="150"/>
   </animation>
  </tile>
 </tileset>
 <layer id="3" name="Floor" width="16" height="24">
  <data encoding="csv">
   <chunk x="-16" y="-16" width="16" height="16">
0,0,0,0,0,0,0,0,0,0,0,0,0,0,0,0,
0,0,0,0,0,0,0,0,0,0,0,0,0,0,0,0,
0,0,0,0,0,0,0,0,0,0,0,0,0,0,0,0,
0,0,0,0,0,0,0,0,0,0,0,0,0,0,0,0,
0,0,0,0,0,0,0,0,0,0,0,0,0,0,0,0,
0,0,0,0,0,0,0,0,0,0,0,0,0,0,0,0,
0,0,0,0,0,0,0,0,0,0,0,0,0,0,267,0,
0,0,0,0,0,0,0,0,0,0,267,0,267,267,267,267,
0,0,0,0,0,0,0,0,0,0,267,267,267,267,267,267,
0,0,0,0,0,0,0,0,0,0,267,267,267,267,267,267,
0,0,0,0,0,0,0,0,0,0,0,267,267,267,267,267,
0,0,0,0,0,0,0,0,0,0,0,267,267,267,267,267,
0,0,0,0,0,0,0,0,267,267,267,267,267,267,267,267,
0,0,0,0,0,0,0,0,0,0,267,267,267,267,267,267,
0,0,0,0,0,0,0,0,0,0,0,267,267,267,267,267,
0,0,0,0,0,0,0,0,0,0,0,267,0,0,0,0
</chunk>
   <chunk x="0" y="-16" width="16" height="16">
0,0,0,0,0,0,0,0,0,0,0,0,0,0,0,0,
0,0,0,0,0,0,0,0,0,0,0,0,0,0,0,0,
0,0,0,0,0,0,0,0,0,0,0,0,0,0,0,0,
0,0,0,0,0,0,0,0,0,0,0,0,0,0,0,0,
0,0,0,0,0,0,0,0,0,0,0,0,0,0,0,0,
0,0,0,0,0,0,0,0,0,0,0,0,0,0,0,0,
267,0,0,0,0,0,0,0,0,0,0,0,0,0,0,0,
267,267,267,267,267,267,0,0,0,0,0,0,0,0,0,0,
267,267,267,267,267,267,267,0,0,0,0,0,0,0,0,0,
267,267,267,267,267,267,267,0,0,0,0,0,0,0,0,0,
267,267,267,267,267,267,267,267,0,0,0,0,0,0,0,0,
267,267,267,267,267,267,0,267,0,0,0,0,0,0,0,0,
267,267,267,267,267,267,0,267,0,0,0,0,0,0,0,0,
267,267,267,267,267,267,267,267,0,0,0,0,0,0,0,0,
267,267,267,267,267,267,267,0,0,0,0,0,0,0,0,0,
0,0,0,267,267,267,267,267,0,0,0,0,0,0,0,0
</chunk>
  </data>
 </layer>
 <layer id="8" name="Carpet" width="16" height="24">
  <data encoding="csv">
   <chunk x="-16" y="-16" width="16" height="16">
0,0,0,0,0,0,0,0,0,0,0,0,0,0,0,0,
0,0,0,0,0,0,0,0,0,0,0,0,0,0,0,0,
0,0,0,0,0,0,0,0,0,0,0,0,0,0,0,0,
0,0,0,0,0,0,0,0,0,0,0,0,0,0,0,0,
0,0,0,0,0,0,0,0,0,0,0,0,0,0,0,0,
0,0,0,0,0,0,0,0,0,0,0,0,0,0,0,0,
0,0,0,0,0,0,0,0,0,0,0,0,0,0,0,0,
0,0,0,0,0,0,0,0,0,0,0,0,0,0,0,0,
0,0,0,0,0,0,0,0,0,0,0,0,0,0,0,0,
0,0,0,0,0,0,0,0,0,0,0,0,0,1787,1788,1789,
0,0,0,0,0,0,0,0,0,0,0,0,0,1826,1827,1828,
0,0,0,0,0,0,0,0,0,0,0,0,0,0,0,0,
0,0,0,0,0,0,0,0,0,0,0,0,0,0,0,0,
0,0,0,0,0,0,0,0,0,0,0,0,0,0,0,0,
0,0,0,0,0,0,0,0,0,0,0,0,0,0,0,0,
0,0,0,0,0,0,0,0,0,0,0,0,0,0,0,0
</chunk>
   <chunk x="0" y="-16" width="16" height="16">
0,0,0,0,0,0,0,0,0,0,0,0,0,0,0,0,
0,0,0,0,0,0,0,0,0,0,0,0,0,0,0,0,
0,0,0,0,0,0,0,0,0,0,0,0,0,0,0,0,
0,0,0,0,0,0,0,0,0,0,0,0,0,0,0,0,
0,0,0,0,0,0,0,0,0,0,0,0,0,0,0,0,
0,0,0,0,0,0,0,0,0,0,0,0,0,0,0,0,
0,0,0,0,0,0,0,0,0,0,0,0,0,0,0,0,
0,0,0,0,0,0,0,0,0,0,0,0,0,0,0,0,
0,0,0,0,0,0,0,0,0,0,0,0,0,0,0,0,
1790,1791,1792,1793,1794,0,0,0,0,0,0,0,0,0,0,0,
1829,1830,1831,1832,1833,0,0,0,0,0,0,0,0,0,0,0,
0,0,0,0,0,0,0,0,0,0,0,0,0,0,0,0,
0,0,0,0,0,0,0,0,0,0,0,0,0,0,0,0,
0,0,0,0,0,0,0,0,0,0,0,0,0,0,0,0,
0,0,0,0,0,0,0,0,0,0,0,0,0,0,0,0,
0,0,0,0,0,0,0,0,0,0,0,0,0,0,0,0
</chunk>
  </data>
 </layer>
 <layer id="1" name="Walls" width="16" height="24">
  <data encoding="csv">
   <chunk x="-16" y="-16" width="16" height="16">
0,0,0,0,0,0,0,0,0,0,0,0,0,0,0,0,
0,0,0,0,0,0,0,0,0,0,0,0,0,0,0,0,
0,0,0,0,0,0,0,0,0,0,0,0,0,0,0,0,
0,0,0,0,0,0,0,0,9,9,9,9,9,9,9,9,
0,0,0,0,0,0,0,0,9,9,9,9,9,9,9,9,
0,0,0,0,0,0,0,0,9,9,138,139,139,139,139,139,
0,0,0,0,0,0,0,0,9,9,145,43,134,16,17,18,
0,0,0,0,0,0,0,0,9,9,145,50,141,23,24,25,
0,0,0,0,0,0,0,0,9,9,145,57,148,30,31,32,
0,0,0,0,0,0,0,0,9,9,145,14,0,0,0,0,
0,0,0,0,0,0,0,0,9,9,145,14,0,0,0,0,
0,0,0,0,0,0,0,0,0,0,0,0,0,0,0,0,
0,0,0,0,0,0,0,0,0,0,0,0,0,0,0,0,
0,0,0,0,0,0,0,0,0,0,0,0,0,0,0,0,
0,0,0,0,0,0,0,0,0,0,0,0,0,0,0,0,
0,0,0,0,0,0,0,0,0,0,0,0,0,0,0,0
</chunk>
   <chunk x="0" y="-16" width="16" height="16">
0,0,0,0,0,0,0,0,0,0,0,0,0,0,0,0,
0,0,0,0,0,0,0,0,0,0,0,0,0,0,0,0,
0,0,0,0,0,0,0,0,0,0,0,0,0,0,0,0,
9,9,9,9,9,9,9,9,9,0,0,0,0,0,0,0,
9,9,9,9,9,9,9,9,9,0,0,0,0,0,0,0,
139,139,139,139,139,139,140,9,9,0,0,0,0,0,0,0,
19,20,16,17,18,44,147,9,9,0,0,0,0,0,0,0,
26,27,23,24,25,51,147,9,9,0,0,0,0,0,0,0,
33,34,30,31,32,58,147,9,9,0,0,0,0,0,0,0,
0,0,0,0,0,8,147,9,9,0,0,0,0,0,0,0,
0,0,0,0,0,8,147,9,9,0,0,0,0,0,0,0,
0,0,0,0,0,0,0,0,0,0,0,0,0,0,0,0,
0,0,0,0,0,0,0,0,0,0,0,0,0,0,0,0,
0,0,0,0,0,0,0,0,0,0,0,0,0,0,0,0,
0,0,0,0,0,0,0,0,0,0,0,0,0,0,0,0,
0,0,0,0,0,0,0,0,0,0,0,0,0,0,0,0
</chunk>
  </data>
 </layer>
 <layer id="5" name="Clock" width="16" height="24">
  <data encoding="csv">
   <chunk x="0" y="-16" width="16" height="16">
0,0,0,0,0,0,0,0,0,0,0,0,0,0,0,0,
0,0,0,0,0,0,0,0,0,0,0,0,0,0,0,0,
0,0,0,0,0,0,0,0,0,0,0,0,0,0,0,0,
0,0,0,0,0,0,0,0,0,0,0,0,0,0,0,0,
0,0,0,0,0,0,0,0,0,0,0,0,0,0,0,0,
0,0,0,0,0,0,0,0,0,0,0,0,0,0,0,0,
0,0,0,0,398,399,0,0,0,0,0,0,0,0,0,0,
0,0,0,0,404,405,0,0,0,0,0,0,0,0,0,0,
0,0,0,0,410,411,0,0,0,0,0,0,0,0,0,0,
0,0,0,0,416,417,0,0,0,0,0,0,0,0,0,0,
0,0,0,0,0,0,0,0,0,0,0,0,0,0,0,0,
0,0,0,0,0,0,0,0,0,0,0,0,0,0,0,0,
0,0,0,0,0,0,0,0,0,0,0,0,0,0,0,0,
0,0,0,0,0,0,0,0,0,0,0,0,0,0,0,0,
0,0,0,0,0,0,0,0,0,0,0,0,0,0,0,0,
0,0,0,0,0,0,0,0,0,0,0,0,0,0,0,0
</chunk>
  </data>
 </layer>
 <layer id="6" name="Booksshelf" width="16" height="24">
  <data encoding="csv">
   <chunk x="-16" y="-16" width="16" height="16">
0,0,0,0,0,0,0,0,0,0,0,0,0,0,0,0,
0,0,0,0,0,0,0,0,0,0,0,0,0,0,0,0,
0,0,0,0,0,0,0,0,0,0,0,0,0,0,0,0,
0,0,0,0,0,0,0,0,0,0,0,0,0,0,0,0,
0,0,0,0,0,0,0,0,0,0,0,0,0,0,0,0,
0,0,0,0,0,0,0,0,0,0,0,0,0,0,0,0,
0,0,0,0,0,0,0,0,0,0,0,0,0,0,1145,1146,
0,0,0,0,0,0,0,0,0,0,0,0,0,0,1184,1185,
0,0,0,0,0,0,0,0,0,0,0,0,0,0,1223,1224,
0,0,0,0,0,0,0,0,0,0,0,0,0,0,1262,1263,
0,0,0,0,0,0,0,0,0,0,0,0,0,0,0,0,
0,0,0,0,0,0,0,0,0,0,0,0,0,0,0,0,
0,0,0,0,0,0,0,0,0,0,0,0,0,0,0,0,
0,0,0,0,0,0,0,0,0,0,0,0,0,0,0,0,
0,0,0,0,0,0,0,0,0,0,0,0,0,0,0,0,
0,0,0,0,0,0,0,0,0,0,0,0,0,0,0,0
</chunk>
   <chunk x="0" y="-16" width="16" height="16">
0,0,0,0,0,0,0,0,0,0,0,0,0,0,0,0,
0,0,0,0,0,0,0,0,0,0,0,0,0,0,0,0,
0,0,0,0,0,0,0,0,0,0,0,0,0,0,0,0,
0,0,0,0,0,0,0,0,0,0,0,0,0,0,0,0,
0,0,0,0,0,0,0,0,0,0,0,0,0,0,0,0,
0,0,0,0,0,0,0,0,0,0,0,0,0,0,0,0,
1147,1148,1149,1150,1151,0,0,0,0,0,0,0,0,0,0,0,
1186,1187,1188,1189,1190,0,0,0,0,0,0,0,0,0,0,0,
1225,1226,1227,1228,1229,0,0,0,0,0,0,0,0,0,0,0,
1264,1265,1266,1267,1268,0,0,0,0,0,0,0,0,0,0,0,
0,0,0,0,0,0,0,0,0,0,0,0,0,0,0,0,
0,0,0,0,0,0,0,0,0,0,0,0,0,0,0,0,
0,0,0,0,0,0,0,0,0,0,0,0,0,0,0,0,
0,0,0,0,0,0,0,0,0,0,0,0,0,0,0,0,
0,0,0,0,0,0,0,0,0,0,0,0,0,0,0,0,
0,0,0,0,0,0,0,0,0,0,0,0,0,0,0,0
</chunk>
  </data>
 </layer>
 <layer id="7" name="Stairs, ladder" width="16" height="24">
  <data encoding="csv">
   <chunk x="-16" y="-16" width="16" height="16">
0,0,0,0,0,0,0,0,0,0,0,0,0,0,0,0,
0,0,0,0,0,0,0,0,0,0,0,0,0,0,0,0,
0,0,0,0,0,0,0,0,0,0,0,0,0,0,0,0,
0,0,0,0,0,0,0,0,0,0,0,0,0,0,0,0,
0,0,0,0,0,0,0,0,0,0,0,0,0,0,0,0,
0,0,0,0,0,0,0,0,0,0,0,0,0,0,0,0,
0,0,0,0,0,0,0,0,0,0,0,0,0,0,0,0,
0,0,0,0,0,0,0,0,0,0,0,0,0,0,0,0,
0,0,0,0,0,0,0,0,0,0,0,1772,1773,1774,0,0,
0,0,0,0,0,0,0,0,0,0,0,1811,1812,1813,0,0,
0,0,0,0,0,0,0,0,0,0,0,1850,1851,1852,0,0,
0,0,0,0,0,0,0,0,0,0,0,0,0,0,0,0,
0,0,0,0,0,0,0,0,0,0,0,0,0,0,0,0,
0,0,0,0,0,0,0,0,0,0,0,0,0,0,0,0,
0,0,0,0,0,0,0,0,0,0,0,0,0,0,0,0,
0,0,0,0,0,0,0,0,0,0,0,0,0,0,0,0
</chunk>
   <chunk x="0" y="-16" width="16" height="16">
0,0,0,0,0,0,0,0,0,0,0,0,0,0,0,0,
0,0,0,0,0,0,0,0,0,0,0,0,0,0,0,0,
0,0,0,0,0,0,0,0,0,0,0,0,0,0,0,0,
0,0,0,0,0,0,0,0,0,0,0,0,0,0,0,0,
0,0,0,0,0,0,0,0,0,0,0,0,0,0,0,0,
0,0,0,0,0,0,0,0,0,0,0,0,0,0,0,0,
0,0,0,0,0,0,0,0,0,0,0,0,0,0,0,0,
0,0,1313,1314,0,0,0,0,0,0,0,0,0,0,0,0,
0,0,1352,1353,0,0,0,0,0,0,0,0,0,0,0,0,
0,0,1391,1392,0,0,0,0,0,0,0,0,0,0,0,0,
0,0,0,0,0,0,0,0,0,0,0,0,0,0,0,0,
0,0,0,0,0,0,0,0,0,0,0,0,0,0,0,0,
0,0,0,0,0,0,0,0,0,0,0,0,0,0,0,0,
0,0,0,0,0,0,0,0,0,0,0,0,0,0,0,0,
0,0,0,0,0,0,0,0,0,0,0,0,0,0,0,0,
0,0,0,0,0,0,0,0,0,0,0,0,0,0,0,0
</chunk>
  </data>
 </layer>
 <layer id="9" name="Tables" width="16" height="24">
  <data encoding="csv">
   <chunk x="-16" y="-16" width="16" height="16">
0,0,0,0,0,0,0,0,0,0,0,0,0,0,0,0,
0,0,0,0,0,0,0,0,0,0,0,0,0,0,0,0,
0,0,0,0,0,0,0,0,0,0,0,0,0,0,0,0,
0,0,0,0,0,0,0,0,0,0,0,0,0,0,0,0,
0,0,0,0,0,0,0,0,0,0,0,0,0,0,0,0,
0,0,0,0,0,0,0,0,0,0,0,0,0,0,0,0,
0,0,0,0,0,0,0,0,0,0,0,0,0,0,0,0,
0,0,0,0,0,0,0,0,0,0,0,0,0,0,0,0,
0,0,0,0,0,0,0,0,0,0,0,0,0,0,0,0,
0,0,0,0,0,0,0,0,0,0,0,0,0,0,0,0,
0,0,0,0,0,0,0,0,0,0,0,1671,1672,1673,1674,1675,
0,0,0,0,0,0,0,0,0,0,0,1710,1711,1712,1713,1714,
0,0,0,0,0,0,0,0,0,0,0,1749,1750,1751,1752,1753,
0,0,0,0,0,0,0,0,0,0,0,0,0,0,0,0,
0,0,0,0,0,0,0,0,0,0,0,0,0,0,0,0,
0,0,0,0,0,0,0,0,0,0,0,0,0,0,0,0
</chunk>
   <chunk x="0" y="-16" width="16" height="16">
0,0,0,0,0,0,0,0,0,0,0,0,0,0,0,0,
0,0,0,0,0,0,0,0,0,0,0,0,0,0,0,0,
0,0,0,0,0,0,0,0,0,0,0,0,0,0,0,0,
0,0,0,0,0,0,0,0,0,0,0,0,0,0,0,0,
0,0,0,0,0,0,0,0,0,0,0,0,0,0,0,0,
0,0,0,0,0,0,0,0,0,0,0,0,0,0,0,0,
0,0,0,0,0,0,0,0,0,0,0,0,0,0,0,0,
0,0,0,0,0,0,0,0,0,0,0,0,0,0,0,0,
0,0,0,0,0,0,0,0,0,0,0,0,0,0,0,0,
0,0,0,0,0,0,0,0,0,0,0,0,0,0,0,0,
0,1681,1682,1683,1684,1685,0,0,0,0,0,0,0,0,0,0,
0,1720,1721,1722,1723,1724,0,0,0,0,0,0,0,0,0,0,
0,1759,1760,1761,1762,1763,0,0,0,0,0,0,0,0,0,0,
0,0,0,0,0,0,0,0,0,0,0,0,0,0,0,0,
0,0,0,0,0,0,0,0,0,0,0,0,0,0,0,0,
0,0,0,0,0,0,0,0,0,0,0,0,0,0,0,0
</chunk>
  </data>
 </layer>
 <layer id="10" name="Candelabra" width="16" height="24">
  <data encoding="csv">
   <chunk x="-16" y="-16" width="16" height="16">
0,0,0,0,0,0,0,0,0,0,0,0,0,0,0,0,
0,0,0,0,0,0,0,0,0,0,0,0,0,0,0,0,
0,0,0,0,0,0,0,0,0,0,0,0,0,0,0,0,
0,0,0,0,0,0,0,0,0,0,0,0,0,0,0,0,
0,0,0,0,0,0,0,0,0,0,0,0,0,0,0,0,
0,0,0,0,0,0,0,0,0,0,0,0,0,0,0,0,
0,0,0,0,0,0,0,0,0,0,0,0,0,0,0,0,
0,0,0,0,0,0,0,0,0,0,0,0,0,0,0,0,
0,0,0,0,0,0,0,0,0,0,0,0,0,0,0,0,
0,0,0,0,0,0,0,0,0,0,0,0,0,0,0,0,
0,0,0,0,0,0,0,0,0,0,0,0,0,0,0,0,
0,0,0,0,0,0,0,0,0,0,0,353,354,0,0,0,
0,0,0,0,0,0,0,0,0,0,0,368,369,0,0,0,
0,0,0,0,0,0,0,0,0,0,0,383,384,0,0,0,
0,0,0,0,0,0,0,0,0,0,0,0,0,0,0,0,
0,0,0,0,0,0,0,0,0,0,0,0,0,0,0,0
</chunk>
   <chunk x="0" y="-16" width="16" height="16">
0,0,0,0,0,0,0,0,0,0,0,0,0,0,0,0,
0,0,0,0,0,0,0,0,0,0,0,0,0,0,0,0,
0,0,0,0,0,0,0,0,0,0,0,0,0,0,0,0,
0,0,0,0,0,0,0,0,0,0,0,0,0,0,0,0,
0,0,0,0,0,0,0,0,0,0,0,0,0,0,0,0,
0,0,0,0,0,0,0,0,0,0,0,0,0,0,0,0,
0,0,0,0,0,0,0,0,0,0,0,0,0,0,0,0,
0,0,0,0,0,0,0,0,0,0,0,0,0,0,0,0,
0,0,0,0,0,0,0,0,0,0,0,0,0,0,0,0,
0,0,0,0,0,0,0,0,0,0,0,0,0,0,0,0,
0,0,0,0,0,0,0,0,0,0,0,0,0,0,0,0,
0,0,0,0,355,356,357,0,0,0,0,0,0,0,0,0,
0,0,0,0,370,371,372,0,0,0,0,0,0,0,0,0,
0,0,0,0,385,386,387,0,0,0,0,0,0,0,0,0,
0,0,0,0,0,0,0,0,0,0,0,0,0,0,0,0,
0,0,0,0,0,0,0,0,0,0,0,0,0,0,0,0
</chunk>
  </data>
 </layer>
 <layer id="12" name="Redaers" width="16" height="24">
  <data encoding="csv">
   <chunk x="-16" y="-16" width="16" height="16">
0,0,0,0,0,0,0,0,0,0,0,0,0,0,0,0,
0,0,0,0,0,0,0,0,0,0,0,0,0,0,0,0,
0,0,0,0,0,0,0,0,0,0,0,0,0,0,0,0,
0,0,0,0,0,0,0,0,0,0,0,0,0,0,0,0,
0,0,0,0,0,0,0,0,0,0,0,0,0,0,0,0,
0,0,0,0,0,0,0,0,0,0,0,0,0,0,0,0,
0,0,0,0,0,0,0,0,0,0,0,0,0,0,0,0,
0,0,0,0,0,0,0,0,0,0,0,0,0,0,0,0,
0,0,0,0,0,0,0,0,0,0,0,0,0,0,0,0,
0,0,0,0,0,0,0,0,0,0,0,0,0,0,0,0,
0,0,0,0,0,0,0,0,0,0,0,0,1958,1959,0,0,
0,0,0,0,0,0,0,0,0,0,0,0,1982,1983,0,0,
0,0,0,0,0,0,0,0,0,0,0,0,0,0,0,0,
0,0,0,0,0,0,0,0,0,0,0,0,0,0,0,0,
0,0,0,0,0,0,0,0,0,0,0,0,0,0,0,0,
0,0,0,0,0,0,0,0,0,0,0,0,0,0,0,0
</chunk>
   <chunk x="0" y="-16" width="16" height="16">
0,0,0,0,0,0,0,0,0,0,0,0,0,0,0,0,
0,0,0,0,0,0,0,0,0,0,0,0,0,0,0,0,
0,0,0,0,0,0,0,0,0,0,0,0,0,0,0,0,
0,0,0,0,0,0,0,0,0,0,0,0,0,0,0,0,
0,0,0,0,0,0,0,0,0,0,0,0,0,0,0,0,
0,0,0,0,0,0,0,0,0,0,0,0,0,0,0,0,
0,0,0,0,0,0,0,0,0,0,0,0,0,0,0,0,
0,0,0,0,0,0,0,0,0,0,0,0,0,0,0,0,
0,0,0,0,0,0,0,0,0,0,0,0,0,0,0,0,
0,0,0,0,0,0,0,0,0,0,0,0,0,0,0,0,
0,0,0,2094,2095,0,0,0,0,0,0,0,0,0,0,0,
0,0,0,2102,2103,0,0,0,0,0,0,0,0,0,0,0,
0,0,0,0,0,0,0,0,0,0,0,0,0,0,0,0,
0,0,0,0,0,0,0,0,0,0,0,0,0,0,0,0,
0,0,0,0,0,0,0,0,0,0,0,0,0,0,0,0,
0,0,0,0,0,0,0,0,0,0,0,0,0,0,0,0
</chunk>
  </data>
 </layer>
 <layer id="13" name="Readers2" width="16" height="24">
  <data encoding="csv">
   <chunk x="-16" y="-16" width="16" height="16">
0,0,0,0,0,0,0,0,0,0,0,0,0,0,0,0,
0,0,0,0,0,0,0,0,0,0,0,0,0,0,0,0,
0,0,0,0,0,0,0,0,0,0,0,0,0,0,0,0,
0,0,0,0,0,0,0,0,0,0,0,0,0,0,0,0,
0,0,0,0,0,0,0,0,0,0,0,0,0,0,0,0,
0,0,0,0,0,0,0,0,0,0,0,0,0,0,0,0,
0,0,0,0,0,0,0,0,0,0,0,0,0,0,0,0,
0,0,0,0,0,0,0,0,0,0,0,0,0,0,0,0,
0,0,0,0,0,0,0,0,0,0,0,0,0,0,2110,2111,
0,0,0,0,0,0,0,0,0,0,0,0,0,0,2134,2135,
0,0,0,0,0,0,0,0,0,0,0,0,0,0,2158,2159,
0,0,0,0,0,0,0,0,0,0,0,0,0,2054,2055,0,
0,0,0,0,0,0,0,0,0,0,0,0,0,0,0,0,
0,0,0,0,0,0,0,0,0,0,0,0,0,0,0,0,
0,0,0,0,0,0,0,0,0,0,0,0,0,0,0,0,
0,0,0,0,0,0,0,0,0,0,0,0,0,0,0,0
</chunk>
  </data>
 </layer>
 <layer id="11" name="Globe_character" width="16" height="24">
  <data encoding="csv">
   <chunk x="-16" y="-16" width="16" height="16">
0,0,0,0,0,0,0,0,0,0,0,0,0,0,0,0,
0,0,0,0,0,0,0,0,0,0,0,0,0,0,0,0,
0,0,0,0,0,0,0,0,0,0,0,0,0,0,0,0,
0,0,0,0,0,0,0,0,0,0,0,0,0,0,0,0,
0,0,0,0,0,0,0,0,0,0,0,0,0,0,0,0,
0,0,0,0,0,0,0,0,0,0,0,0,0,0,0,0,
0,0,0,0,0,0,0,0,0,0,0,0,0,0,0,0,
0,0,0,0,0,0,0,0,0,0,0,0,0,0,0,0,
0,0,0,0,0,0,0,0,0,0,0,0,0,0,0,0,
0,0,0,0,0,0,0,0,0,0,0,0,0,0,0,806,
0,0,0,0,0,0,0,0,0,0,0,0,0,0,0,824,
0,0,0,0,0,0,0,0,0,0,0,0,0,0,0,842,
0,0,0,0,0,0,0,0,0,0,0,0,0,0,0,860,
0,0,0,0,0,0,0,0,0,0,0,0,0,0,0,0,
0,0,0,0,0,0,0,0,0,0,0,0,0,0,0,0,
0,0,0,0,0,0,0,0,0,0,0,0,0,0,0,0
</chunk>
   <chunk x="0" y="-16" width="16" height="16">
0,0,0,0,0,0,0,0,0,0,0,0,0,0,0,0,
0,0,0,0,0,0,0,0,0,0,0,0,0,0,0,0,
0,0,0,0,0,0,0,0,0,0,0,0,0,0,0,0,
0,0,0,0,0,0,0,0,0,0,0,0,0,0,0,0,
0,0,0,0,0,0,0,0,0,0,0,0,0,0,0,0,
0,0,0,0,0,0,0,0,0,0,0,0,0,0,0,0,
0,0,0,0,0,0,0,0,0,0,0,0,0,0,0,0,
0,0,0,0,0,0,0,0,0,0,0,0,0,0,0,0,
0,0,0,0,0,0,0,0,0,0,0,0,0,0,0,0,
807,808,0,0,0,0,0,0,0,0,0,0,0,0,0,0,
825,826,0,0,0,0,0,0,0,0,0,0,0,0,0,0,
843,844,0,0,0,0,0,0,0,0,0,0,0,0,0,0,
861,862,0,0,0,0,0,0,0,0,0,0,0,0,0,0,
0,0,0,0,0,0,0,0,0,0,0,0,0,0,0,0,
0,0,0,0,0,0,0,0,0,0,0,0,0,0,0,0,
0,0,0,0,0,0,0,0,0,0,0,0,0,0,0,0
</chunk>
  </data>
 </layer>
 <layer id="2" name="Walls2" width="16" height="24">
  <data encoding="csv">
   <chunk x="-16" y="-16" width="16" height="16">
0,0,0,0,0,0,0,0,0,0,0,0,0,0,0,0,
0,0,0,0,0,0,0,0,0,0,0,0,0,0,0,0,
0,0,0,0,0,0,0,0,0,0,0,0,0,0,0,0,
0,0,0,0,0,0,0,0,0,0,0,0,0,0,0,0,
0,0,0,0,0,0,0,0,0,0,0,0,0,0,0,0,
0,0,0,0,0,0,0,0,0,0,0,0,0,0,0,0,
0,0,0,0,0,0,0,0,0,0,0,0,0,0,0,0,
0,0,0,0,0,0,0,0,0,0,0,0,0,0,0,0,
0,0,0,0,0,0,0,0,0,0,0,0,0,0,0,0,
0,0,0,0,0,0,0,0,0,0,0,0,0,0,0,0,
0,0,0,0,0,0,0,0,0,0,0,0,0,0,0,0,
0,0,0,0,0,0,0,0,9,9,145,14,0,0,0,0,
0,0,0,0,0,0,0,0,9,9,145,64,3,3,3,3,
0,0,0,0,0,0,0,0,9,9,152,153,153,153,153,153,
0,0,0,0,0,0,0,0,9,9,9,9,9,9,9,9,
0,0,0,0,0,0,0,0,9,9,9,9,9,9,9,9
</chunk>
   <chunk x="0" y="-16" width="16" height="16">
0,0,0,0,0,0,0,0,0,0,0,0,0,0,0,0,
0,0,0,0,0,0,0,0,0,0,0,0,0,0,0,0,
0,0,0,0,0,0,0,0,0,0,0,0,0,0,0,0,
0,0,0,0,0,0,0,0,0,0,0,0,0,0,0,0,
0,0,0,0,0,0,0,0,0,0,0,0,0,0,0,0,
0,0,0,0,0,0,0,0,0,0,0,0,0,0,0,0,
0,0,0,0,0,0,0,0,0,0,0,0,0,0,0,0,
0,0,0,0,0,0,0,0,0,0,0,0,0,0,0,0,
0,0,0,0,0,0,0,0,0,0,0,0,0,0,0,0,
0,0,0,0,0,0,0,0,0,0,0,0,0,0,0,0,
0,0,0,0,0,0,0,0,0,0,0,0,0,0,0,0,
0,0,0,0,0,8,147,9,9,0,0,0,0,0,0,0,
3,3,3,3,3,65,147,9,9,0,0,0,0,0,0,0,
153,153,153,153,153,153,154,9,9,0,0,0,0,0,0,0,
9,9,9,9,9,9,9,9,9,0,0,0,0,0,0,0,
9,9,9,9,9,9,9,9,9,0,0,0,0,0,0,0
</chunk>
  </data>
 </layer>
</map>
