<?xml version="1.0" encoding="UTF-8"?>
<map version="1.10" tiledversion="1.12.2" orientation="orthogonal" renderorder="right-down" width="32" height="26" tilewidth="16" tileheight="16" infinite="0" nextlayerid="5" nextobjectid="1">
 <tileset firstgid="1" source="Ground_grass.tsx"/>
 <tileset firstgid="652" source="Objects.tsx"/>
 <tileset firstgid="1708" source="Water_coasts.tsx"/>
 <tileset firstgid="3178" source="water_detilazation.tsx"/>
 <tileset firstgid="6064" source="water_detilazation_v2.tsx"/>
 <tileset firstgid="8950" source="lianas.tsx"/>
 <tileset firstgid="9210" source="spots.tsx"/>
 <tileset firstgid="9546" source="spots_rock.tsx"/>
 <tileset firstgid="10029" source="stairs_grass.tsx"/>
 <tileset firstgid="10386" source="water_lilis.tsx"/>
 <layer id="1" name="ground" width="32" height="26" visible="0">
  <data encoding="csv">
591,591,591,591,591,591,591,591,591,591,591,591,591,591,591,591,591,591,591,593,571,0,611,599,573,591,591,591,591,591,591,591,
591,591,591,591,591,591,591,591,591,591,591,591,591,591,591,591,591,591,591,591,592,0,0,0,580,591,591,591,591,591,591,591,
591,591,591,591,591,591,591,591,591,591,591,591,591,591,591,591,591,591,591,591,593,570,571,0,611,600,573,591,591,591,591,591,
591,591,591,591,591,591,591,591,591,591,591,591,591,591,591,591,591,591,591,591,591,591,593,571,0,0,580,591,591,591,591,591,
591,591,591,591,591,591,591,591,591,591,591,591,591,591,591,591,591,591,591,591,591,591,591,593,571,0,611,573,591,591,591,591,
591,591,591,591,591,591,591,591,591,591,591,591,591,591,591,591,591,591,591,591,591,591,591,591,593,571,0,611,573,591,591,591,
591,591,591,591,591,591,591,591,591,591,591,591,591,591,591,591,591,591,591,591,591,591,591,591,591,592,0,0,580,591,591,591,
591,591,591,591,591,591,591,591,591,591,591,591,591,591,591,591,591,591,591,591,591,591,591,591,591,593,571,0,611,573,591,591,
591,591,591,591,591,591,591,591,591,591,591,591,591,591,591,591,591,591,591,591,591,591,591,591,591,591,592,0,0,590,591,591,
591,591,591,591,591,591,591,591,591,591,591,591,591,591,591,591,591,591,591,591,591,591,591,591,591,591,593,571,0,590,591,591,
591,591,591,591,591,591,591,591,591,591,591,591,591,591,591,591,591,591,591,591,591,591,591,591,591,591,591,592,0,580,591,591,
591,591,591,591,591,591,591,591,591,591,591,591,591,591,591,591,591,591,591,591,591,591,591,591,591,591,591,592,0,611,573,591,
591,591,591,591,591,591,591,591,591,591,591,591,591,591,591,591,591,591,591,591,591,591,591,591,591,591,591,592,0,0,580,591,
591,591,591,591,591,591,591,591,591,591,591,591,591,591,591,591,591,591,591,591,591,591,591,591,591,591,591,593,571,0,580,591,
591,591,591,591,591,591,591,591,591,591,591,591,591,591,591,591,591,591,591,591,591,591,591,591,591,591,591,591,592,0,580,591,
591,591,591,591,591,591,591,591,591,591,591,591,591,591,591,591,591,591,591,591,591,591,591,591,591,591,591,572,613,0,590,591,
591,591,591,591,591,591,591,591,591,591,591,591,591,591,591,591,591,591,591,591,591,591,591,591,591,591,591,592,0,0,590,591,
591,591,591,591,591,591,591,591,591,591,591,591,591,591,591,591,591,591,591,591,591,591,591,591,591,591,591,592,0,569,594,591,
591,591,591,591,591,591,591,591,591,591,591,591,591,591,591,591,591,591,591,591,591,591,591,591,591,591,591,592,0,580,591,591,
591,591,591,591,591,591,591,591,591,591,591,591,591,591,591,591,591,591,591,591,591,591,591,591,591,591,591,592,0,580,591,591,
591,591,591,591,591,591,591,591,591,591,591,591,591,591,591,591,591,591,591,591,591,591,591,591,591,591,591,592,0,580,591,591,
591,591,591,591,591,591,591,591,591,591,591,591,591,591,591,591,591,591,591,591,591,591,591,591,591,591,572,613,0,590,591,591,
591,591,591,591,591,591,591,591,591,591,591,591,591,591,591,591,591,591,591,591,591,591,591,591,591,591,592,0,0,590,591,591,
591,591,591,591,591,591,591,591,591,591,591,591,591,591,591,591,591,591,591,591,591,591,591,591,591,591,592,0,569,594,591,591,
591,591,591,591,591,591,591,591,591,591,591,591,591,591,591,591,591,591,591,591,591,591,591,591,591,591,592,0,580,591,591,591,
591,591,591,591,591,591,591,591,591,591,591,591,591,591,591,591,591,591,591,591,591,591,591,591,591,591,592,0,580,591,591,591
</data>
 </layer>
 <layer id="2" name="plateau" width="32" height="26">
  <data encoding="csv">
0,0,0,0,0,0,0,0,0,0,0,0,0,0,0,0,0,0,0,0,0,0,0,0,0,0,0,0,0,0,0,0,
0,0,0,0,0,0,0,0,0,0,0,0,0,0,0,0,0,0,0,0,0,0,0,0,0,0,0,0,0,0,0,0,
0,0,0,0,0,0,0,0,0,0,0,0,0,0,0,0,0,0,0,0,0,0,0,0,0,0,0,0,0,0,0,0,
0,0,0,0,0,0,0,0,0,0,0,0,0,0,0,0,0,0,0,0,0,0,0,0,0,0,0,0,0,0,0,0,
0,0,0,0,0,0,0,0,0,0,0,0,0,0,0,0,0,0,0,0,0,0,0,0,0,0,0,0,0,0,0,0,
0,0,0,0,0,0,0,0,0,0,0,0,0,0,0,0,0,0,0,0,0,0,0,0,0,0,0,0,0,0,0,0,
0,0,0,0,0,0,0,0,0,0,0,0,0,506,515,515,515,515,508,0,0,0,0,0,0,0,0,0,0,0,0,0,
0,0,0,0,0,0,0,0,0,0,0,0,0,527,528,528,528,528,530,508,0,0,0,0,0,0,0,0,0,0,0,0,
0,0,0,0,0,0,0,0,0,0,0,0,0,517,528,528,528,528,528,530,508,0,0,0,0,0,0,0,0,0,0,0,
0,0,0,0,0,0,0,0,0,0,0,0,506,531,528,528,528,528,528,528,530,515,508,0,0,0,0,0,0,0,0,0,
0,0,0,0,0,0,0,0,0,0,506,507,531,528,528,528,528,528,528,528,528,528,530,508,0,0,0,0,0,0,0,0,
0,0,0,0,0,0,0,0,0,506,531,528,528,528,528,528,528,528,528,528,528,528,528,530,508,0,0,0,0,0,0,0,
0,0,0,0,0,0,0,0,506,531,528,528,528,528,528,528,528,528,528,528,528,528,528,528,530,508,0,0,0,0,0,0,
0,0,0,0,0,0,0,506,531,528,528,528,528,528,528,528,528,528,528,528,528,528,528,528,528,530,508,0,0,0,0,0,
0,0,0,0,0,0,506,531,528,528,528,528,528,528,528,528,528,528,528,528,528,528,528,528,528,528,529,0,0,0,0,0,
0,0,0,0,0,0,517,528,528,528,528,528,528,528,528,528,528,528,509,549,537,549,510,528,528,528,529,0,0,0,0,0,
0,0,0,0,0,0,527,528,528,528,528,528,528,528,528,528,509,537,550,0,0,0,548,549,536,536,550,0,0,0,0,0,
0,0,0,0,0,0,517,528,528,528,528,528,528,528,528,528,529,0,0,0,0,0,0,0,0,0,0,0,0,0,0,0,
0,0,0,0,0,0,548,510,528,528,528,528,528,528,509,537,550,0,0,0,0,0,0,0,0,0,0,0,0,0,0,0,
0,0,0,0,0,0,0,527,528,528,528,528,528,528,529,0,0,0,0,0,0,0,0,0,0,0,0,0,0,0,0,0,
0,0,0,0,0,0,0,548,536,537,549,549,549,549,550,0,0,0,0,0,0,0,0,0,0,0,0,0,0,0,0,0,
0,0,0,0,0,0,0,0,0,0,0,0,0,0,0,0,0,0,0,0,0,0,0,0,0,0,0,0,0,0,0,0,
0,0,0,0,0,0,0,0,0,0,0,0,0,0,0,0,0,0,0,0,0,0,0,0,0,0,0,0,0,0,0,0,
0,0,0,0,0,0,0,0,0,0,0,0,0,0,0,0,0,0,0,0,0,0,0,0,0,0,0,0,0,0,0,0,
0,0,0,0,0,0,0,0,0,0,0,0,0,0,0,0,0,0,0,0,0,0,0,0,0,0,0,0,0,0,0,0,
0,0,0,0,0,0,0,0,0,0,0,0,0,0,0,0,0,0,0,0,0,0,0,0,0,0,0,0,0,0,0,0
</data>
 </layer>
 <layer id="3" name="cliff" width="32" height="26">
  <data encoding="csv">
0,0,0,0,0,0,0,0,0,0,0,0,0,0,0,0,0,0,0,0,0,0,0,0,0,0,0,0,0,0,0,0,
0,0,0,0,0,0,0,0,0,0,0,0,0,0,0,0,0,0,0,0,0,0,0,0,0,0,0,0,0,0,0,0,
0,0,0,0,0,0,0,0,0,0,0,0,0,0,0,0,0,0,0,0,0,0,0,0,0,0,0,0,0,0,0,0,
0,0,0,0,0,0,0,0,0,0,0,0,0,0,0,0,0,0,0,0,0,0,0,0,0,0,0,0,0,0,0,0,
0,0,0,0,0,0,0,0,0,0,0,0,0,0,0,0,0,0,0,0,0,0,0,0,0,0,0,0,0,0,0,0,
0,0,0,0,0,0,0,0,0,0,0,0,0,0,0,0,0,0,0,0,0,0,0,0,0,0,0,0,0,0,0,0,
0,0,0,0,0,0,0,0,0,0,0,0,0,0,0,0,0,0,0,0,0,0,0,0,0,0,0,0,0,0,0,0,
0,0,0,0,0,0,0,0,0,0,0,0,0,0,0,0,0,0,0,0,0,0,0,0,0,0,0,0,0,0,0,0,
0,0,0,0,0,0,0,0,0,0,0,0,0,0,0,0,0,0,0,0,0,0,0,0,0,0,0,0,0,0,0,0,
0,0,0,0,0,0,0,0,0,0,0,0,0,0,0,0,0,0,0,0,0,0,0,0,0,0,0,0,0,0,0,0,
0,0,0,0,0,0,0,0,0,0,0,0,0,0,0,0,0,0,0,0,0,0,0,0,0,0,0,0,0,0,0,0,
0,0,0,0,0,0,0,0,0,0,0,0,0,0,0,0,0,0,0,0,0,0,0,0,0,0,0,0,0,0,0,0,
0,0,0,0,0,0,0,0,0,0,0,0,0,0,0,0,0,0,0,0,0,0,0,0,0,0,0,0,0,0,0,0,
0,0,0,0,0,0,0,0,0,0,0,0,0,0,0,0,0,0,0,0,0,0,0,0,0,0,0,0,0,0,0,0,
0,0,0,0,0,0,0,0,0,0,0,0,0,0,0,0,0,0,0,0,0,0,0,0,0,0,0,0,0,0,0,0,
0,0,0,0,0,0,0,0,0,0,0,0,0,0,0,0,0,0,9904,9909,9616,9909,9906,0,0,0,0,0,0,0,0,0,
0,0,0,0,0,0,0,0,0,0,0,0,0,0,0,0,9904,9616,9996,9696,9696,9993,9998,9909,9909,9909,9911,0,0,0,0,0,
0,0,0,0,0,0,0,0,0,0,0,0,0,0,0,0,9988,9993,9572,9658,9658,9658,9574,9993,9993,9993,9995,0,0,0,0,0,
0,0,0,0,0,0,9907,9906,0,0,0,0,0,0,9904,9616,9996,9664,9745,0,0,0,9741,9658,9658,9658,0,0,0,0,0,0,
0,0,0,0,0,0,9991,9990,0,0,0,0,0,0,9988,9696,9696,9745,0,0,0,0,0,0,0,0,0,0,0,0,0,0,
0,0,0,0,0,0,9991,9998,9909,9616,9909,9909,9909,9909,9996,9696,9572,0,0,0,0,0,0,0,0,0,0,0,0,0,0,0,
0,0,0,0,0,0,0,9666,9696,9696,9696,9696,9696,9696,9664,9658,0,0,0,0,0,0,0,0,0,0,0,0,0,0,0,0,
0,0,0,0,0,0,0,9741,9656,9656,9656,9656,9656,9656,9745,0,0,0,0,0,0,0,0,0,0,0,0,0,0,0,0,0,
0,0,0,0,0,0,0,0,0,0,0,0,0,0,0,0,0,0,0,0,0,0,0,0,0,0,0,0,0,0,0,0,
0,0,0,0,0,0,0,0,0,0,0,0,0,0,0,0,0,0,0,0,0,0,0,0,0,0,0,0,0,0,0,0,
0,0,0,0,0,0,0,0,0,0,0,0,0,0,0,0,0,0,0,0,0,0,0,0,0,0,0,0,0,0,0,0
</data>
 </layer>
</map>
