<?xml version="1.0" encoding="UTF-8"?>
<map version="1.10" tiledversion="1.10.2" orientation="orthogonal" renderorder="right-down" width="16" height="24" tilewidth="16" tileheight="16" infinite="1" nextlayerid="75" nextobjectid="1">
 <tileset firstgid="1" name="Ground_grass" tilewidth="16" tileheight="16" tilecount="252" columns="12">
  <image source="Ground_grass.png" width="192" height="336"/>
 </tileset>
 <tileset firstgid="253" name="Bonfire_boiler_lizardman" tilewidth="16" tileheight="16" tilecount="588" columns="21">
  <image source="Bonfire_boiler_lizardman.png" width="336" height="448"/>
  <tile id="2">
   <animation>
    <frame tileid="2" duration="150"/>
    <frame tileid="149" duration="150"/>
    <frame tileid="296" duration="150"/>
    <frame tileid="443" duration="150"/>
    <frame tileid="9" duration="150"/>
    <frame tileid="156" duration="150"/>
    <frame tileid="303" duration="150"/>
    <frame tileid="450" duration="150"/>
    <frame tileid="16" duration="150"/>
    <frame tileid="163" duration="150"/>
    <frame tileid="310" duration="150"/>
    <frame tileid="457" duration="150"/>
   </animation>
  </tile>
  <tile id="3">
   <animation>
    <frame tileid="3" duration="150"/>
    <frame tileid="150" duration="150"/>
    <frame tileid="297" duration="150"/>
    <frame tileid="444" duration="150"/>
    <frame tileid="10" duration="150"/>
    <frame tileid="157" duration="150"/>
    <frame tileid="304" duration="150"/>
    <frame tileid="451" duration="150"/>
    <frame tileid="17" duration="150"/>
    <frame tileid="164" duration="150"/>
    <frame tileid="311" duration="150"/>
    <frame tileid="458" duration="150"/>
   </animation>
  </tile>
  <tile id="22">
   <animation>
    <frame tileid="22" duration="150"/>
    <frame tileid="169" duration="150"/>
    <frame tileid="316" duration="150"/>
    <frame tileid="463" duration="150"/>
    <frame tileid="29" duration="150"/>
    <frame tileid="176" duration="150"/>
    <frame tileid="323" duration="150"/>
    <frame tileid="470" duration="150"/>
    <frame tileid="36" duration="150"/>
    <frame tileid="183" duration="150"/>
    <frame tileid="330" duration="150"/>
    <frame tileid="477" duration="150"/>
   </animation>
  </tile>
  <tile id="23">
   <animation>
    <frame tileid="23" duration="150"/>
    <frame tileid="170" duration="150"/>
    <frame tileid="317" duration="150"/>
    <frame tileid="464" duration="150"/>
    <frame tileid="30" duration="150"/>
    <frame tileid="177" duration="150"/>
    <frame tileid="324" duration="150"/>
    <frame tileid="471" duration="150"/>
    <frame tileid="37" duration="150"/>
    <frame tileid="184" duration="150"/>
    <frame tileid="331" duration="150"/>
    <frame tileid="478" duration="150"/>
   </animation>
  </tile>
  <tile id="24">
   <animation>
    <frame tileid="24" duration="150"/>
    <frame tileid="171" duration="150"/>
    <frame tileid="318" duration="150"/>
    <frame tileid="465" duration="150"/>
    <frame tileid="31" duration="150"/>
    <frame tileid="178" duration="150"/>
    <frame tileid="325" duration="150"/>
    <frame tileid="472" duration="150"/>
    <frame tileid="38" duration="150"/>
    <frame tileid="185" duration="150"/>
    <frame tileid="332" duration="150"/>
    <frame tileid="479" duration="150"/>
   </animation>
  </tile>
  <tile id="25">
   <animation>
    <frame tileid="25" duration="150"/>
    <frame tileid="172" duration="150"/>
    <frame tileid="319" duration="150"/>
    <frame tileid="466" duration="150"/>
    <frame tileid="32" duration="150"/>
    <frame tileid="179" duration="150"/>
    <frame tileid="326" duration="150"/>
    <frame tileid="473" duration="150"/>
    <frame tileid="39" duration="150"/>
    <frame tileid="186" duration="150"/>
    <frame tileid="333" duration="150"/>
    <frame tileid="480" duration="150"/>
   </animation>
  </tile>
  <tile id="26">
   <animation>
    <frame tileid="26" duration="150"/>
    <frame tileid="173" duration="150"/>
    <frame tileid="320" duration="150"/>
    <frame tileid="467" duration="150"/>
    <frame tileid="33" duration="150"/>
    <frame tileid="180" duration="150"/>
    <frame tileid="327" duration="150"/>
    <frame tileid="474" duration="150"/>
    <frame tileid="40" duration="150"/>
    <frame tileid="187" duration="150"/>
    <frame tileid="334" duration="150"/>
    <frame tileid="481" duration="150"/>
   </animation>
  </tile>
  <tile id="27">
   <animation>
    <frame tileid="27" duration="150"/>
    <frame tileid="174" duration="150"/>
    <frame tileid="321" duration="150"/>
    <frame tileid="468" duration="150"/>
    <frame tileid="34" duration="150"/>
    <frame tileid="181" duration="150"/>
    <frame tileid="328" duration="150"/>
    <frame tileid="475" duration="150"/>
    <frame tileid="41" duration="150"/>
    <frame tileid="188" duration="150"/>
    <frame tileid="335" duration="150"/>
    <frame tileid="482" duration="150"/>
   </animation>
  </tile>
  <tile id="43">
   <animation>
    <frame tileid="43" duration="150"/>
    <frame tileid="190" duration="150"/>
    <frame tileid="337" duration="150"/>
    <frame tileid="484" duration="150"/>
    <frame tileid="50" duration="150"/>
    <frame tileid="197" duration="150"/>
    <frame tileid="344" duration="150"/>
    <frame tileid="491" duration="150"/>
    <frame tileid="57" duration="150"/>
    <frame tileid="204" duration="150"/>
    <frame tileid="351" duration="150"/>
    <frame tileid="498" duration="150"/>
   </animation>
  </tile>
  <tile id="44">
   <animation>
    <frame tileid="44" duration="150"/>
    <frame tileid="191" duration="150"/>
    <frame tileid="338" duration="150"/>
    <frame tileid="485" duration="150"/>
    <frame tileid="51" duration="150"/>
    <frame tileid="198" duration="150"/>
    <frame tileid="345" duration="150"/>
    <frame tileid="492" duration="150"/>
    <frame tileid="58" duration="150"/>
    <frame tileid="205" duration="150"/>
    <frame tileid="352" duration="150"/>
    <frame tileid="499" duration="150"/>
   </animation>
  </tile>
  <tile id="45">
   <animation>
    <frame tileid="45" duration="150"/>
    <frame tileid="192" duration="150"/>
    <frame tileid="339" duration="150"/>
    <frame tileid="486" duration="150"/>
    <frame tileid="52" duration="150"/>
    <frame tileid="199" duration="150"/>
    <frame tileid="346" duration="150"/>
    <frame tileid="493" duration="150"/>
    <frame tileid="59" duration="150"/>
    <frame tileid="206" duration="150"/>
    <frame tileid="353" duration="150"/>
    <frame tileid="500" duration="150"/>
   </animation>
  </tile>
  <tile id="46">
   <animation>
    <frame tileid="46" duration="150"/>
    <frame tileid="193" duration="150"/>
    <frame tileid="340" duration="150"/>
    <frame tileid="487" duration="150"/>
    <frame tileid="53" duration="150"/>
    <frame tileid="200" duration="150"/>
    <frame tileid="347" duration="150"/>
    <frame tileid="494" duration="150"/>
    <frame tileid="60" duration="150"/>
    <frame tileid="207" duration="150"/>
    <frame tileid="354" duration="150"/>
    <frame tileid="501" duration="150"/>
   </animation>
  </tile>
  <tile id="47">
   <animation>
    <frame tileid="47" duration="150"/>
    <frame tileid="194" duration="150"/>
    <frame tileid="341" duration="150"/>
    <frame tileid="488" duration="150"/>
    <frame tileid="54" duration="150"/>
    <frame tileid="201" duration="150"/>
    <frame tileid="348" duration="150"/>
    <frame tileid="495" duration="150"/>
    <frame tileid="61" duration="150"/>
    <frame tileid="208" duration="150"/>
    <frame tileid="355" duration="150"/>
    <frame tileid="502" duration="150"/>
   </animation>
  </tile>
  <tile id="48">
   <animation>
    <frame tileid="48" duration="150"/>
    <frame tileid="195" duration="150"/>
    <frame tileid="342" duration="150"/>
    <frame tileid="489" duration="150"/>
    <frame tileid="55" duration="150"/>
    <frame tileid="202" duration="150"/>
    <frame tileid="349" duration="150"/>
    <frame tileid="496" duration="150"/>
    <frame tileid="62" duration="150"/>
    <frame tileid="209" duration="150"/>
    <frame tileid="356" duration="150"/>
    <frame tileid="503" duration="150"/>
   </animation>
  </tile>
  <tile id="85">
   <animation>
    <frame tileid="85" duration="150"/>
    <frame tileid="232" duration="150"/>
    <frame tileid="379" duration="150"/>
    <frame tileid="526" duration="150"/>
    <frame tileid="92" duration="150"/>
    <frame tileid="239" duration="150"/>
    <frame tileid="386" duration="150"/>
    <frame tileid="533" duration="150"/>
    <frame tileid="99" duration="150"/>
    <frame tileid="246" duration="150"/>
    <frame tileid="393" duration="150"/>
    <frame tileid="540" duration="150"/>
   </animation>
  </tile>
  <tile id="86">
   <animation>
    <frame tileid="86" duration="150"/>
    <frame tileid="233" duration="150"/>
    <frame tileid="380" duration="150"/>
    <frame tileid="527" duration="150"/>
    <frame tileid="93" duration="150"/>
    <frame tileid="240" duration="150"/>
    <frame tileid="387" duration="150"/>
    <frame tileid="534" duration="150"/>
    <frame tileid="100" duration="150"/>
    <frame tileid="247" duration="150"/>
    <frame tileid="394" duration="150"/>
    <frame tileid="541" duration="150"/>
   </animation>
  </tile>
  <tile id="88">
   <animation>
    <frame tileid="88" duration="150"/>
    <frame tileid="235" duration="150"/>
    <frame tileid="382" duration="150"/>
    <frame tileid="529" duration="150"/>
    <frame tileid="95" duration="150"/>
    <frame tileid="242" duration="150"/>
    <frame tileid="389" duration="150"/>
    <frame tileid="536" duration="150"/>
    <frame tileid="102" duration="150"/>
    <frame tileid="249" duration="150"/>
    <frame tileid="396" duration="150"/>
    <frame tileid="543" duration="150"/>
   </animation>
  </tile>
  <tile id="89">
   <animation>
    <frame tileid="89" duration="150"/>
    <frame tileid="236" duration="150"/>
    <frame tileid="383" duration="150"/>
    <frame tileid="530" duration="150"/>
    <frame tileid="96" duration="150"/>
    <frame tileid="243" duration="150"/>
    <frame tileid="390" duration="150"/>
    <frame tileid="537" duration="150"/>
    <frame tileid="103" duration="150"/>
    <frame tileid="250" duration="150"/>
    <frame tileid="397" duration="150"/>
    <frame tileid="544" duration="150"/>
   </animation>
  </tile>
  <tile id="105">
   <animation>
    <frame tileid="105" duration="150"/>
    <frame tileid="252" duration="150"/>
    <frame tileid="399" duration="150"/>
    <frame tileid="546" duration="150"/>
    <frame tileid="112" duration="150"/>
    <frame tileid="259" duration="150"/>
    <frame tileid="406" duration="150"/>
    <frame tileid="553" duration="150"/>
    <frame tileid="119" duration="150"/>
    <frame tileid="266" duration="150"/>
    <frame tileid="413" duration="150"/>
    <frame tileid="560" duration="150"/>
   </animation>
  </tile>
  <tile id="106">
   <animation>
    <frame tileid="106" duration="150"/>
    <frame tileid="253" duration="150"/>
    <frame tileid="400" duration="150"/>
    <frame tileid="547" duration="150"/>
    <frame tileid="113" duration="150"/>
    <frame tileid="260" duration="150"/>
    <frame tileid="407" duration="150"/>
    <frame tileid="554" duration="150"/>
    <frame tileid="120" duration="150"/>
    <frame tileid="267" duration="150"/>
    <frame tileid="414" duration="150"/>
    <frame tileid="561" duration="150"/>
   </animation>
  </tile>
  <tile id="107">
   <animation>
    <frame tileid="107" duration="150"/>
    <frame tileid="254" duration="150"/>
    <frame tileid="401" duration="150"/>
    <frame tileid="548" duration="150"/>
    <frame tileid="114" duration="150"/>
    <frame tileid="261" duration="150"/>
    <frame tileid="408" duration="150"/>
    <frame tileid="555" duration="150"/>
    <frame tileid="121" duration="150"/>
    <frame tileid="268" duration="150"/>
    <frame tileid="415" duration="150"/>
    <frame tileid="562" duration="150"/>
   </animation>
  </tile>
  <tile id="109">
   <animation>
    <frame tileid="109" duration="150"/>
    <frame tileid="256" duration="150"/>
    <frame tileid="403" duration="150"/>
    <frame tileid="550" duration="150"/>
    <frame tileid="116" duration="150"/>
    <frame tileid="263" duration="150"/>
    <frame tileid="410" duration="150"/>
    <frame tileid="557" duration="150"/>
    <frame tileid="123" duration="150"/>
    <frame tileid="270" duration="150"/>
    <frame tileid="417" duration="150"/>
    <frame tileid="564" duration="150"/>
   </animation>
  </tile>
  <tile id="110">
   <animation>
    <frame tileid="110" duration="150"/>
    <frame tileid="257" duration="150"/>
    <frame tileid="404" duration="150"/>
    <frame tileid="551" duration="150"/>
    <frame tileid="117" duration="150"/>
    <frame tileid="264" duration="150"/>
    <frame tileid="411" duration="150"/>
    <frame tileid="558" duration="150"/>
    <frame tileid="124" duration="150"/>
    <frame tileid="271" duration="150"/>
    <frame tileid="418" duration="150"/>
    <frame tileid="565" duration="150"/>
   </animation>
  </tile>
  <tile id="126">
   <animation>
    <frame tileid="126" duration="150"/>
    <frame tileid="273" duration="150"/>
    <frame tileid="420" duration="150"/>
    <frame tileid="567" duration="150"/>
    <frame tileid="133" duration="150"/>
    <frame tileid="280" duration="150"/>
    <frame tileid="427" duration="150"/>
    <frame tileid="574" duration="150"/>
    <frame tileid="140" duration="150"/>
    <frame tileid="287" duration="150"/>
    <frame tileid="434" duration="150"/>
    <frame tileid="581" duration="150"/>
   </animation>
  </tile>
  <tile id="127">
   <animation>
    <frame tileid="127" duration="150"/>
    <frame tileid="274" duration="150"/>
    <frame tileid="421" duration="150"/>
    <frame tileid="568" duration="150"/>
    <frame tileid="134" duration="150"/>
    <frame tileid="281" duration="150"/>
    <frame tileid="428" duration="150"/>
    <frame tileid="575" duration="150"/>
    <frame tileid="141" duration="150"/>
    <frame tileid="288" duration="150"/>
    <frame tileid="435" duration="150"/>
    <frame tileid="582" duration="150"/>
   </animation>
  </tile>
 </tileset>
 <tileset firstgid="841" name="Tents_n_objects" tilewidth="16" tileheight="16" tilecount="1274" columns="26">
  <image source="Tents_n_objects.png" width="416" height="784"/>
 </tileset>
 <tileset firstgid="2115" name="Trees_rocks" tilewidth="16" tileheight="16" tilecount="437" columns="23">
  <image source="Trees_rocks.png" width="368" height="304"/>
 </tileset>
 <tileset firstgid="2552" name="Spots" tilewidth="16" tileheight="16" tilecount="168" columns="21">
  <image source="Spots.png" width="336" height="128"/>
 </tileset>
 <tileset firstgid="2720" name="Lute_player" tilewidth="16" tileheight="16" tilecount="144" columns="8">
  <image source="Lute_player.png" width="128" height="288"/>
  <tile id="0">
   <animation>
    <frame tileid="0" duration="150"/>
    <frame tileid="24" duration="150"/>
    <frame tileid="48" duration="150"/>
    <frame tileid="72" duration="150"/>
    <frame tileid="96" duration="150"/>
    <frame tileid="120" duration="150"/>
   </animation>
  </tile>
  <tile id="1">
   <animation>
    <frame tileid="1" duration="150"/>
    <frame tileid="25" duration="150"/>
    <frame tileid="49" duration="150"/>
    <frame tileid="73" duration="150"/>
    <frame tileid="97" duration="150"/>
    <frame tileid="121" duration="150"/>
   </animation>
  </tile>
  <tile id="2">
   <animation>
    <frame tileid="2" duration="150"/>
    <frame tileid="26" duration="150"/>
    <frame tileid="50" duration="150"/>
    <frame tileid="74" duration="150"/>
    <frame tileid="98" duration="150"/>
    <frame tileid="122" duration="150"/>
   </animation>
  </tile>
  <tile id="4">
   <animation>
    <frame tileid="4" duration="150"/>
    <frame tileid="28" duration="150"/>
    <frame tileid="52" duration="150"/>
    <frame tileid="76" duration="150"/>
    <frame tileid="100" duration="150"/>
    <frame tileid="124" duration="150"/>
   </animation>
  </tile>
  <tile id="6">
   <animation>
    <frame tileid="6" duration="150"/>
    <frame tileid="30" duration="150"/>
    <frame tileid="54" duration="150"/>
    <frame tileid="78" duration="150"/>
    <frame tileid="102" duration="150"/>
    <frame tileid="126" duration="150"/>
   </animation>
  </tile>
  <tile id="7">
   <animation>
    <frame tileid="7" duration="150"/>
    <frame tileid="31" duration="150"/>
    <frame tileid="55" duration="150"/>
    <frame tileid="79" duration="150"/>
    <frame tileid="103" duration="150"/>
    <frame tileid="127" duration="150"/>
   </animation>
  </tile>
  <tile id="8">
   <animation>
    <frame tileid="8" duration="150"/>
    <frame tileid="32" duration="150"/>
    <frame tileid="56" duration="150"/>
    <frame tileid="80" duration="150"/>
    <frame tileid="104" duration="150"/>
    <frame tileid="128" duration="150"/>
   </animation>
  </tile>
  <tile id="9">
   <animation>
    <frame tileid="9" duration="150"/>
    <frame tileid="33" duration="150"/>
    <frame tileid="57" duration="150"/>
    <frame tileid="81" duration="150"/>
    <frame tileid="105" duration="150"/>
    <frame tileid="129" duration="150"/>
   </animation>
  </tile>
  <tile id="10">
   <animation>
    <frame tileid="10" duration="150"/>
    <frame tileid="34" duration="150"/>
    <frame tileid="58" duration="150"/>
    <frame tileid="82" duration="150"/>
    <frame tileid="106" duration="150"/>
    <frame tileid="130" duration="150"/>
   </animation>
  </tile>
  <tile id="11">
   <animation>
    <frame tileid="11" duration="150"/>
    <frame tileid="35" duration="150"/>
    <frame tileid="59" duration="150"/>
    <frame tileid="83" duration="150"/>
    <frame tileid="107" duration="150"/>
    <frame tileid="131" duration="150"/>
   </animation>
  </tile>
  <tile id="12">
   <animation>
    <frame tileid="12" duration="150"/>
    <frame tileid="36" duration="150"/>
    <frame tileid="60" duration="150"/>
    <frame tileid="84" duration="150"/>
    <frame tileid="108" duration="150"/>
    <frame tileid="132" duration="150"/>
   </animation>
  </tile>
  <tile id="13">
   <animation>
    <frame tileid="13" duration="150"/>
    <frame tileid="37" duration="150"/>
    <frame tileid="61" duration="150"/>
    <frame tileid="85" duration="150"/>
    <frame tileid="109" duration="150"/>
    <frame tileid="133" duration="150"/>
   </animation>
  </tile>
  <tile id="14">
   <animation>
    <frame tileid="14" duration="150"/>
    <frame tileid="38" duration="150"/>
    <frame tileid="62" duration="150"/>
    <frame tileid="86" duration="150"/>
    <frame tileid="110" duration="150"/>
    <frame tileid="134" duration="150"/>
   </animation>
  </tile>
  <tile id="15">
   <animation>
    <frame tileid="15" duration="150"/>
    <frame tileid="39" duration="150"/>
    <frame tileid="63" duration="150"/>
    <frame tileid="87" duration="150"/>
    <frame tileid="111" duration="150"/>
    <frame tileid="135" duration="150"/>
   </animation>
  </tile>
  <tile id="20">
   <animation>
    <frame tileid="20" duration="150"/>
    <frame tileid="44" duration="150"/>
    <frame tileid="68" duration="150"/>
    <frame tileid="92" duration="150"/>
    <frame tileid="116" duration="150"/>
    <frame tileid="140" duration="150"/>
   </animation>
  </tile>
  <tile id="21">
   <animation>
    <frame tileid="21" duration="150"/>
    <frame tileid="45" duration="150"/>
    <frame tileid="69" duration="150"/>
    <frame tileid="93" duration="150"/>
    <frame tileid="117" duration="150"/>
    <frame tileid="141" duration="150"/>
   </animation>
  </tile>
 </tileset>
 <tileset firstgid="2864" name="Drinker1" tilewidth="16" tileheight="16" tilecount="144" columns="6">
  <image source="Drinker1.png" width="96" height="384"/>
  <tile id="0">
   <animation>
    <frame tileid="0" duration="150"/>
    <frame tileid="0" duration="150"/>
    <frame tileid="0" duration="150"/>
    <frame tileid="18" duration="150"/>
    <frame tileid="36" duration="150"/>
    <frame tileid="54" duration="150"/>
    <frame tileid="72" duration="150"/>
    <frame tileid="72" duration="150"/>
    <frame tileid="72" duration="150"/>
    <frame tileid="90" duration="150"/>
    <frame tileid="108" duration="150"/>
    <frame tileid="126" duration="150"/>
   </animation>
  </tile>
  <tile id="1">
   <animation>
    <frame tileid="1" duration="150"/>
    <frame tileid="1" duration="150"/>
    <frame tileid="1" duration="150"/>
    <frame tileid="19" duration="150"/>
    <frame tileid="37" duration="150"/>
    <frame tileid="55" duration="150"/>
    <frame tileid="73" duration="150"/>
    <frame tileid="73" duration="150"/>
    <frame tileid="73" duration="150"/>
    <frame tileid="91" duration="150"/>
    <frame tileid="109" duration="150"/>
    <frame tileid="127" duration="150"/>
   </animation>
  </tile>
  <tile id="3">
   <animation>
    <frame tileid="3" duration="150"/>
    <frame tileid="3" duration="150"/>
    <frame tileid="3" duration="150"/>
    <frame tileid="21" duration="150"/>
    <frame tileid="39" duration="150"/>
    <frame tileid="57" duration="150"/>
    <frame tileid="75" duration="150"/>
    <frame tileid="75" duration="150"/>
    <frame tileid="75" duration="150"/>
    <frame tileid="93" duration="150"/>
    <frame tileid="111" duration="150"/>
    <frame tileid="129" duration="150"/>
   </animation>
  </tile>
  <tile id="4">
   <animation>
    <frame tileid="4" duration="150"/>
    <frame tileid="4" duration="150"/>
    <frame tileid="4" duration="150"/>
    <frame tileid="22" duration="150"/>
    <frame tileid="40" duration="150"/>
    <frame tileid="58" duration="150"/>
    <frame tileid="76" duration="150"/>
    <frame tileid="76" duration="150"/>
    <frame tileid="76" duration="150"/>
    <frame tileid="94" duration="150"/>
    <frame tileid="112" duration="150"/>
    <frame tileid="130" duration="150"/>
   </animation>
  </tile>
  <tile id="5">
   <animation>
    <frame tileid="5" duration="150"/>
    <frame tileid="5" duration="150"/>
    <frame tileid="5" duration="150"/>
    <frame tileid="23" duration="150"/>
    <frame tileid="41" duration="150"/>
    <frame tileid="59" duration="150"/>
    <frame tileid="77" duration="150"/>
    <frame tileid="77" duration="150"/>
    <frame tileid="77" duration="150"/>
    <frame tileid="95" duration="150"/>
    <frame tileid="113" duration="150"/>
    <frame tileid="131" duration="150"/>
   </animation>
  </tile>
  <tile id="6">
   <animation>
    <frame tileid="6" duration="150"/>
    <frame tileid="6" duration="150"/>
    <frame tileid="6" duration="150"/>
    <frame tileid="24" duration="150"/>
    <frame tileid="42" duration="150"/>
    <frame tileid="60" duration="150"/>
    <frame tileid="78" duration="150"/>
    <frame tileid="78" duration="150"/>
    <frame tileid="78" duration="150"/>
    <frame tileid="96" duration="150"/>
    <frame tileid="114" duration="150"/>
    <frame tileid="132" duration="150"/>
   </animation>
  </tile>
  <tile id="7">
   <animation>
    <frame tileid="7" duration="150"/>
    <frame tileid="7" duration="150"/>
    <frame tileid="7" duration="150"/>
    <frame tileid="25" duration="150"/>
    <frame tileid="43" duration="150"/>
    <frame tileid="61" duration="150"/>
    <frame tileid="79" duration="150"/>
    <frame tileid="79" duration="150"/>
    <frame tileid="79" duration="150"/>
    <frame tileid="97" duration="150"/>
    <frame tileid="115" duration="150"/>
    <frame tileid="133" duration="150"/>
   </animation>
  </tile>
  <tile id="8">
   <animation>
    <frame tileid="8" duration="150"/>
    <frame tileid="8" duration="150"/>
    <frame tileid="8" duration="150"/>
    <frame tileid="26" duration="150"/>
    <frame tileid="44" duration="150"/>
    <frame tileid="62" duration="150"/>
    <frame tileid="80" duration="150"/>
    <frame tileid="80" duration="150"/>
    <frame tileid="80" duration="150"/>
    <frame tileid="98" duration="150"/>
    <frame tileid="116" duration="150"/>
    <frame tileid="134" duration="150"/>
   </animation>
  </tile>
  <tile id="9">
   <animation>
    <frame tileid="9" duration="150"/>
    <frame tileid="9" duration="150"/>
    <frame tileid="9" duration="150"/>
    <frame tileid="27" duration="150"/>
    <frame tileid="45" duration="150"/>
    <frame tileid="63" duration="150"/>
    <frame tileid="81" duration="150"/>
    <frame tileid="81" duration="150"/>
    <frame tileid="81" duration="150"/>
    <frame tileid="99" duration="150"/>
    <frame tileid="117" duration="150"/>
    <frame tileid="135" duration="150"/>
   </animation>
  </tile>
  <tile id="10">
   <animation>
    <frame tileid="10" duration="150"/>
    <frame tileid="10" duration="150"/>
    <frame tileid="10" duration="150"/>
    <frame tileid="28" duration="150"/>
    <frame tileid="46" duration="150"/>
    <frame tileid="64" duration="150"/>
    <frame tileid="82" duration="150"/>
    <frame tileid="82" duration="150"/>
    <frame tileid="82" duration="150"/>
    <frame tileid="100" duration="150"/>
    <frame tileid="118" duration="150"/>
    <frame tileid="136" duration="150"/>
   </animation>
  </tile>
  <tile id="11">
   <animation>
    <frame tileid="11" duration="150"/>
    <frame tileid="11" duration="150"/>
    <frame tileid="11" duration="150"/>
    <frame tileid="29" duration="150"/>
    <frame tileid="47" duration="150"/>
    <frame tileid="65" duration="150"/>
    <frame tileid="83" duration="150"/>
    <frame tileid="83" duration="150"/>
    <frame tileid="83" duration="150"/>
    <frame tileid="101" duration="150"/>
    <frame tileid="119" duration="150"/>
    <frame tileid="137" duration="150"/>
   </animation>
  </tile>
  <tile id="12">
   <animation>
    <frame tileid="12" duration="150"/>
    <frame tileid="12" duration="150"/>
    <frame tileid="12" duration="150"/>
    <frame tileid="30" duration="150"/>
    <frame tileid="48" duration="150"/>
    <frame tileid="66" duration="150"/>
    <frame tileid="84" duration="150"/>
    <frame tileid="84" duration="150"/>
    <frame tileid="84" duration="150"/>
    <frame tileid="102" duration="150"/>
    <frame tileid="120" duration="150"/>
    <frame tileid="138" duration="150"/>
   </animation>
  </tile>
 </tileset>
 <tileset firstgid="3008" name="Happy_character1" tilewidth="16" tileheight="16" tilecount="96" columns="24">
  <image source="Happy_character1.png" width="384" height="64"/>
  <tile id="0">
   <animation>
    <frame tileid="0" duration="150"/>
    <frame tileid="4" duration="150"/>
    <frame tileid="8" duration="150"/>
    <frame tileid="12" duration="150"/>
    <frame tileid="16" duration="150"/>
    <frame tileid="20" duration="150"/>
   </animation>
  </tile>
  <tile id="1">
   <animation>
    <frame tileid="1" duration="150"/>
    <frame tileid="5" duration="150"/>
    <frame tileid="9" duration="150"/>
    <frame tileid="13" duration="150"/>
    <frame tileid="17" duration="150"/>
    <frame tileid="21" duration="150"/>
   </animation>
  </tile>
  <tile id="2">
   <animation>
    <frame tileid="2" duration="150"/>
    <frame tileid="6" duration="150"/>
    <frame tileid="10" duration="150"/>
    <frame tileid="14" duration="150"/>
    <frame tileid="18" duration="150"/>
    <frame tileid="22" duration="150"/>
   </animation>
  </tile>
  <tile id="3">
   <animation>
    <frame tileid="3" duration="150"/>
    <frame tileid="7" duration="150"/>
    <frame tileid="11" duration="150"/>
    <frame tileid="15" duration="150"/>
    <frame tileid="19" duration="150"/>
    <frame tileid="23" duration="150"/>
   </animation>
  </tile>
  <tile id="24">
   <animation>
    <frame tileid="24" duration="150"/>
    <frame tileid="28" duration="150"/>
    <frame tileid="32" duration="150"/>
    <frame tileid="36" duration="150"/>
    <frame tileid="40" duration="150"/>
    <frame tileid="44" duration="150"/>
   </animation>
  </tile>
  <tile id="25">
   <animation>
    <frame tileid="25" duration="150"/>
    <frame tileid="29" duration="150"/>
    <frame tileid="33" duration="150"/>
    <frame tileid="37" duration="150"/>
    <frame tileid="41" duration="150"/>
    <frame tileid="45" duration="150"/>
   </animation>
  </tile>
  <tile id="26">
   <animation>
    <frame tileid="26" duration="150"/>
    <frame tileid="30" duration="150"/>
    <frame tileid="34" duration="150"/>
    <frame tileid="38" duration="150"/>
    <frame tileid="42" duration="150"/>
    <frame tileid="46" duration="150"/>
   </animation>
  </tile>
  <tile id="27">
   <animation>
    <frame tileid="27" duration="150"/>
    <frame tileid="31" duration="150"/>
    <frame tileid="35" duration="150"/>
    <frame tileid="39" duration="150"/>
    <frame tileid="43" duration="150"/>
    <frame tileid="47" duration="150"/>
   </animation>
  </tile>
  <tile id="48">
   <animation>
    <frame tileid="48" duration="150"/>
    <frame tileid="52" duration="150"/>
    <frame tileid="56" duration="150"/>
    <frame tileid="60" duration="150"/>
    <frame tileid="64" duration="150"/>
    <frame tileid="68" duration="150"/>
   </animation>
  </tile>
  <tile id="49">
   <animation>
    <frame tileid="49" duration="150"/>
    <frame tileid="53" duration="150"/>
    <frame tileid="57" duration="150"/>
    <frame tileid="61" duration="150"/>
    <frame tileid="65" duration="150"/>
    <frame tileid="69" duration="150"/>
   </animation>
  </tile>
  <tile id="50">
   <animation>
    <frame tileid="50" duration="150"/>
    <frame tileid="54" duration="150"/>
    <frame tileid="58" duration="150"/>
    <frame tileid="62" duration="150"/>
    <frame tileid="66" duration="150"/>
    <frame tileid="70" duration="150"/>
   </animation>
  </tile>
  <tile id="51">
   <animation>
    <frame tileid="51" duration="150"/>
    <frame tileid="55" duration="150"/>
    <frame tileid="59" duration="150"/>
    <frame tileid="63" duration="150"/>
    <frame tileid="67" duration="150"/>
    <frame tileid="71" duration="150"/>
   </animation>
  </tile>
  <tile id="72">
   <animation>
    <frame tileid="72" duration="150"/>
    <frame tileid="76" duration="150"/>
    <frame tileid="80" duration="150"/>
    <frame tileid="84" duration="150"/>
    <frame tileid="88" duration="150"/>
    <frame tileid="92" duration="150"/>
   </animation>
  </tile>
  <tile id="73">
   <animation>
    <frame tileid="73" duration="150"/>
    <frame tileid="77" duration="150"/>
    <frame tileid="81" duration="150"/>
    <frame tileid="85" duration="150"/>
    <frame tileid="89" duration="150"/>
    <frame tileid="93" duration="150"/>
   </animation>
  </tile>
 </tileset>
 <tileset firstgid="3104" name="Orc" tilewidth="16" tileheight="16" tilecount="112" columns="14">
  <image source="Orc.png" width="224" height="128"/>
  <tile id="0">
   <animation>
    <frame tileid="0" duration="150"/>
    <frame tileid="0" duration="150"/>
    <frame tileid="0" duration="150"/>
    <frame tileid="0" duration="150"/>
    <frame tileid="2" duration="150"/>
    <frame tileid="4" duration="150"/>
    <frame tileid="6" duration="150"/>
    <frame tileid="6" duration="150"/>
    <frame tileid="6" duration="150"/>
    <frame tileid="8" duration="150"/>
    <frame tileid="10" duration="150"/>
    <frame tileid="12" duration="150"/>
   </animation>
  </tile>
  <tile id="14">
   <animation>
    <frame tileid="14" duration="150"/>
    <frame tileid="14" duration="150"/>
    <frame tileid="14" duration="150"/>
    <frame tileid="14" duration="150"/>
    <frame tileid="16" duration="150"/>
    <frame tileid="18" duration="150"/>
    <frame tileid="20" duration="150"/>
    <frame tileid="20" duration="150"/>
    <frame tileid="20" duration="150"/>
    <frame tileid="22" duration="150"/>
    <frame tileid="24" duration="150"/>
    <frame tileid="26" duration="150"/>
   </animation>
  </tile>
  <tile id="15">
   <animation>
    <frame tileid="15" duration="150"/>
    <frame tileid="15" duration="150"/>
    <frame tileid="15" duration="150"/>
    <frame tileid="15" duration="150"/>
    <frame tileid="17" duration="150"/>
    <frame tileid="19" duration="150"/>
    <frame tileid="21" duration="150"/>
    <frame tileid="21" duration="150"/>
    <frame tileid="21" duration="150"/>
    <frame tileid="23" duration="150"/>
    <frame tileid="25" duration="150"/>
    <frame tileid="27" duration="150"/>
   </animation>
  </tile>
  <tile id="28">
   <animation>
    <frame tileid="28" duration="150"/>
    <frame tileid="28" duration="150"/>
    <frame tileid="28" duration="150"/>
    <frame tileid="28" duration="150"/>
    <frame tileid="30" duration="150"/>
    <frame tileid="32" duration="150"/>
    <frame tileid="34" duration="150"/>
    <frame tileid="34" duration="150"/>
    <frame tileid="34" duration="150"/>
    <frame tileid="36" duration="150"/>
    <frame tileid="38" duration="150"/>
    <frame tileid="40" duration="150"/>
   </animation>
  </tile>
  <tile id="29">
   <animation>
    <frame tileid="29" duration="150"/>
    <frame tileid="29" duration="150"/>
    <frame tileid="29" duration="150"/>
    <frame tileid="29" duration="150"/>
    <frame tileid="31" duration="150"/>
    <frame tileid="33" duration="150"/>
    <frame tileid="35" duration="150"/>
    <frame tileid="35" duration="150"/>
    <frame tileid="35" duration="150"/>
    <frame tileid="37" duration="150"/>
    <frame tileid="39" duration="150"/>
    <frame tileid="41" duration="150"/>
   </animation>
  </tile>
  <tile id="42">
   <animation>
    <frame tileid="42" duration="150"/>
    <frame tileid="42" duration="150"/>
    <frame tileid="42" duration="150"/>
    <frame tileid="42" duration="150"/>
    <frame tileid="44" duration="150"/>
    <frame tileid="46" duration="150"/>
    <frame tileid="48" duration="150"/>
    <frame tileid="48" duration="150"/>
    <frame tileid="48" duration="150"/>
    <frame tileid="50" duration="150"/>
    <frame tileid="52" duration="150"/>
    <frame tileid="54" duration="150"/>
   </animation>
  </tile>
  <tile id="43">
   <animation>
    <frame tileid="43" duration="150"/>
    <frame tileid="43" duration="150"/>
    <frame tileid="43" duration="150"/>
    <frame tileid="43" duration="150"/>
    <frame tileid="45" duration="150"/>
    <frame tileid="47" duration="150"/>
    <frame tileid="49" duration="150"/>
    <frame tileid="49" duration="150"/>
    <frame tileid="49" duration="150"/>
    <frame tileid="51" duration="150"/>
    <frame tileid="53" duration="150"/>
    <frame tileid="55" duration="150"/>
   </animation>
  </tile>
  <tile id="56">
   <animation>
    <frame tileid="56" duration="150"/>
    <frame tileid="56" duration="150"/>
    <frame tileid="56" duration="150"/>
    <frame tileid="56" duration="150"/>
    <frame tileid="58" duration="150"/>
    <frame tileid="60" duration="150"/>
    <frame tileid="62" duration="150"/>
    <frame tileid="62" duration="150"/>
    <frame tileid="62" duration="150"/>
    <frame tileid="64" duration="150"/>
    <frame tileid="66" duration="150"/>
    <frame tileid="68" duration="150"/>
   </animation>
  </tile>
  <tile id="57">
   <animation>
    <frame tileid="57" duration="150"/>
    <frame tileid="57" duration="150"/>
    <frame tileid="57" duration="150"/>
    <frame tileid="57" duration="150"/>
    <frame tileid="59" duration="150"/>
    <frame tileid="61" duration="150"/>
    <frame tileid="63" duration="150"/>
    <frame tileid="63" duration="150"/>
    <frame tileid="63" duration="150"/>
    <frame tileid="65" duration="150"/>
    <frame tileid="67" duration="150"/>
    <frame tileid="69" duration="150"/>
   </animation>
  </tile>
  <tile id="84">
   <animation>
    <frame tileid="84" duration="150"/>
    <frame tileid="84" duration="150"/>
    <frame tileid="84" duration="150"/>
    <frame tileid="84" duration="150"/>
    <frame tileid="86" duration="150"/>
    <frame tileid="88" duration="150"/>
    <frame tileid="90" duration="150"/>
    <frame tileid="90" duration="150"/>
    <frame tileid="90" duration="150"/>
    <frame tileid="92" duration="150"/>
    <frame tileid="94" duration="150"/>
    <frame tileid="96" duration="150"/>
   </animation>
  </tile>
  <tile id="85">
   <animation>
    <frame tileid="85" duration="150"/>
    <frame tileid="85" duration="150"/>
    <frame tileid="85" duration="150"/>
    <frame tileid="85" duration="150"/>
    <frame tileid="87" duration="150"/>
    <frame tileid="89" duration="150"/>
    <frame tileid="91" duration="150"/>
    <frame tileid="91" duration="150"/>
    <frame tileid="91" duration="150"/>
    <frame tileid="93" duration="150"/>
    <frame tileid="95" duration="150"/>
    <frame tileid="97" duration="150"/>
   </animation>
  </tile>
  <tile id="98">
   <animation>
    <frame tileid="98" duration="150"/>
    <frame tileid="98" duration="150"/>
    <frame tileid="98" duration="150"/>
    <frame tileid="98" duration="150"/>
    <frame tileid="100" duration="150"/>
    <frame tileid="102" duration="150"/>
    <frame tileid="104" duration="150"/>
    <frame tileid="104" duration="150"/>
    <frame tileid="104" duration="150"/>
    <frame tileid="106" duration="150"/>
    <frame tileid="108" duration="150"/>
    <frame tileid="110" duration="150"/>
   </animation>
  </tile>
  <tile id="99">
   <animation>
    <frame tileid="99" duration="150"/>
    <frame tileid="99" duration="150"/>
    <frame tileid="99" duration="150"/>
    <frame tileid="99" duration="150"/>
    <frame tileid="101" duration="150"/>
    <frame tileid="103" duration="150"/>
    <frame tileid="105" duration="150"/>
    <frame tileid="105" duration="150"/>
    <frame tileid="105" duration="150"/>
    <frame tileid="107" duration="150"/>
    <frame tileid="109" duration="150"/>
    <frame tileid="111" duration="150"/>
   </animation>
  </tile>
 </tileset>
 <tileset firstgid="3216" name="Resting_character" tilewidth="16" tileheight="16" tilecount="120" columns="5">
  <image source="Resting_character.png" width="80" height="384"/>
  <tile id="1">
   <animation>
    <frame tileid="1" duration="150"/>
    <frame tileid="11" duration="150"/>
    <frame tileid="21" duration="150"/>
    <frame tileid="31" duration="150"/>
    <frame tileid="41" duration="150"/>
    <frame tileid="51" duration="150"/>
    <frame tileid="61" duration="150"/>
    <frame tileid="71" duration="150"/>
    <frame tileid="81" duration="150"/>
    <frame tileid="91" duration="150"/>
    <frame tileid="101" duration="150"/>
    <frame tileid="111" duration="150"/>
   </animation>
  </tile>
  <tile id="2">
   <animation>
    <frame tileid="2" duration="150"/>
    <frame tileid="12" duration="150"/>
    <frame tileid="22" duration="150"/>
    <frame tileid="32" duration="150"/>
    <frame tileid="42" duration="150"/>
    <frame tileid="52" duration="150"/>
    <frame tileid="62" duration="150"/>
    <frame tileid="72" duration="150"/>
    <frame tileid="82" duration="150"/>
    <frame tileid="92" duration="150"/>
    <frame tileid="102" duration="150"/>
    <frame tileid="112" duration="150"/>
   </animation>
  </tile>
  <tile id="4">
   <animation>
    <frame tileid="4" duration="150"/>
    <frame tileid="14" duration="150"/>
    <frame tileid="24" duration="150"/>
    <frame tileid="34" duration="150"/>
    <frame tileid="44" duration="150"/>
    <frame tileid="54" duration="150"/>
    <frame tileid="64" duration="150"/>
    <frame tileid="74" duration="150"/>
    <frame tileid="84" duration="150"/>
    <frame tileid="94" duration="150"/>
    <frame tileid="104" duration="150"/>
    <frame tileid="114" duration="150"/>
   </animation>
  </tile>
  <tile id="6">
   <animation>
    <frame tileid="6" duration="150"/>
    <frame tileid="16" duration="150"/>
    <frame tileid="26" duration="150"/>
    <frame tileid="36" duration="150"/>
    <frame tileid="46" duration="150"/>
    <frame tileid="56" duration="150"/>
    <frame tileid="66" duration="150"/>
    <frame tileid="76" duration="150"/>
    <frame tileid="86" duration="150"/>
    <frame tileid="96" duration="150"/>
    <frame tileid="106" duration="150"/>
    <frame tileid="116" duration="150"/>
   </animation>
  </tile>
  <tile id="7">
   <animation>
    <frame tileid="7" duration="150"/>
    <frame tileid="17" duration="150"/>
    <frame tileid="27" duration="150"/>
    <frame tileid="37" duration="150"/>
    <frame tileid="47" duration="150"/>
    <frame tileid="57" duration="150"/>
    <frame tileid="67" duration="150"/>
    <frame tileid="77" duration="150"/>
    <frame tileid="87" duration="150"/>
    <frame tileid="97" duration="150"/>
    <frame tileid="107" duration="150"/>
    <frame tileid="117" duration="150"/>
   </animation>
  </tile>
  <tile id="8">
   <animation>
    <frame tileid="8" duration="150"/>
    <frame tileid="18" duration="150"/>
    <frame tileid="28" duration="150"/>
    <frame tileid="38" duration="150"/>
    <frame tileid="48" duration="150"/>
    <frame tileid="58" duration="150"/>
    <frame tileid="68" duration="150"/>
    <frame tileid="78" duration="150"/>
    <frame tileid="88" duration="150"/>
    <frame tileid="98" duration="150"/>
    <frame tileid="108" duration="150"/>
    <frame tileid="118" duration="150"/>
   </animation>
  </tile>
  <tile id="9">
   <animation>
    <frame tileid="9" duration="150"/>
    <frame tileid="19" duration="150"/>
    <frame tileid="29" duration="150"/>
    <frame tileid="39" duration="150"/>
    <frame tileid="49" duration="150"/>
    <frame tileid="59" duration="150"/>
    <frame tileid="69" duration="150"/>
    <frame tileid="79" duration="150"/>
    <frame tileid="89" duration="150"/>
    <frame tileid="99" duration="150"/>
    <frame tileid="109" duration="150"/>
    <frame tileid="119" duration="150"/>
   </animation>
  </tile>
 </tileset>
 <tileset firstgid="3336" name="Sleeping_character" tilewidth="16" tileheight="16" tilecount="64" columns="8">
  <image source="Sleeping_character.png" width="128" height="128"/>
  <tile id="0">
   <animation>
    <frame tileid="0" duration="150"/>
    <frame tileid="0" duration="150"/>
    <frame tileid="0" duration="150"/>
    <frame tileid="0" duration="150"/>
    <frame tileid="0" duration="150"/>
    <frame tileid="0" duration="150"/>
    <frame tileid="16" duration="150"/>
    <frame tileid="32" duration="150"/>
    <frame tileid="32" duration="150"/>
    <frame tileid="32" duration="150"/>
    <frame tileid="16" duration="150"/>
    <frame tileid="48" duration="150"/>
   </animation>
  </tile>
  <tile id="1">
   <animation>
    <frame tileid="1" duration="150"/>
    <frame tileid="1" duration="150"/>
    <frame tileid="1" duration="150"/>
    <frame tileid="1" duration="150"/>
    <frame tileid="1" duration="150"/>
    <frame tileid="1" duration="150"/>
    <frame tileid="17" duration="150"/>
    <frame tileid="33" duration="150"/>
    <frame tileid="33" duration="150"/>
    <frame tileid="33" duration="150"/>
    <frame tileid="17" duration="150"/>
    <frame tileid="49" duration="150"/>
   </animation>
  </tile>
  <tile id="9">
   <animation>
    <frame tileid="9" duration="150"/>
    <frame tileid="9" duration="150"/>
    <frame tileid="9" duration="150"/>
    <frame tileid="9" duration="150"/>
    <frame tileid="9" duration="150"/>
    <frame tileid="9" duration="150"/>
    <frame tileid="25" duration="150"/>
    <frame tileid="41" duration="150"/>
    <frame tileid="41" duration="150"/>
    <frame tileid="41" duration="150"/>
    <frame tileid="25" duration="150"/>
    <frame tileid="57" duration="150"/>
   </animation>
  </tile>
  <tile id="12">
   <animation>
    <frame tileid="12" duration="150"/>
    <frame tileid="12" duration="150"/>
    <frame tileid="12" duration="150"/>
    <frame tileid="12" duration="150"/>
    <frame tileid="12" duration="150"/>
    <frame tileid="12" duration="150"/>
    <frame tileid="28" duration="150"/>
    <frame tileid="44" duration="150"/>
    <frame tileid="44" duration="150"/>
    <frame tileid="44" duration="150"/>
    <frame tileid="28" duration="150"/>
    <frame tileid="60" duration="150"/>
   </animation>
  </tile>
  <tile id="14">
   <animation>
    <frame tileid="14" duration="150"/>
    <frame tileid="14" duration="150"/>
    <frame tileid="14" duration="150"/>
    <frame tileid="14" duration="150"/>
    <frame tileid="14" duration="150"/>
    <frame tileid="14" duration="150"/>
    <frame tileid="30" duration="150"/>
    <frame tileid="46" duration="150"/>
    <frame tileid="46" duration="150"/>
    <frame tileid="46" duration="150"/>
    <frame tileid="30" duration="150"/>
    <frame tileid="62" duration="150"/>
   </animation>
  </tile>
 </tileset>
 <tileset firstgid="3400" name="Drinker2" tilewidth="16" tileheight="16" tilecount="16" columns="2">
  <image source="Drinker2.png" width="32" height="128"/>
  <tile id="0">
   <animation>
    <frame tileid="0" duration="150"/>
    <frame tileid="0" duration="150"/>
    <frame tileid="0" duration="150"/>
    <frame tileid="4" duration="150"/>
    <frame tileid="8" duration="150"/>
    <frame tileid="12" duration="150"/>
   </animation>
  </tile>
  <tile id="1">
   <animation>
    <frame tileid="1" duration="150"/>
    <frame tileid="1" duration="150"/>
    <frame tileid="1" duration="150"/>
    <frame tileid="5" duration="150"/>
    <frame tileid="9" duration="150"/>
    <frame tileid="13" duration="150"/>
   </animation>
  </tile>
  <tile id="2">
   <animation>
    <frame tileid="2" duration="150"/>
    <frame tileid="2" duration="150"/>
    <frame tileid="2" duration="150"/>
    <frame tileid="6" duration="150"/>
    <frame tileid="10" duration="150"/>
    <frame tileid="14" duration="150"/>
   </animation>
  </tile>
  <tile id="3">
   <animation>
    <frame tileid="3" duration="150"/>
    <frame tileid="3" duration="150"/>
    <frame tileid="3" duration="150"/>
    <frame tileid="7" duration="150"/>
    <frame tileid="11" duration="150"/>
    <frame tileid="15" duration="150"/>
   </animation>
  </tile>
 </tileset>
 <tileset firstgid="3416" name="Сharacter_bag" tilewidth="16" tileheight="16" tilecount="96" columns="4">
  <image source="Сharacter_bag.png" width="64" height="384"/>
  <tile id="0">
   <animation>
    <frame tileid="0" duration="150"/>
    <frame tileid="8" duration="150"/>
    <frame tileid="16" duration="150"/>
    <frame tileid="24" duration="150"/>
    <frame tileid="32" duration="150"/>
    <frame tileid="40" duration="150"/>
    <frame tileid="48" duration="150"/>
    <frame tileid="56" duration="150"/>
    <frame tileid="64" duration="150"/>
    <frame tileid="72" duration="150"/>
    <frame tileid="80" duration="150"/>
    <frame tileid="88" duration="150"/>
   </animation>
  </tile>
  <tile id="1">
   <animation>
    <frame tileid="1" duration="150"/>
    <frame tileid="9" duration="150"/>
    <frame tileid="17" duration="150"/>
    <frame tileid="25" duration="150"/>
    <frame tileid="33" duration="150"/>
    <frame tileid="41" duration="150"/>
    <frame tileid="49" duration="150"/>
    <frame tileid="57" duration="150"/>
    <frame tileid="65" duration="150"/>
    <frame tileid="73" duration="150"/>
    <frame tileid="81" duration="150"/>
    <frame tileid="89" duration="150"/>
   </animation>
  </tile>
  <tile id="2">
   <animation>
    <frame tileid="2" duration="150"/>
    <frame tileid="10" duration="150"/>
    <frame tileid="18" duration="150"/>
    <frame tileid="26" duration="150"/>
    <frame tileid="34" duration="150"/>
    <frame tileid="42" duration="150"/>
    <frame tileid="50" duration="150"/>
    <frame tileid="58" duration="150"/>
    <frame tileid="66" duration="150"/>
    <frame tileid="74" duration="150"/>
    <frame tileid="82" duration="150"/>
    <frame tileid="90" duration="150"/>
   </animation>
  </tile>
  <tile id="3">
   <animation>
    <frame tileid="3" duration="150"/>
    <frame tileid="11" duration="150"/>
    <frame tileid="19" duration="150"/>
    <frame tileid="27" duration="150"/>
    <frame tileid="35" duration="150"/>
    <frame tileid="43" duration="150"/>
    <frame tileid="51" duration="150"/>
    <frame tileid="59" duration="150"/>
    <frame tileid="67" duration="150"/>
    <frame tileid="75" duration="150"/>
    <frame tileid="83" duration="150"/>
    <frame tileid="91" duration="150"/>
   </animation>
  </tile>
  <tile id="4">
   <animation>
    <frame tileid="4" duration="150"/>
    <frame tileid="12" duration="150"/>
    <frame tileid="20" duration="150"/>
    <frame tileid="28" duration="150"/>
    <frame tileid="36" duration="150"/>
    <frame tileid="44" duration="150"/>
    <frame tileid="52" duration="150"/>
    <frame tileid="60" duration="150"/>
    <frame tileid="68" duration="150"/>
    <frame tileid="76" duration="150"/>
    <frame tileid="84" duration="150"/>
    <frame tileid="92" duration="150"/>
   </animation>
  </tile>
  <tile id="5">
   <animation>
    <frame tileid="5" duration="150"/>
    <frame tileid="13" duration="150"/>
    <frame tileid="21" duration="150"/>
    <frame tileid="29" duration="150"/>
    <frame tileid="37" duration="150"/>
    <frame tileid="45" duration="150"/>
    <frame tileid="53" duration="150"/>
    <frame tileid="61" duration="150"/>
    <frame tileid="69" duration="150"/>
    <frame tileid="77" duration="150"/>
    <frame tileid="85" duration="150"/>
    <frame tileid="93" duration="150"/>
   </animation>
  </tile>
  <tile id="6">
   <animation>
    <frame tileid="6" duration="150"/>
    <frame tileid="14" duration="150"/>
    <frame tileid="22" duration="150"/>
    <frame tileid="30" duration="150"/>
    <frame tileid="38" duration="150"/>
    <frame tileid="46" duration="150"/>
    <frame tileid="54" duration="150"/>
    <frame tileid="62" duration="150"/>
    <frame tileid="70" duration="150"/>
    <frame tileid="78" duration="150"/>
    <frame tileid="86" duration="150"/>
    <frame tileid="94" duration="150"/>
   </animation>
  </tile>
  <tile id="7">
   <animation>
    <frame tileid="7" duration="150"/>
    <frame tileid="15" duration="150"/>
    <frame tileid="23" duration="150"/>
    <frame tileid="31" duration="150"/>
    <frame tileid="39" duration="150"/>
    <frame tileid="47" duration="150"/>
    <frame tileid="55" duration="150"/>
    <frame tileid="63" duration="150"/>
    <frame tileid="71" duration="150"/>
    <frame tileid="79" duration="150"/>
    <frame tileid="87" duration="150"/>
    <frame tileid="95" duration="150"/>
   </animation>
  </tile>
 </tileset>
 <tileset firstgid="3512" name="Sleeping_character2" tilewidth="16" tileheight="16" tilecount="20" columns="4">
  <image source="Sleeping_character2.png" width="64" height="80"/>
  <tile id="0">
   <animation>
    <frame tileid="0" duration="150"/>
    <frame tileid="0" duration="150"/>
    <frame tileid="0" duration="150"/>
    <frame tileid="0" duration="150"/>
    <frame tileid="0" duration="150"/>
    <frame tileid="0" duration="150"/>
    <frame tileid="2" duration="150"/>
    <frame tileid="2" duration="150"/>
    <frame tileid="2" duration="150"/>
    <frame tileid="2" duration="150"/>
    <frame tileid="2" duration="150"/>
    <frame tileid="2" duration="150"/>
   </animation>
  </tile>
  <tile id="1">
   <animation>
    <frame tileid="1" duration="150"/>
    <frame tileid="1" duration="150"/>
    <frame tileid="1" duration="150"/>
    <frame tileid="1" duration="150"/>
    <frame tileid="1" duration="150"/>
    <frame tileid="1" duration="150"/>
    <frame tileid="3" duration="150"/>
    <frame tileid="3" duration="150"/>
    <frame tileid="3" duration="150"/>
    <frame tileid="3" duration="150"/>
    <frame tileid="3" duration="150"/>
    <frame tileid="3" duration="150"/>
   </animation>
  </tile>
  <tile id="4">
   <animation>
    <frame tileid="4" duration="150"/>
    <frame tileid="4" duration="150"/>
    <frame tileid="4" duration="150"/>
    <frame tileid="4" duration="150"/>
    <frame tileid="4" duration="150"/>
    <frame tileid="4" duration="150"/>
    <frame tileid="6" duration="150"/>
    <frame tileid="6" duration="150"/>
    <frame tileid="6" duration="150"/>
    <frame tileid="6" duration="150"/>
    <frame tileid="6" duration="150"/>
    <frame tileid="6" duration="150"/>
   </animation>
  </tile>
  <tile id="5">
   <animation>
    <frame tileid="5" duration="150"/>
    <frame tileid="5" duration="150"/>
    <frame tileid="5" duration="150"/>
    <frame tileid="5" duration="150"/>
    <frame tileid="5" duration="150"/>
    <frame tileid="5" duration="150"/>
    <frame tileid="7" duration="150"/>
    <frame tileid="7" duration="150"/>
    <frame tileid="7" duration="150"/>
    <frame tileid="7" duration="150"/>
    <frame tileid="7" duration="150"/>
    <frame tileid="7" duration="150"/>
   </animation>
  </tile>
  <tile id="8">
   <animation>
    <frame tileid="8" duration="150"/>
    <frame tileid="8" duration="150"/>
    <frame tileid="8" duration="150"/>
    <frame tileid="8" duration="150"/>
    <frame tileid="8" duration="150"/>
    <frame tileid="8" duration="150"/>
    <frame tileid="10" duration="150"/>
    <frame tileid="10" duration="150"/>
    <frame tileid="10" duration="150"/>
    <frame tileid="10" duration="150"/>
    <frame tileid="10" duration="150"/>
    <frame tileid="10" duration="150"/>
   </animation>
  </tile>
  <tile id="9">
   <animation>
    <frame tileid="9" duration="150"/>
    <frame tileid="9" duration="150"/>
    <frame tileid="9" duration="150"/>
    <frame tileid="9" duration="150"/>
    <frame tileid="9" duration="150"/>
    <frame tileid="9" duration="150"/>
    <frame tileid="11" duration="150"/>
    <frame tileid="11" duration="150"/>
    <frame tileid="11" duration="150"/>
    <frame tileid="11" duration="150"/>
    <frame tileid="11" duration="150"/>
    <frame tileid="11" duration="150"/>
   </animation>
  </tile>
  <tile id="12">
   <animation>
    <frame tileid="12" duration="150"/>
    <frame tileid="12" duration="150"/>
    <frame tileid="12" duration="150"/>
    <frame tileid="12" duration="150"/>
    <frame tileid="12" duration="150"/>
    <frame tileid="12" duration="150"/>
    <frame tileid="14" duration="150"/>
    <frame tileid="14" duration="150"/>
    <frame tileid="14" duration="150"/>
    <frame tileid="14" duration="150"/>
    <frame tileid="14" duration="150"/>
    <frame tileid="14" duration="150"/>
   </animation>
  </tile>
  <tile id="13">
   <animation>
    <frame tileid="13" duration="150"/>
    <frame tileid="13" duration="150"/>
    <frame tileid="13" duration="150"/>
    <frame tileid="13" duration="150"/>
    <frame tileid="13" duration="150"/>
    <frame tileid="13" duration="150"/>
    <frame tileid="15" duration="150"/>
    <frame tileid="15" duration="150"/>
    <frame tileid="15" duration="150"/>
    <frame tileid="15" duration="150"/>
    <frame tileid="15" duration="150"/>
    <frame tileid="15" duration="150"/>
   </animation>
  </tile>
  <tile id="16">
   <animation>
    <frame tileid="16" duration="150"/>
    <frame tileid="16" duration="150"/>
    <frame tileid="16" duration="150"/>
    <frame tileid="16" duration="150"/>
    <frame tileid="16" duration="150"/>
    <frame tileid="16" duration="150"/>
    <frame tileid="18" duration="150"/>
    <frame tileid="18" duration="150"/>
    <frame tileid="18" duration="150"/>
    <frame tileid="18" duration="150"/>
    <frame tileid="18" duration="150"/>
    <frame tileid="18" duration="150"/>
   </animation>
  </tile>
  <tile id="17">
   <animation>
    <frame tileid="17" duration="150"/>
    <frame tileid="17" duration="150"/>
    <frame tileid="17" duration="150"/>
    <frame tileid="17" duration="150"/>
    <frame tileid="17" duration="150"/>
    <frame tileid="17" duration="150"/>
    <frame tileid="19" duration="150"/>
    <frame tileid="19" duration="150"/>
    <frame tileid="19" duration="150"/>
    <frame tileid="19" duration="150"/>
    <frame tileid="19" duration="150"/>
    <frame tileid="19" duration="150"/>
   </animation>
  </tile>
 </tileset>
 <tileset firstgid="3532" name="Char_sharpens_weapons" tilewidth="16" tileheight="16" tilecount="144" columns="18">
  <image source="Char_sharpens_weapons.png" width="288" height="128"/>
  <tile id="1">
   <animation>
    <frame tileid="1" duration="150"/>
    <frame tileid="4" duration="150"/>
    <frame tileid="7" duration="150"/>
    <frame tileid="10" duration="150"/>
    <frame tileid="13" duration="150"/>
    <frame tileid="16" duration="150"/>
    <frame tileid="73" duration="150"/>
    <frame tileid="76" duration="150"/>
    <frame tileid="79" duration="150"/>
    <frame tileid="82" duration="150"/>
    <frame tileid="85" duration="150"/>
    <frame tileid="88" duration="150"/>
   </animation>
  </tile>
  <tile id="2">
   <animation>
    <frame tileid="2" duration="150"/>
    <frame tileid="5" duration="150"/>
    <frame tileid="8" duration="150"/>
    <frame tileid="11" duration="150"/>
    <frame tileid="14" duration="150"/>
    <frame tileid="17" duration="150"/>
    <frame tileid="74" duration="150"/>
    <frame tileid="77" duration="150"/>
    <frame tileid="80" duration="150"/>
    <frame tileid="83" duration="150"/>
    <frame tileid="86" duration="150"/>
    <frame tileid="89" duration="150"/>
   </animation>
  </tile>
  <tile id="18">
   <animation>
    <frame tileid="18" duration="150"/>
    <frame tileid="21" duration="150"/>
    <frame tileid="24" duration="150"/>
    <frame tileid="27" duration="150"/>
    <frame tileid="30" duration="150"/>
    <frame tileid="33" duration="150"/>
    <frame tileid="90" duration="150"/>
    <frame tileid="93" duration="150"/>
    <frame tileid="96" duration="150"/>
    <frame tileid="99" duration="150"/>
    <frame tileid="102" duration="150"/>
    <frame tileid="105" duration="150"/>
   </animation>
  </tile>
  <tile id="19">
   <animation>
    <frame tileid="19" duration="150"/>
    <frame tileid="22" duration="150"/>
    <frame tileid="25" duration="150"/>
    <frame tileid="28" duration="150"/>
    <frame tileid="31" duration="150"/>
    <frame tileid="34" duration="150"/>
    <frame tileid="91" duration="150"/>
    <frame tileid="94" duration="150"/>
    <frame tileid="97" duration="150"/>
    <frame tileid="100" duration="150"/>
    <frame tileid="103" duration="150"/>
    <frame tileid="106" duration="150"/>
   </animation>
  </tile>
  <tile id="20">
   <animation>
    <frame tileid="20" duration="150"/>
    <frame tileid="23" duration="150"/>
    <frame tileid="26" duration="150"/>
    <frame tileid="29" duration="150"/>
    <frame tileid="32" duration="150"/>
    <frame tileid="35" duration="150"/>
    <frame tileid="92" duration="150"/>
    <frame tileid="95" duration="150"/>
    <frame tileid="98" duration="150"/>
    <frame tileid="101" duration="150"/>
    <frame tileid="104" duration="150"/>
    <frame tileid="107" duration="150"/>
   </animation>
  </tile>
  <tile id="36">
   <animation>
    <frame tileid="36" duration="150"/>
    <frame tileid="39" duration="150"/>
    <frame tileid="42" duration="150"/>
    <frame tileid="45" duration="150"/>
    <frame tileid="48" duration="150"/>
    <frame tileid="51" duration="150"/>
    <frame tileid="108" duration="150"/>
    <frame tileid="111" duration="150"/>
    <frame tileid="114" duration="150"/>
    <frame tileid="117" duration="150"/>
    <frame tileid="120" duration="150"/>
    <frame tileid="123" duration="150"/>
   </animation>
  </tile>
  <tile id="37">
   <animation>
    <frame tileid="37" duration="150"/>
    <frame tileid="40" duration="150"/>
    <frame tileid="43" duration="150"/>
    <frame tileid="46" duration="150"/>
    <frame tileid="49" duration="150"/>
    <frame tileid="52" duration="150"/>
    <frame tileid="109" duration="150"/>
    <frame tileid="112" duration="150"/>
    <frame tileid="115" duration="150"/>
    <frame tileid="118" duration="150"/>
    <frame tileid="121" duration="150"/>
    <frame tileid="124" duration="150"/>
   </animation>
  </tile>
  <tile id="38">
   <animation>
    <frame tileid="38" duration="150"/>
    <frame tileid="41" duration="150"/>
    <frame tileid="44" duration="150"/>
    <frame tileid="47" duration="150"/>
    <frame tileid="50" duration="150"/>
    <frame tileid="53" duration="150"/>
    <frame tileid="110" duration="150"/>
    <frame tileid="113" duration="150"/>
    <frame tileid="116" duration="150"/>
    <frame tileid="119" duration="150"/>
    <frame tileid="122" duration="150"/>
    <frame tileid="125" duration="150"/>
   </animation>
  </tile>
  <tile id="54">
   <animation>
    <frame tileid="54" duration="150"/>
    <frame tileid="57" duration="150"/>
    <frame tileid="60" duration="150"/>
    <frame tileid="63" duration="150"/>
    <frame tileid="66" duration="150"/>
    <frame tileid="69" duration="150"/>
    <frame tileid="126" duration="150"/>
    <frame tileid="129" duration="150"/>
    <frame tileid="132" duration="150"/>
    <frame tileid="135" duration="150"/>
    <frame tileid="138" duration="150"/>
    <frame tileid="141" duration="150"/>
   </animation>
  </tile>
  <tile id="55">
   <animation>
    <frame tileid="55" duration="150"/>
    <frame tileid="58" duration="150"/>
    <frame tileid="61" duration="150"/>
    <frame tileid="64" duration="150"/>
    <frame tileid="67" duration="150"/>
    <frame tileid="70" duration="150"/>
    <frame tileid="127" duration="150"/>
    <frame tileid="130" duration="150"/>
    <frame tileid="133" duration="150"/>
    <frame tileid="136" duration="150"/>
    <frame tileid="139" duration="150"/>
    <frame tileid="142" duration="150"/>
   </animation>
  </tile>
  <tile id="56">
   <animation>
    <frame tileid="56" duration="150"/>
    <frame tileid="59" duration="150"/>
    <frame tileid="62" duration="150"/>
    <frame tileid="65" duration="150"/>
    <frame tileid="68" duration="150"/>
    <frame tileid="71" duration="150"/>
    <frame tileid="128" duration="150"/>
    <frame tileid="131" duration="150"/>
    <frame tileid="134" duration="150"/>
    <frame tileid="137" duration="150"/>
    <frame tileid="140" duration="150"/>
    <frame tileid="143" duration="150"/>
   </animation>
  </tile>
 </tileset>
 <layer id="7" name="Ground" width="16" height="24">
  <data encoding="csv">
   <chunk x="-16" y="-16" width="16" height="16">
0,0,0,0,0,0,0,0,0,0,0,0,0,0,0,0,
0,0,0,0,0,0,0,0,0,0,0,0,0,0,0,0,
0,0,0,0,0,0,0,0,0,0,0,0,0,0,0,0,
0,0,0,0,0,0,0,0,0,0,0,0,0,0,0,0,
0,0,0,0,0,0,0,0,0,0,0,0,0,0,0,0,
0,0,0,0,0,0,0,0,0,0,0,0,0,0,0,0,
0,0,0,0,0,0,0,0,0,0,0,0,0,0,0,0,
0,0,0,0,0,0,0,0,0,0,0,0,0,0,0,0,
0,0,0,0,0,0,0,0,0,0,0,0,0,0,0,0,
0,0,0,0,62,62,62,62,62,62,62,62,62,62,62,62,
0,0,0,0,62,62,62,62,62,62,62,62,62,62,62,62,
0,0,0,0,62,62,62,62,62,62,62,62,62,62,62,62,
0,0,0,0,62,62,62,62,62,62,62,62,62,62,62,62,
0,0,0,0,62,62,62,62,62,62,62,62,62,62,62,62,
0,0,0,0,62,62,62,62,62,62,62,62,62,62,62,62,
0,0,0,0,62,62,62,62,62,62,62,62,62,62,62,62
</chunk>
   <chunk x="0" y="-16" width="16" height="16">
0,0,0,0,0,0,0,0,0,0,0,0,0,0,0,0,
0,0,0,0,0,0,0,0,0,0,0,0,0,0,0,0,
0,0,0,0,0,0,0,0,0,0,0,0,0,0,0,0,
0,0,0,0,0,0,0,0,0,0,0,0,0,0,0,0,
0,0,0,0,0,0,0,0,0,0,0,0,0,0,0,0,
0,0,0,0,0,0,0,0,0,0,0,0,0,0,0,0,
0,0,0,0,0,0,0,0,0,0,0,0,0,0,0,0,
0,0,0,0,0,0,0,0,0,0,0,0,0,0,0,0,
0,0,0,0,0,0,0,0,0,0,0,0,0,0,0,0,
62,62,62,62,62,62,62,62,62,62,62,0,0,0,0,0,
62,62,62,62,62,62,62,62,62,62,62,0,0,0,0,0,
62,62,62,62,62,62,62,62,62,62,62,0,0,0,0,0,
62,62,62,62,62,62,62,62,62,62,62,0,0,0,0,0,
62,62,62,62,62,62,62,62,62,62,62,0,0,0,0,0,
62,62,62,62,62,62,62,62,62,62,62,0,0,0,0,0,
62,62,62,62,62,62,62,62,62,62,62,0,0,0,0,0
</chunk>
   <chunk x="-16" y="0" width="16" height="16">
0,0,0,0,62,62,62,62,62,62,62,62,62,62,62,62,
0,0,0,0,62,62,62,62,62,62,62,62,62,62,62,62,
0,0,0,0,62,62,62,62,62,62,62,62,62,62,62,62,
0,0,0,0,62,62,62,62,62,62,62,62,62,62,62,62,
0,0,0,0,62,62,62,62,62,62,62,62,62,62,62,62,
0,0,0,0,62,62,62,62,62,62,62,62,62,62,62,62,
0,0,0,0,62,62,62,62,62,62,62,62,62,62,62,62,
0,0,0,0,62,62,62,62,62,62,62,62,62,62,62,62,
0,0,0,0,62,62,62,62,62,62,62,62,62,62,62,62,
0,0,0,0,0,0,0,0,0,0,0,0,0,0,0,0,
0,0,0,0,0,0,0,0,0,0,0,0,0,0,0,0,
0,0,0,0,0,0,0,0,0,0,0,0,0,0,0,0,
0,0,0,0,0,0,0,0,0,0,0,0,0,0,0,0,
0,0,0,0,0,0,0,0,0,0,0,0,0,0,0,0,
0,0,0,0,0,0,0,0,0,0,0,0,0,0,0,0,
0,0,0,0,0,0,0,0,0,0,0,0,0,0,0,0
</chunk>
   <chunk x="0" y="0" width="16" height="16">
62,62,62,62,62,62,62,62,62,62,62,0,0,0,0,0,
62,62,62,62,62,62,62,62,62,62,62,0,0,0,0,0,
62,62,62,62,62,62,62,62,62,62,62,0,0,0,0,0,
62,62,62,62,62,62,62,62,62,62,62,0,0,0,0,0,
62,62,62,62,62,62,62,62,62,62,62,0,0,0,0,0,
62,62,62,62,62,62,62,62,62,62,62,0,0,0,0,0,
62,62,62,62,62,62,62,62,62,62,62,0,0,0,0,0,
62,62,62,62,62,62,62,62,62,62,62,0,0,0,0,0,
62,62,62,62,62,62,62,62,62,62,62,0,0,0,0,0,
0,0,0,0,0,0,0,0,0,0,0,0,0,0,0,0,
0,0,0,0,0,0,0,0,0,0,0,0,0,0,0,0,
0,0,0,0,0,0,0,0,0,0,0,0,0,0,0,0,
0,0,0,0,0,0,0,0,0,0,0,0,0,0,0,0,
0,0,0,0,0,0,0,0,0,0,0,0,0,0,0,0,
0,0,0,0,0,0,0,0,0,0,0,0,0,0,0,0,
0,0,0,0,0,0,0,0,0,0,0,0,0,0,0,0
</chunk>
  </data>
 </layer>
 <layer id="58" name="Spots" width="16" height="24">
  <data encoding="csv">
   <chunk x="-16" y="-16" width="16" height="16">
0,0,0,0,0,0,0,0,0,0,0,0,0,0,0,0,
0,0,0,0,0,0,0,0,0,0,0,0,0,0,0,0,
0,0,0,0,0,0,0,0,0,0,0,0,0,0,0,0,
0,0,0,0,0,0,0,0,0,0,0,0,0,0,0,0,
0,0,0,0,0,0,0,0,0,0,0,0,0,0,0,0,
0,0,0,0,0,0,0,0,0,0,0,0,0,0,0,0,
0,0,0,0,0,0,0,0,0,0,0,0,0,0,0,0,
0,0,0,0,0,0,0,0,0,0,0,0,0,0,0,0,
0,0,0,0,0,0,0,0,0,0,0,0,0,0,0,0,
0,0,0,0,0,0,0,0,0,0,0,0,0,0,0,0,
0,0,0,0,0,0,0,0,0,0,0,0,0,0,0,0,
0,0,0,0,0,0,0,0,0,0,0,0,0,0,0,0,
0,0,0,0,0,0,0,0,0,0,0,0,0,0,0,0,
0,0,0,0,0,0,0,0,0,0,0,0,2698,0,0,0,
0,0,0,0,0,0,0,0,0,0,0,0,2719,0,0,2659,
0,0,0,0,0,0,0,0,0,0,0,0,0,0,2669,2680
</chunk>
   <chunk x="0" y="-16" width="16" height="16">
0,0,0,0,0,0,0,0,0,0,0,0,0,0,0,0,
0,0,0,0,0,0,0,0,0,0,0,0,0,0,0,0,
0,0,0,0,0,0,0,0,0,0,0,0,0,0,0,0,
0,0,0,0,0,0,0,0,0,0,0,0,0,0,0,0,
0,0,0,0,0,0,0,0,0,0,0,0,0,0,0,0,
0,0,0,0,0,0,0,0,0,0,0,0,0,0,0,0,
0,0,0,0,0,0,0,0,0,0,0,0,0,0,0,0,
0,0,0,0,0,0,0,0,0,0,0,0,0,0,0,0,
0,0,0,0,0,0,0,0,0,0,0,0,0,0,0,0,
0,0,0,0,0,0,0,0,0,0,0,0,0,0,0,0,
0,0,0,0,0,0,0,0,0,0,0,0,0,0,0,0,
0,0,0,0,0,0,0,0,0,0,0,0,0,0,0,0,
0,0,0,0,0,0,0,0,0,0,0,0,0,0,0,0,
0,2705,2706,0,0,0,0,0,0,0,0,0,0,0,0,0,
2660,0,0,0,0,0,0,0,0,0,0,0,0,0,0,0,
2681,0,0,0,0,0,0,0,0,0,0,0,0,0,0,0
</chunk>
   <chunk x="-16" y="0" width="16" height="16">
0,0,0,0,0,0,0,0,0,0,0,2657,2658,0,0,0,
0,0,0,0,0,2705,2706,0,0,0,0,2678,2679,0,0,0,
0,0,0,0,2663,2664,0,2656,0,0,0,0,2652,2653,0,0,
0,0,0,0,2684,2685,0,2677,0,0,0,0,2673,2674,0,2688,
0,0,0,0,0,0,2654,2655,0,0,0,0,0,0,0,2709,
0,0,0,0,0,0,0,0,2690,2691,0,0,2670,0,0,0,
0,0,0,0,0,0,0,0,2711,2712,0,0,0,0,0,0,
0,0,0,0,0,0,0,0,0,0,0,0,0,0,0,0,
0,0,0,0,0,0,0,0,0,0,0,0,0,0,0,2703,
0,0,0,0,0,0,0,0,0,0,0,0,0,0,0,0,
0,0,0,0,0,0,0,0,0,0,0,0,0,0,0,0,
0,0,0,0,0,0,0,0,0,0,0,0,0,0,0,0,
0,0,0,0,0,0,0,0,0,0,0,0,0,0,0,0,
0,0,0,0,0,0,0,0,0,0,0,0,0,0,0,0,
0,0,0,0,0,0,0,0,0,0,0,0,0,0,0,0,
0,0,0,0,0,0,0,0,0,0,0,0,0,0,0,0
</chunk>
   <chunk x="0" y="0" width="16" height="16">
0,0,0,2686,2687,0,0,0,0,0,0,0,0,0,0,0,
2670,2694,2695,2707,2708,2562,2563,0,0,0,0,0,0,0,0,0,
0,2715,2716,0,0,2583,2584,0,0,2598,2599,0,0,0,0,0,
2689,0,0,0,0,0,0,2692,2693,2619,2620,0,0,0,0,0,
2710,0,0,0,0,0,0,2713,2714,0,0,0,0,0,0,0,
0,0,0,0,0,0,0,0,0,0,0,0,0,0,0,0,
0,0,0,2665,0,2663,2664,0,0,0,0,0,0,0,0,0,
0,0,0,0,0,2684,2685,0,0,0,0,0,0,0,0,0,
2704,0,0,0,0,0,0,0,0,0,0,0,0,0,0,0,
0,0,0,0,0,0,0,0,0,0,0,0,0,0,0,0,
0,0,0,0,0,0,0,0,0,0,0,0,0,0,0,0,
0,0,0,0,0,0,0,0,0,0,0,0,0,0,0,0,
0,0,0,0,0,0,0,0,0,0,0,0,0,0,0,0,
0,0,0,0,0,0,0,0,0,0,0,0,0,0,0,0,
0,0,0,0,0,0,0,0,0,0,0,0,0,0,0,0,
0,0,0,0,0,0,0,0,0,0,0,0,0,0,0,0
</chunk>
  </data>
 </layer>
 <layer id="6" name="Grass" width="16" height="24">
  <data encoding="csv">
   <chunk x="-16" y="-16" width="16" height="16">
0,0,0,0,0,0,0,0,0,0,0,0,0,0,0,0,
0,0,0,0,0,0,0,0,0,0,0,0,0,0,0,0,
0,0,0,0,0,0,0,0,0,0,0,0,0,0,0,0,
0,0,0,0,0,0,0,0,0,0,0,0,0,0,0,0,
0,0,0,0,0,0,0,0,0,0,0,0,0,0,0,0,
0,0,0,0,0,0,0,0,0,0,0,0,0,0,0,0,
0,0,0,0,0,0,0,0,0,0,0,0,0,0,0,0,
0,0,0,0,0,0,0,0,0,0,0,0,0,0,0,0,
0,0,0,0,0,0,0,0,0,0,0,0,0,0,0,0,
0,0,0,0,14,14,14,14,14,14,14,14,14,14,14,14,
0,0,0,0,134,14,14,14,14,14,14,14,14,14,14,14,
0,0,0,0,134,14,14,14,14,14,14,14,124,125,14,14,
0,0,0,0,134,14,14,14,14,14,14,134,135,145,143,143,
0,0,0,0,134,14,14,14,14,14,124,146,147,0,0,0,
0,0,0,0,134,14,134,124,143,142,147,0,0,0,0,0,
0,0,0,0,134,124,146,147,0,0,0,0,0,0,0,0
</chunk>
   <chunk x="0" y="-16" width="16" height="16">
0,0,0,0,0,0,0,0,0,0,0,0,0,0,0,0,
0,0,0,0,0,0,0,0,0,0,0,0,0,0,0,0,
0,0,0,0,0,0,0,0,0,0,0,0,0,0,0,0,
0,0,0,0,0,0,0,0,0,0,0,0,0,0,0,0,
0,0,0,0,0,0,0,0,0,0,0,0,0,0,0,0,
0,0,0,0,0,0,0,0,0,0,0,0,0,0,0,0,
0,0,0,0,0,0,0,0,0,0,0,0,0,0,0,0,
0,0,0,0,0,0,0,0,0,0,0,0,0,0,0,0,
0,0,0,0,0,0,0,0,0,0,0,0,0,0,0,0,
14,14,14,14,14,14,14,14,14,14,14,0,0,0,0,0,
14,14,14,14,14,14,14,14,14,14,14,0,0,0,0,0,
14,14,14,14,14,14,14,14,14,14,14,0,0,0,0,0,
125,124,125,14,14,14,14,14,14,14,14,0,0,0,0,0,
145,147,145,146,146,125,14,14,14,14,14,0,0,0,0,0,
0,0,0,0,0,145,125,14,14,14,14,0,0,0,0,0,
0,0,0,0,0,0,145,125,14,14,14,0,0,0,0,0
</chunk>
   <chunk x="-16" y="0" width="16" height="16">
0,0,0,0,134,135,0,0,0,0,0,0,0,0,0,0,
0,0,0,0,124,147,0,0,0,0,0,0,0,0,0,0,
0,0,0,0,147,0,0,0,0,0,0,0,0,0,0,0,
0,0,0,0,0,0,0,0,0,0,0,0,0,0,0,0,
0,0,0,0,0,0,0,0,0,0,0,0,0,0,0,0,
0,0,0,0,0,0,0,0,0,0,0,0,0,0,0,0,
0,0,0,0,0,0,0,0,0,0,121,122,123,0,0,0,
0,0,0,0,0,0,0,0,0,121,137,14,136,123,0,0,
0,0,0,0,0,0,0,0,0,133,14,14,14,136,122,123,
0,0,0,0,0,0,0,0,0,0,0,0,0,0,0,0,
0,0,0,0,0,0,0,0,0,0,0,0,0,0,0,0,
0,0,0,0,0,0,0,0,0,0,0,0,0,0,0,0,
0,0,0,0,0,0,0,0,0,0,0,0,0,0,0,0,
0,0,0,0,0,0,0,0,0,0,0,0,0,0,0,0,
0,0,0,0,0,0,0,0,0,0,0,0,0,0,0,0,
0,0,0,0,0,0,0,0,0,0,0,0,0,0,0,0
</chunk>
   <chunk x="0" y="0" width="16" height="16">
0,0,0,0,0,0,0,133,14,14,14,0,0,0,0,0,
0,0,0,0,0,0,0,145,125,14,124,0,0,0,0,0,
0,0,0,0,0,0,0,0,145,146,147,0,0,0,0,0,
0,0,0,0,0,0,0,0,0,0,0,0,0,0,0,0,
0,0,0,0,0,0,0,0,121,122,123,0,0,0,0,0,
0,0,0,0,0,0,0,0,133,134,136,0,0,0,0,0,
0,0,0,0,0,0,0,0,2147483783,134,134,0,0,0,0,0,
0,0,121,122,123,0,0,0,133,134,134,0,0,0,0,0,
0,121,137,14,136,122,123,0,137,134,134,0,0,0,0,0,
0,0,0,0,0,0,0,0,0,0,0,0,0,0,0,0,
0,0,0,0,0,0,0,0,0,0,0,0,0,0,0,0,
0,0,0,0,0,0,0,0,0,0,0,0,0,0,0,0,
0,0,0,0,0,0,0,0,0,0,0,0,0,0,0,0,
0,0,0,0,0,0,0,0,0,0,0,0,0,0,0,0,
0,0,0,0,0,0,0,0,0,0,0,0,0,0,0,0,
0,0,0,0,0,0,0,0,0,0,0,0,0,0,0,0
</chunk>
  </data>
 </layer>
 <layer id="59" name="Grass_details_ground" width="16" height="24">
  <data encoding="csv">
   <chunk x="-16" y="-16" width="16" height="16">
0,0,0,0,0,0,0,0,0,0,0,0,0,0,0,0,
0,0,0,0,0,0,0,0,0,0,0,0,0,0,0,0,
0,0,0,0,0,0,0,0,0,0,0,0,0,0,0,0,
0,0,0,0,0,0,0,0,0,0,0,0,0,0,0,0,
0,0,0,0,0,0,0,0,0,0,0,0,0,0,0,0,
0,0,0,0,0,0,0,0,0,0,0,0,0,0,0,0,
0,0,0,0,0,0,0,0,0,0,0,0,0,0,0,0,
0,0,0,0,0,0,0,0,0,0,0,0,0,0,0,0,
0,0,0,0,0,0,0,0,0,0,0,0,0,0,0,0,
0,0,0,0,0,0,0,0,0,0,0,0,0,0,0,0,
0,0,0,0,0,0,0,0,0,0,0,0,0,168,0,0,
0,0,0,0,0,0,0,0,0,0,0,0,0,180,0,0,
0,0,0,0,0,0,0,0,0,0,0,2147483836,2147483835,0,0,0,
0,0,0,0,167,151,0,0,0,0,0,0,0,0,0,0,
0,0,0,0,0,2147483803,2147483802,0,0,0,0,0,0,0,0,0,
0,0,0,0,0,0,0,0,0,0,0,0,0,0,0,0
</chunk>
   <chunk x="0" y="-16" width="16" height="16">
0,0,0,0,0,0,0,0,0,0,0,0,0,0,0,0,
0,0,0,0,0,0,0,0,0,0,0,0,0,0,0,0,
0,0,0,0,0,0,0,0,0,0,0,0,0,0,0,0,
0,0,0,0,0,0,0,0,0,0,0,0,0,0,0,0,
0,0,0,0,0,0,0,0,0,0,0,0,0,0,0,0,
0,0,0,0,0,0,0,0,0,0,0,0,0,0,0,0,
0,0,0,0,0,0,0,0,0,0,0,0,0,0,0,0,
0,0,0,0,0,0,0,0,0,0,0,0,0,0,0,0,
0,0,0,0,0,0,0,0,0,0,0,0,0,0,0,0,
0,0,0,0,0,0,0,0,0,0,0,0,0,0,0,0,
0,0,0,0,0,0,0,0,0,0,0,0,0,0,0,0,
0,0,0,177,178,179,0,0,0,0,0,0,0,0,0,0,
185,186,0,192,0,167,0,0,0,0,0,0,0,0,0,0,
0,0,0,0,0,0,185,186,0,0,0,0,0,0,0,0,
0,0,0,0,0,0,0,192,0,0,0,0,0,0,0,0,
0,0,0,0,0,0,0,0,0,0,0,0,0,0,0,0
</chunk>
   <chunk x="-16" y="0" width="16" height="16">
0,0,0,0,0,0,0,0,0,0,0,0,0,0,0,0,
0,0,0,0,2147483835,0,0,0,0,0,0,0,0,0,0,0,
0,0,0,0,0,0,0,0,0,0,0,0,0,0,0,0,
0,0,0,0,0,0,0,0,0,0,0,0,0,0,0,0,
0,0,0,0,0,0,0,0,0,0,0,0,0,0,0,0,
0,0,0,0,0,0,0,0,0,0,0,0,0,0,0,0,
0,0,0,0,0,0,0,0,0,0,0,0,0,0,0,0,
0,0,0,0,0,0,0,0,0,0,177,178,179,0,0,0,
0,0,0,0,0,0,0,0,0,0,0,0,0,0,0,0,
0,0,0,0,0,0,0,0,0,0,0,0,0,0,0,0,
0,0,0,0,0,0,0,0,0,0,0,0,0,0,0,0,
0,0,0,0,0,0,0,0,0,0,0,0,0,0,0,0,
0,0,0,0,0,0,0,0,0,0,0,0,0,0,0,0,
0,0,0,0,0,0,0,0,0,0,0,0,0,0,0,0,
0,0,0,0,0,0,0,0,0,0,0,0,0,0,0,0,
0,0,0,0,0,0,0,0,0,0,0,0,0,0,0,0
</chunk>
   <chunk x="0" y="0" width="16" height="16">
0,0,0,0,0,0,0,187,188,0,168,0,0,0,0,0,
0,0,0,0,0,0,0,0,0,0,180,0,0,0,0,0,
0,0,0,0,0,0,0,0,0,0,0,0,0,0,0,0,
0,0,0,0,0,0,0,0,0,0,0,0,0,0,0,0,
0,0,0,0,0,0,0,0,0,0,0,0,0,0,0,0,
0,0,0,0,0,0,0,0,0,149,150,0,0,0,0,0,
0,0,0,0,0,0,0,0,0,0,0,0,0,0,0,0,
0,0,0,0,0,0,0,0,0,0,0,0,0,0,0,0,
0,0,0,0,0,0,0,0,0,0,0,0,0,0,0,0,
0,0,0,0,0,0,0,0,0,0,0,0,0,0,0,0,
0,0,0,0,0,0,0,0,0,0,0,0,0,0,0,0,
0,0,0,0,0,0,0,0,0,0,0,0,0,0,0,0,
0,0,0,0,0,0,0,0,0,0,0,0,0,0,0,0,
0,0,0,0,0,0,0,0,0,0,0,0,0,0,0,0,
0,0,0,0,0,0,0,0,0,0,0,0,0,0,0,0,
0,0,0,0,0,0,0,0,0,0,0,0,0,0,0,0
</chunk>
  </data>
 </layer>
 <layer id="4" name="Hill" width="16" height="24">
  <data encoding="csv">
   <chunk x="-16" y="-16" width="16" height="16">
0,0,0,0,0,0,0,0,0,0,0,0,0,0,0,0,
0,0,0,0,0,0,0,0,0,0,0,0,0,0,0,0,
0,0,0,0,0,0,0,0,0,0,0,0,0,0,0,0,
0,0,0,0,0,0,0,0,0,0,0,0,0,0,0,0,
0,0,0,0,0,0,0,0,0,0,0,0,0,0,0,0,
0,0,0,0,0,0,0,0,0,0,0,0,0,0,0,0,
0,0,0,0,0,0,0,0,0,0,0,0,0,0,0,0,
0,0,0,0,0,0,0,0,0,0,0,0,0,0,0,0,
0,0,0,0,0,0,0,0,0,0,0,0,0,0,0,0,
0,0,0,0,14,14,14,14,14,14,14,14,7,23,8,14,
0,0,0,0,14,14,14,14,14,14,14,7,19,35,20,22,
0,0,0,0,7,169,170,8,14,7,23,19,31,0,32,34,
0,0,0,0,19,181,182,20,26,19,35,31,0,0,0,0,
0,0,0,0,31,0,0,32,38,31,0,0,0,0,0,0,
0,0,0,0,0,0,0,0,0,0,0,0,0,0,0,0,
0,0,0,0,0,0,0,0,0,0,0,0,0,0,0,0
</chunk>
   <chunk x="0" y="-16" width="16" height="16">
0,0,0,0,0,0,0,0,0,0,0,0,0,0,0,0,
0,0,0,0,0,0,0,0,0,0,0,0,0,0,0,0,
0,0,0,0,0,0,0,0,0,0,0,0,0,0,0,0,
0,0,0,0,0,0,0,0,0,0,0,0,0,0,0,0,
0,0,0,0,0,0,0,0,0,0,0,0,0,0,0,0,
0,0,0,0,0,0,0,0,0,0,0,0,0,0,0,0,
0,0,0,0,0,0,0,0,0,0,0,0,0,0,0,0,
0,0,0,0,0,0,0,0,0,0,0,0,0,0,0,0,
0,0,0,0,0,0,0,0,0,0,0,0,0,0,0,0,
14,14,14,7,26,8,14,14,14,14,14,0,0,0,0,0,
23,26,22,19,38,20,26,5,14,14,14,0,0,0,0,0,
35,38,34,31,0,32,38,17,14,14,14,0,0,0,0,0,
0,0,0,0,0,0,0,25,8,14,14,0,0,0,0,0,
0,0,0,0,0,0,0,37,20,5,14,0,0,0,0,0,
0,0,0,0,0,0,0,0,32,17,14,0,0,0,0,0,
0,0,0,0,0,0,0,0,0,25,26,0,0,0,0,0
</chunk>
   <chunk x="-16" y="0" width="16" height="16">
0,0,0,0,0,0,0,0,0,0,0,0,0,0,0,0,
0,0,0,0,0,0,0,0,0,0,0,0,0,0,0,0,
0,0,0,0,0,0,0,0,0,0,0,0,0,0,0,0,
0,0,0,0,2147483649,0,0,0,0,0,0,0,0,0,0,0,
0,0,0,0,2147483677,2147483658,2147483649,0,0,0,0,0,0,0,0,0,
0,0,0,0,2147483662,2147483662,2147483661,0,0,0,0,0,0,0,0,0,
0,0,0,0,2147483662,2147483662,2147483677,2147483659,2147483650,2147483649,0,0,0,0,0,0,
0,0,0,0,2147483662,2147483662,2147483662,2147483662,2147483662,2147483677,2147483649,0,0,0,0,0,
0,0,0,0,2147483662,2147483662,2147483662,2147483662,2147483662,2147483662,2147483677,2147483650,2147483650,2147483649,0,0,
0,0,0,0,0,0,0,0,0,0,0,0,0,0,0,0,
0,0,0,0,0,0,0,0,0,0,0,0,0,0,0,0,
0,0,0,0,0,0,0,0,0,0,0,0,0,0,0,0,
0,0,0,0,0,0,0,0,0,0,0,0,0,0,0,0,
0,0,0,0,0,0,0,0,0,0,0,0,0,0,0,0,
0,0,0,0,0,0,0,0,0,0,0,0,0,0,0,0,
0,0,0,0,0,0,0,0,0,0,0,0,0,0,0,0
</chunk>
   <chunk x="0" y="0" width="16" height="16">
0,0,0,0,0,0,0,0,0,37,38,0,0,0,0,0,
0,0,0,0,0,0,0,0,0,0,0,0,0,0,0,0,
0,0,0,0,0,0,0,0,0,0,0,0,0,0,0,0,
0,0,0,0,0,0,0,0,0,0,0,0,0,0,0,0,
0,0,0,0,0,0,0,0,0,0,0,0,0,0,0,0,
0,0,0,0,0,0,0,0,0,2147483651,2147483650,0,0,0,0,0,
0,0,0,0,0,0,0,2147483651,2147483650,2147483676,2147483662,0,0,0,0,0,
0,0,0,0,0,0,0,2147483663,2147483662,2147483662,2147483662,0,0,0,0,0,
0,0,0,0,0,2147483651,2147483650,2147483676,2147483662,2147483662,2147483662,0,0,0,0,0,
0,0,0,0,0,0,0,0,0,0,0,0,0,0,0,0,
0,0,0,0,0,0,0,0,0,0,0,0,0,0,0,0,
0,0,0,0,0,0,0,0,0,0,0,0,0,0,0,0,
0,0,0,0,0,0,0,0,0,0,0,0,0,0,0,0,
0,0,0,0,0,0,0,0,0,0,0,0,0,0,0,0,
0,0,0,0,0,0,0,0,0,0,0,0,0,0,0,0,
0,0,0,0,0,0,0,0,0,0,0,0,0,0,0,0
</chunk>
  </data>
 </layer>
 <layer id="60" name="Grass_details_hill" width="16" height="24">
  <data encoding="csv">
   <chunk x="-16" y="-16" width="16" height="16">
0,0,0,0,0,0,0,0,0,0,0,0,0,0,0,0,
0,0,0,0,0,0,0,0,0,0,0,0,0,0,0,0,
0,0,0,0,0,0,0,0,0,0,0,0,0,0,0,0,
0,0,0,0,0,0,0,0,0,0,0,0,0,0,0,0,
0,0,0,0,0,0,0,0,0,0,0,0,0,0,0,0,
0,0,0,0,0,0,0,0,0,0,0,0,0,0,0,0,
0,0,0,0,0,0,0,0,0,0,0,0,0,0,0,0,
0,0,0,0,0,0,0,0,0,0,0,0,0,0,0,0,
0,0,0,0,0,0,0,0,0,0,0,0,0,0,0,0,
0,0,0,0,0,187,188,192,0,0,0,2147483803,2147483802,0,185,154,
0,0,0,0,0,0,0,185,186,0,2147483803,2147483802,0,0,0,0,
0,0,0,0,192,0,0,0,187,188,0,0,0,0,0,0,
0,0,0,0,0,0,0,0,0,0,0,0,0,0,0,0,
0,0,0,0,0,0,0,0,0,0,0,0,0,0,0,0,
0,0,0,0,0,0,0,0,0,0,0,0,0,0,0,0,
0,0,0,0,0,0,0,0,0,0,0,0,0,0,0,0
</chunk>
   <chunk x="0" y="-16" width="16" height="16">
0,0,0,0,0,0,0,0,0,0,0,0,0,0,0,0,
0,0,0,0,0,0,0,0,0,0,0,0,0,0,0,0,
0,0,0,0,0,0,0,0,0,0,0,0,0,0,0,0,
0,0,0,0,0,0,0,0,0,0,0,0,0,0,0,0,
0,0,0,0,0,0,0,0,0,0,0,0,0,0,0,0,
0,0,0,0,0,0,0,0,0,0,0,0,0,0,0,0,
0,0,0,0,0,0,0,0,0,0,0,0,0,0,0,0,
0,0,0,0,0,0,0,0,0,0,0,0,0,0,0,0,
0,0,0,0,0,0,0,0,0,0,0,0,0,0,0,0,
155,2147483803,2147483802,0,0,2147483814,2147483813,2147483812,0,0,0,0,0,0,0,0,
0,0,0,0,0,0,0,0,0,0,0,0,0,0,0,0,
0,0,0,0,0,0,0,187,188,0,173,0,0,0,0,0,
0,0,0,0,0,0,0,0,0,185,186,0,0,0,0,0,
0,0,0,0,0,0,0,0,0,0,192,0,0,0,0,0,
0,0,0,0,0,0,0,0,0,0,154,0,0,0,0,0,
0,0,0,0,0,0,0,0,0,0,0,0,0,0,0,0
</chunk>
   <chunk x="-16" y="0" width="16" height="16">
0,0,0,0,0,0,0,0,0,0,0,0,0,0,0,0,
0,0,0,0,0,0,0,0,0,0,0,0,0,0,0,0,
0,0,0,0,0,0,0,0,0,0,0,0,0,0,0,0,
0,0,0,0,0,0,0,0,0,0,0,0,0,0,0,0,
0,0,0,0,189,0,0,0,0,0,0,0,0,0,0,0,
0,0,0,0,176,178,179,0,0,0,0,0,0,0,0,0,
0,0,0,0,0,174,175,0,0,0,0,0,0,0,0,0,
0,0,0,0,0,0,0,177,178,179,0,0,0,0,0,0,
0,0,0,0,177,178,179,0,151,173,0,0,0,0,0,0,
0,0,0,0,0,0,0,0,0,0,0,0,0,0,0,0,
0,0,0,0,0,0,0,0,0,0,0,0,0,0,0,0,
0,0,0,0,0,0,0,0,0,0,0,0,0,0,0,0,
0,0,0,0,0,0,0,0,0,0,0,0,0,0,0,0,
0,0,0,0,0,0,0,0,0,0,0,0,0,0,0,0,
0,0,0,0,0,0,0,0,0,0,0,0,0,0,0,0,
0,0,0,0,0,0,0,0,0,0,0,0,0,0,0,0
</chunk>
   <chunk x="0" y="0" width="16" height="16">
0,0,0,0,0,0,0,0,0,0,0,0,0,0,0,0,
0,0,0,0,0,0,0,0,0,0,0,0,0,0,0,0,
0,0,0,0,0,0,0,0,0,0,0,0,0,0,0,0,
0,0,0,0,0,0,0,0,0,0,0,0,0,0,0,0,
0,0,0,0,0,0,0,0,0,0,0,0,0,0,0,0,
0,0,0,0,0,0,0,0,0,0,0,0,0,0,0,0,
0,0,0,0,0,0,0,0,0,174,175,0,0,0,0,0,
0,0,0,0,0,0,0,162,163,0,0,0,0,0,0,0,
0,0,0,0,0,0,148,149,150,0,0,0,0,0,0,0,
0,0,0,0,0,0,0,0,0,0,0,0,0,0,0,0,
0,0,0,0,0,0,0,0,0,0,0,0,0,0,0,0,
0,0,0,0,0,0,0,0,0,0,0,0,0,0,0,0,
0,0,0,0,0,0,0,0,0,0,0,0,0,0,0,0,
0,0,0,0,0,0,0,0,0,0,0,0,0,0,0,0,
0,0,0,0,0,0,0,0,0,0,0,0,0,0,0,0,
0,0,0,0,0,0,0,0,0,0,0,0,0,0,0,0
</chunk>
  </data>
 </layer>
 <group id="14" name="Tent1">
  <layer id="15" name="Shadow" width="16" height="24">
   <data encoding="csv">
    <chunk x="-16" y="-16" width="16" height="16">
0,0,0,0,0,0,0,0,0,0,0,0,0,0,0,0,
0,0,0,0,0,0,0,0,0,0,0,0,0,0,0,0,
0,0,0,0,0,0,0,0,0,0,0,0,0,0,0,0,
0,0,0,0,0,0,0,0,0,0,0,0,0,0,0,0,
0,0,0,0,0,0,0,0,0,0,0,0,0,0,0,0,
0,0,0,0,0,0,0,0,0,0,0,0,0,0,0,0,
0,0,0,0,0,0,0,0,0,0,0,0,0,0,0,0,
0,0,0,0,0,0,0,0,0,0,0,0,0,0,0,0,
0,0,0,0,0,0,0,0,0,0,0,0,0,0,0,0,
0,0,0,0,0,0,0,0,0,0,0,0,0,0,0,0,
0,0,0,0,0,0,0,0,0,0,0,0,0,0,0,0,
0,0,0,0,0,0,0,0,0,0,0,0,0,0,0,0,
0,0,0,0,0,0,0,0,0,0,0,0,0,0,0,0,
0,0,0,0,0,0,0,855,856,857,858,859,860,0,0,0,
0,0,0,0,0,0,0,881,882,883,884,885,886,0,0,0,
0,0,0,0,0,0,0,907,908,909,910,911,912,0,0,0
</chunk>
    <chunk x="-16" y="0" width="16" height="16">
0,0,0,0,0,0,932,933,934,935,936,937,938,0,0,0,
0,0,0,0,0,0,958,959,960,961,962,963,964,0,0,0,
0,0,0,0,0,0,0,985,986,987,988,0,0,0,0,0,
0,0,0,0,0,0,0,0,0,0,0,0,0,0,0,0,
0,0,0,0,0,0,0,0,0,0,0,0,0,0,0,0,
0,0,0,0,0,0,0,0,0,0,0,0,0,0,0,0,
0,0,0,0,0,0,0,0,0,0,0,0,0,0,0,0,
0,0,0,0,0,0,0,0,0,0,0,0,0,0,0,0,
0,0,0,0,0,0,0,0,0,0,0,0,0,0,0,0,
0,0,0,0,0,0,0,0,0,0,0,0,0,0,0,0,
0,0,0,0,0,0,0,0,0,0,0,0,0,0,0,0,
0,0,0,0,0,0,0,0,0,0,0,0,0,0,0,0,
0,0,0,0,0,0,0,0,0,0,0,0,0,0,0,0,
0,0,0,0,0,0,0,0,0,0,0,0,0,0,0,0,
0,0,0,0,0,0,0,0,0,0,0,0,0,0,0,0,
0,0,0,0,0,0,0,0,0,0,0,0,0,0,0,0
</chunk>
   </data>
  </layer>
  <layer id="12" name="Object3" width="16" height="24">
   <data encoding="csv">
    <chunk x="-16" y="-16" width="16" height="16">
0,0,0,0,0,0,0,0,0,0,0,0,0,0,0,0,
0,0,0,0,0,0,0,0,0,0,0,0,0,0,0,0,
0,0,0,0,0,0,0,0,0,0,0,0,0,0,0,0,
0,0,0,0,0,0,0,0,0,0,0,0,0,0,0,0,
0,0,0,0,0,0,0,0,0,0,0,0,0,0,0,0,
0,0,0,0,0,0,0,0,0,0,0,0,0,0,0,0,
0,0,0,0,0,0,0,0,0,0,0,0,0,0,0,0,
0,0,0,0,0,0,0,0,0,0,0,0,0,0,0,0,
0,0,0,0,0,0,0,0,0,0,0,0,0,0,0,0,
0,0,0,0,0,0,0,0,0,0,0,0,0,0,0,0,
0,0,0,0,0,0,0,0,0,0,0,0,0,0,0,0,
0,0,0,0,0,0,0,0,0,0,0,0,0,0,0,0,
0,0,0,0,0,0,0,0,0,0,0,0,0,0,0,0,
0,0,0,0,0,0,0,0,0,0,964,0,0,0,0,0,
0,0,0,0,0,0,0,0,988,989,990,991,0,0,0,0,
0,0,0,0,0,0,0,0,1014,1015,1016,1017,0,0,0,0
</chunk>
    <chunk x="-16" y="0" width="16" height="16">
0,0,0,0,0,0,0,0,1040,1041,1042,1043,0,0,0,0,
0,0,0,0,0,0,0,0,0,0,0,0,0,0,0,0,
0,0,0,0,0,0,0,0,0,0,0,0,0,0,0,0,
0,0,0,0,0,0,0,0,0,0,0,0,0,0,0,0,
0,0,0,0,0,0,0,0,0,0,0,0,0,0,0,0,
0,0,0,0,0,0,0,0,0,0,0,0,0,0,0,0,
0,0,0,0,0,0,0,0,0,0,0,0,0,0,0,0,
0,0,0,0,0,0,0,0,0,0,0,0,0,0,0,0,
0,0,0,0,0,0,0,0,0,0,0,0,0,0,0,0,
0,0,0,0,0,0,0,0,0,0,0,0,0,0,0,0,
0,0,0,0,0,0,0,0,0,0,0,0,0,0,0,0,
0,0,0,0,0,0,0,0,0,0,0,0,0,0,0,0,
0,0,0,0,0,0,0,0,0,0,0,0,0,0,0,0,
0,0,0,0,0,0,0,0,0,0,0,0,0,0,0,0,
0,0,0,0,0,0,0,0,0,0,0,0,0,0,0,0,
0,0,0,0,0,0,0,0,0,0,0,0,0,0,0,0
</chunk>
   </data>
  </layer>
  <layer id="67" name="Sleeping_character" width="16" height="24">
   <data encoding="csv">
    <chunk x="-16" y="-16" width="16" height="16">
0,0,0,0,0,0,0,0,0,0,0,0,0,0,0,0,
0,0,0,0,0,0,0,0,0,0,0,0,0,0,0,0,
0,0,0,0,0,0,0,0,0,0,0,0,0,0,0,0,
0,0,0,0,0,0,0,0,0,0,0,0,0,0,0,0,
0,0,0,0,0,0,0,0,0,0,0,0,0,0,0,0,
0,0,0,0,0,0,0,0,0,0,0,0,0,0,0,0,
0,0,0,0,0,0,0,0,0,0,0,0,0,0,0,0,
0,0,0,0,0,0,0,0,0,0,0,0,0,0,0,0,
0,0,0,0,0,0,0,0,0,0,0,0,0,0,0,0,
0,0,0,0,0,0,0,0,0,0,0,0,0,0,0,0,
0,0,0,0,0,0,0,0,0,0,0,0,0,0,0,0,
0,0,0,0,0,0,0,0,0,0,0,0,0,0,0,0,
0,0,0,0,0,0,0,0,0,0,0,0,0,0,0,0,
0,0,0,0,0,0,0,0,0,0,0,0,0,0,0,0,
0,0,0,0,0,0,0,0,0,3339,3340,3341,0,0,0,0,
0,0,0,0,0,0,0,0,0,3347,3348,3349,0,0,0,0
</chunk>
   </data>
  </layer>
  <layer id="10" name="Tent1" width="16" height="24">
   <data encoding="csv">
    <chunk x="-16" y="-16" width="16" height="16">
0,0,0,0,0,0,0,0,0,0,0,0,0,0,0,0,
0,0,0,0,0,0,0,0,0,0,0,0,0,0,0,0,
0,0,0,0,0,0,0,0,0,0,0,0,0,0,0,0,
0,0,0,0,0,0,0,0,0,0,0,0,0,0,0,0,
0,0,0,0,0,0,0,0,0,0,0,0,0,0,0,0,
0,0,0,0,0,0,0,0,0,0,0,0,0,0,0,0,
0,0,0,0,0,0,0,0,0,0,0,0,0,0,0,0,
0,0,0,0,0,0,0,0,0,0,0,0,0,0,0,0,
0,0,0,0,0,0,0,0,0,0,0,0,0,0,0,0,
0,0,0,0,0,0,0,0,0,0,0,0,0,0,0,0,
0,0,0,0,0,0,0,0,0,0,0,0,0,0,0,0,
0,0,0,0,0,0,0,849,850,851,852,853,854,0,0,0,
0,0,0,0,0,0,0,875,876,877,878,879,880,0,0,0,
0,0,0,0,0,0,0,901,902,903,904,905,906,0,0,0,
0,0,0,0,0,0,0,927,928,929,930,931,0,0,0,0,
0,0,0,0,0,0,0,953,954,955,956,957,0,0,0,0
</chunk>
    <chunk x="-16" y="0" width="16" height="16">
0,0,0,0,0,0,0,979,980,981,982,0,0,0,0,0,
0,0,0,0,0,0,0,1005,1006,1007,1008,0,0,0,0,0,
0,0,0,0,0,0,0,0,0,0,0,0,0,0,0,0,
0,0,0,0,0,0,0,0,0,0,0,0,0,0,0,0,
0,0,0,0,0,0,0,0,0,0,0,0,0,0,0,0,
0,0,0,0,0,0,0,0,0,0,0,0,0,0,0,0,
0,0,0,0,0,0,0,0,0,0,0,0,0,0,0,0,
0,0,0,0,0,0,0,0,0,0,0,0,0,0,0,0,
0,0,0,0,0,0,0,0,0,0,0,0,0,0,0,0,
0,0,0,0,0,0,0,0,0,0,0,0,0,0,0,0,
0,0,0,0,0,0,0,0,0,0,0,0,0,0,0,0,
0,0,0,0,0,0,0,0,0,0,0,0,0,0,0,0,
0,0,0,0,0,0,0,0,0,0,0,0,0,0,0,0,
0,0,0,0,0,0,0,0,0,0,0,0,0,0,0,0,
0,0,0,0,0,0,0,0,0,0,0,0,0,0,0,0,
0,0,0,0,0,0,0,0,0,0,0,0,0,0,0,0
</chunk>
   </data>
  </layer>
  <layer id="11" name="Objects1" width="16" height="24">
   <data encoding="csv">
    <chunk x="-16" y="-16" width="16" height="16">
0,0,0,0,0,0,0,0,0,0,0,0,0,0,0,0,
0,0,0,0,0,0,0,0,0,0,0,0,0,0,0,0,
0,0,0,0,0,0,0,0,0,0,0,0,0,0,0,0,
0,0,0,0,0,0,0,0,0,0,0,0,0,0,0,0,
0,0,0,0,0,0,0,0,0,0,0,0,0,0,0,0,
0,0,0,0,0,0,0,0,0,0,0,0,0,0,0,0,
0,0,0,0,0,0,0,0,0,0,0,0,0,0,0,0,
0,0,0,0,0,0,0,0,0,0,0,0,0,0,0,0,
0,0,0,0,0,0,0,0,0,0,0,0,0,0,0,0,
0,0,0,0,0,0,0,0,0,0,0,0,0,0,0,0,
0,0,0,0,0,0,0,0,0,0,0,0,0,0,0,0,
0,0,0,0,0,0,0,0,0,0,0,0,0,0,0,0,
0,0,0,0,0,0,0,0,0,0,0,0,0,0,0,0,
0,0,0,0,0,0,0,0,0,0,0,0,0,0,0,0,
0,0,0,0,0,0,0,0,0,0,0,1012,1013,0,0,0,
0,0,0,0,0,0,968,969,970,0,0,1038,1039,0,0,0
</chunk>
    <chunk x="-16" y="0" width="16" height="16">
0,0,0,0,0,0,994,995,996,1002,1003,1004,0,0,0,0,
0,0,0,0,0,0,1020,1021,1022,1028,1029,1030,0,0,0,0,
0,0,0,0,0,0,1046,1047,1048,0,0,0,0,0,0,0,
0,0,0,0,0,0,0,0,0,0,0,0,0,0,0,0,
0,0,0,0,0,0,0,0,0,0,0,0,0,0,0,0,
0,0,0,0,0,0,0,0,0,0,0,0,0,0,0,0,
0,0,0,0,0,0,0,0,0,0,0,0,0,0,0,0,
0,0,0,0,0,0,0,0,0,0,0,0,0,0,0,0,
0,0,0,0,0,0,0,0,0,0,0,0,0,0,0,0,
0,0,0,0,0,0,0,0,0,0,0,0,0,0,0,0,
0,0,0,0,0,0,0,0,0,0,0,0,0,0,0,0,
0,0,0,0,0,0,0,0,0,0,0,0,0,0,0,0,
0,0,0,0,0,0,0,0,0,0,0,0,0,0,0,0,
0,0,0,0,0,0,0,0,0,0,0,0,0,0,0,0,
0,0,0,0,0,0,0,0,0,0,0,0,0,0,0,0,
0,0,0,0,0,0,0,0,0,0,0,0,0,0,0,0
</chunk>
   </data>
  </layer>
  <layer id="13" name="Objects2" width="16" height="24">
   <data encoding="csv">
    <chunk x="-16" y="-16" width="16" height="16">
0,0,0,0,0,0,0,0,0,0,0,0,0,0,0,0,
0,0,0,0,0,0,0,0,0,0,0,0,0,0,0,0,
0,0,0,0,0,0,0,0,0,0,0,0,0,0,0,0,
0,0,0,0,0,0,0,0,0,0,0,0,0,0,0,0,
0,0,0,0,0,0,0,0,0,0,0,0,0,0,0,0,
0,0,0,0,0,0,0,0,0,0,0,0,0,0,0,0,
0,0,0,0,0,0,0,0,0,0,0,0,0,0,0,0,
0,0,0,0,0,0,0,0,0,0,0,0,0,0,0,0,
0,0,0,0,0,0,0,0,0,0,0,0,0,0,0,0,
0,0,0,0,0,0,0,0,0,0,0,0,0,0,0,0,
0,0,0,0,0,0,0,0,0,0,0,0,0,0,0,0,
0,0,0,0,0,0,0,0,0,0,0,0,0,0,0,0,
0,0,0,0,0,0,0,0,0,0,0,0,0,0,0,0,
0,0,0,0,0,0,0,0,0,0,0,0,0,0,0,0,
0,0,0,0,0,0,0,0,0,0,0,0,0,0,0,0,
0,0,0,0,0,0,0,0,0,0,1018,1019,0,0,0,0
</chunk>
    <chunk x="-16" y="0" width="16" height="16">
0,0,0,0,0,0,0,0,983,984,1044,1045,0,0,0,0,
0,0,0,0,0,0,0,0,1009,1010,1011,0,0,0,0,0,
0,0,0,0,0,0,0,0,1035,1036,1037,0,0,0,0,0,
0,0,0,0,0,0,0,0,0,0,0,0,0,0,0,0,
0,0,0,0,0,0,0,0,0,0,0,0,0,0,0,0,
0,0,0,0,0,0,0,0,0,0,0,0,0,0,0,0,
0,0,0,0,0,0,0,0,0,0,0,0,0,0,0,0,
0,0,0,0,0,0,0,0,0,0,0,0,0,0,0,0,
0,0,0,0,0,0,0,0,0,0,0,0,0,0,0,0,
0,0,0,0,0,0,0,0,0,0,0,0,0,0,0,0,
0,0,0,0,0,0,0,0,0,0,0,0,0,0,0,0,
0,0,0,0,0,0,0,0,0,0,0,0,0,0,0,0,
0,0,0,0,0,0,0,0,0,0,0,0,0,0,0,0,
0,0,0,0,0,0,0,0,0,0,0,0,0,0,0,0,
0,0,0,0,0,0,0,0,0,0,0,0,0,0,0,0,
0,0,0,0,0,0,0,0,0,0,0,0,0,0,0,0
</chunk>
   </data>
  </layer>
 </group>
 <group id="23" name="Tent2">
  <layer id="22" name="Shadow" width="16" height="24">
   <data encoding="csv">
    <chunk x="0" y="-16" width="16" height="16">
0,0,0,0,0,0,0,0,0,0,0,0,0,0,0,0,
0,0,0,0,0,0,0,0,0,0,0,0,0,0,0,0,
0,0,0,0,0,0,0,0,0,0,0,0,0,0,0,0,
0,0,0,0,0,0,0,0,0,0,0,0,0,0,0,0,
0,0,0,0,0,0,0,0,0,0,0,0,0,0,0,0,
0,0,0,0,0,0,0,0,0,0,0,0,0,0,0,0,
0,0,0,0,0,0,0,0,0,0,0,0,0,0,0,0,
0,0,0,0,0,0,0,0,0,0,0,0,0,0,0,0,
0,0,0,0,0,0,0,0,0,0,0,0,0,0,0,0,
0,0,0,0,0,0,0,0,0,0,0,0,0,0,0,0,
0,0,0,0,0,0,0,0,0,0,0,0,0,0,0,0,
0,0,0,0,0,0,0,0,0,0,0,0,0,0,0,0,
0,0,1218,1219,1220,1221,1222,0,0,0,0,0,0,0,0,0,
0,0,1244,1245,1246,1247,1248,0,0,0,0,0,0,0,0,0,
0,1269,1270,1271,1272,1273,1274,0,0,0,0,0,0,0,0,0,
0,1295,1296,1297,1298,1299,1300,1301,0,0,0,0,0,0,0,0
</chunk>
    <chunk x="0" y="0" width="16" height="16">
0,1321,1322,1323,1324,1325,1326,1327,1328,0,0,0,0,0,0,0,
0,0,0,0,1350,1351,1352,1353,0,0,0,0,0,0,0,0,
0,0,0,0,0,0,0,0,0,0,0,0,0,0,0,0,
0,0,0,0,0,0,0,0,0,0,0,0,0,0,0,0,
0,0,0,0,0,0,0,0,0,0,0,0,0,0,0,0,
0,0,0,0,0,0,0,0,0,0,0,0,0,0,0,0,
0,0,0,0,0,0,0,0,0,0,0,0,0,0,0,0,
0,0,0,0,0,0,0,0,0,0,0,0,0,0,0,0,
0,0,0,0,0,0,0,0,0,0,0,0,0,0,0,0,
0,0,0,0,0,0,0,0,0,0,0,0,0,0,0,0,
0,0,0,0,0,0,0,0,0,0,0,0,0,0,0,0,
0,0,0,0,0,0,0,0,0,0,0,0,0,0,0,0,
0,0,0,0,0,0,0,0,0,0,0,0,0,0,0,0,
0,0,0,0,0,0,0,0,0,0,0,0,0,0,0,0,
0,0,0,0,0,0,0,0,0,0,0,0,0,0,0,0,
0,0,0,0,0,0,0,0,0,0,0,0,0,0,0,0
</chunk>
   </data>
  </layer>
  <layer id="74" name="tent_back" width="16" height="24">
   <data encoding="csv">
    <chunk x="0" y="-16" width="16" height="16">
0,0,0,0,0,0,0,0,0,0,0,0,0,0,0,0,
0,0,0,0,0,0,0,0,0,0,0,0,0,0,0,0,
0,0,0,0,0,0,0,0,0,0,0,0,0,0,0,0,
0,0,0,0,0,0,0,0,0,0,0,0,0,0,0,0,
0,0,0,0,0,0,0,0,0,0,0,0,0,0,0,0,
0,0,0,0,0,0,0,0,0,0,0,0,0,0,0,0,
0,0,0,0,0,0,0,0,0,0,0,0,0,0,0,0,
0,0,0,0,0,0,0,0,0,0,0,0,0,0,0,0,
0,0,0,0,0,0,0,0,0,0,0,0,0,0,0,0,
0,0,0,0,0,0,0,0,0,0,0,0,0,0,0,0,
0,0,0,0,0,0,0,0,0,0,0,0,0,0,0,0,
0,0,0,0,0,0,0,0,0,0,0,0,0,0,0,0,
0,0,0,0,0,0,0,0,0,0,0,0,0,0,0,0,
0,0,0,0,1398,1399,0,0,0,0,0,0,0,0,0,0,
0,0,0,0,1424,1425,0,0,0,0,0,0,0,0,0,0,
0,0,0,0,0,0,0,0,0,0,0,0,0,0,0,0
</chunk>
   </data>
  </layer>
  <layer id="21" name="Objects5" width="16" height="24">
   <data encoding="csv">
    <chunk x="0" y="-16" width="16" height="16">
0,0,0,0,0,0,0,0,0,0,0,0,0,0,0,0,
0,0,0,0,0,0,0,0,0,0,0,0,0,0,0,0,
0,0,0,0,0,0,0,0,0,0,0,0,0,0,0,0,
0,0,0,0,0,0,0,0,0,0,0,0,0,0,0,0,
0,0,0,0,0,0,0,0,0,0,0,0,0,0,0,0,
0,0,0,0,0,0,0,0,0,0,0,0,0,0,0,0,
0,0,0,0,0,0,0,0,0,0,0,0,0,0,0,0,
0,0,0,0,0,0,0,0,0,0,0,0,0,0,0,0,
0,0,0,0,0,0,0,0,0,0,0,0,0,0,0,0,
0,0,0,0,0,0,0,0,0,0,0,0,0,0,0,0,
0,0,0,0,0,0,0,0,0,0,0,0,0,0,0,0,
0,0,0,0,0,0,0,0,0,0,0,0,0,0,0,0,
0,0,0,0,0,0,0,0,0,0,0,0,0,0,0,0,
0,0,0,1202,1203,1204,0,0,0,0,0,0,0,0,0,0,
0,0,1227,1228,1229,1230,0,0,0,0,0,0,0,0,0,0,
0,0,1253,1254,1255,1256,0,0,0,0,0,0,0,0,0,0
</chunk>
    <chunk x="0" y="0" width="16" height="16">
0,0,0,1280,1281,1282,0,0,0,0,0,0,0,0,0,0,
0,0,0,0,0,0,0,0,0,0,0,0,0,0,0,0,
0,0,0,0,0,0,0,0,0,0,0,0,0,0,0,0,
0,0,0,0,0,0,0,0,0,0,0,0,0,0,0,0,
0,0,0,0,0,0,0,0,0,0,0,0,0,0,0,0,
0,0,0,0,0,0,0,0,0,0,0,0,0,0,0,0,
0,0,0,0,0,0,0,0,0,0,0,0,0,0,0,0,
0,0,0,0,0,0,0,0,0,0,0,0,0,0,0,0,
0,0,0,0,0,0,0,0,0,0,0,0,0,0,0,0,
0,0,0,0,0,0,0,0,0,0,0,0,0,0,0,0,
0,0,0,0,0,0,0,0,0,0,0,0,0,0,0,0,
0,0,0,0,0,0,0,0,0,0,0,0,0,0,0,0,
0,0,0,0,0,0,0,0,0,0,0,0,0,0,0,0,
0,0,0,0,0,0,0,0,0,0,0,0,0,0,0,0,
0,0,0,0,0,0,0,0,0,0,0,0,0,0,0,0,
0,0,0,0,0,0,0,0,0,0,0,0,0,0,0,0
</chunk>
   </data>
  </layer>
  <layer id="20" name="Objects4" width="16" height="24">
   <data encoding="csv">
    <chunk x="0" y="-16" width="16" height="16">
0,0,0,0,0,0,0,0,0,0,0,0,0,0,0,0,
0,0,0,0,0,0,0,0,0,0,0,0,0,0,0,0,
0,0,0,0,0,0,0,0,0,0,0,0,0,0,0,0,
0,0,0,0,0,0,0,0,0,0,0,0,0,0,0,0,
0,0,0,0,0,0,0,0,0,0,0,0,0,0,0,0,
0,0,0,0,0,0,0,0,0,0,0,0,0,0,0,0,
0,0,0,0,0,0,0,0,0,0,0,0,0,0,0,0,
0,0,0,0,0,0,0,0,0,0,0,0,0,0,0,0,
0,0,0,0,0,0,0,0,0,0,0,0,0,0,0,0,
0,0,0,0,0,0,0,0,0,0,0,0,0,0,0,0,
0,0,0,0,0,0,0,0,0,0,0,0,0,0,0,0,
0,0,0,0,0,0,0,0,0,0,0,0,0,0,0,0,
0,0,0,0,0,0,0,0,0,0,0,0,0,0,0,0,
0,0,0,1354,1355,0,0,0,0,0,0,0,0,0,0,0,
0,0,0,1380,1381,0,0,0,0,0,0,0,0,0,0,0,
0,0,0,0,0,0,0,0,0,0,0,0,0,0,0,0
</chunk>
   </data>
  </layer>
  <layer id="19" name="Objects3" width="16" height="24">
   <data encoding="csv">
    <chunk x="0" y="-16" width="16" height="16">
0,0,0,0,0,0,0,0,0,0,0,0,0,0,0,0,
0,0,0,0,0,0,0,0,0,0,0,0,0,0,0,0,
0,0,0,0,0,0,0,0,0,0,0,0,0,0,0,0,
0,0,0,0,0,0,0,0,0,0,0,0,0,0,0,0,
0,0,0,0,0,0,0,0,0,0,0,0,0,0,0,0,
0,0,0,0,0,0,0,0,0,0,0,0,0,0,0,0,
0,0,0,0,0,0,0,0,0,0,0,0,0,0,0,0,
0,0,0,0,0,0,0,0,0,0,0,0,0,0,0,0,
0,0,0,0,0,0,0,0,0,0,0,0,0,0,0,0,
0,0,0,0,0,0,0,0,0,0,0,0,0,0,0,0,
0,0,0,0,0,0,0,0,0,0,0,0,0,0,0,0,
0,0,0,0,0,0,0,0,0,0,0,0,0,0,0,0,
0,0,1206,1207,0,0,0,0,0,0,0,0,0,0,0,0,
0,0,1232,1233,0,0,0,0,0,0,0,0,0,0,0,0,
0,0,0,0,1216,1217,0,0,0,0,0,0,0,0,0,0,
0,0,0,0,1242,1243,0,0,0,0,0,0,0,0,0,0
</chunk>
   </data>
  </layer>
  <layer id="16" name="Tent2" width="16" height="24">
   <data encoding="csv">
    <chunk x="0" y="-16" width="16" height="16">
0,0,0,0,0,0,0,0,0,0,0,0,0,0,0,0,
0,0,0,0,0,0,0,0,0,0,0,0,0,0,0,0,
0,0,0,0,0,0,0,0,0,0,0,0,0,0,0,0,
0,0,0,0,0,0,0,0,0,0,0,0,0,0,0,0,
0,0,0,0,0,0,0,0,0,0,0,0,0,0,0,0,
0,0,0,0,0,0,0,0,0,0,0,0,0,0,0,0,
0,0,0,0,0,0,0,0,0,0,0,0,0,0,0,0,
0,0,0,0,0,0,0,0,0,0,0,0,1185,1186,1187,0,
0,0,0,0,0,0,0,0,0,0,0,0,0,0,0,0,
0,0,0,0,0,0,0,0,0,0,0,0,0,0,0,0,
0,0,0,0,0,0,0,0,0,0,0,0,0,0,0,0,
0,0,0,1212,1213,0,0,0,0,0,0,0,0,0,0,0,
0,0,0,1238,1239,1240,1241,0,0,0,0,0,0,0,0,0,
0,0,1263,1264,1265,1266,1267,1268,0,0,0,0,0,0,0,0,
0,0,1289,1290,1291,1292,1293,1294,0,0,0,0,0,0,0,0,
0,0,0,1316,1317,1318,1319,1320,0,0,0,0,0,0,0,0
</chunk>
    <chunk x="16" y="-16" width="16" height="16">
0,0,0,0,0,0,0,0,0,0,0,0,0,0,0,0,
0,0,0,0,0,0,0,0,0,0,0,0,0,0,0,0,
0,0,0,0,0,0,0,0,0,0,0,0,0,0,0,0,
0,0,0,0,0,0,0,0,0,0,0,0,0,0,0,0,
0,0,0,0,0,0,0,0,0,0,0,0,0,0,0,0,
0,0,0,0,0,0,0,0,0,0,0,0,0,0,0,0,
0,0,0,0,0,0,0,0,0,0,0,0,0,0,0,0,
0,0,0,0,0,0,0,0,0,0,0,0,0,0,0,0,
0,0,0,0,0,0,0,0,0,0,0,0,0,0,0,0,
0,0,0,0,0,0,0,0,0,0,0,0,0,0,0,0,
0,0,0,0,0,0,0,0,0,0,0,0,0,0,0,0,
0,0,0,0,0,0,0,0,0,0,0,0,0,0,0,0,
0,0,1321,0,0,0,0,0,0,0,0,0,0,0,0,0,
0,0,0,0,0,0,0,0,0,0,0,0,0,0,0,0,
0,0,0,0,0,0,0,0,0,0,0,0,0,0,0,0,
0,0,0,0,0,0,0,0,0,0,0,0,0,0,0,0
</chunk>
    <chunk x="0" y="0" width="16" height="16">
0,0,0,0,1343,1344,1345,1346,0,0,0,0,0,0,0,0,
0,0,0,0,0,0,0,0,0,0,0,0,0,0,0,0,
0,0,0,0,0,0,0,0,0,0,0,0,0,0,0,0,
0,0,0,0,0,0,0,0,0,0,0,0,0,0,0,0,
0,0,0,0,0,0,0,0,0,0,0,0,0,0,0,0,
0,0,0,0,0,0,0,0,0,0,0,0,0,0,0,0,
0,0,0,0,0,0,0,0,0,0,0,0,0,0,0,0,
0,0,0,0,0,0,0,0,0,0,0,0,0,0,0,0,
0,0,0,0,0,0,0,0,0,0,0,0,0,0,0,0,
0,0,0,0,0,0,0,0,0,0,0,0,0,0,0,0,
0,0,0,0,0,0,0,0,0,0,0,0,0,0,0,0,
0,0,0,0,0,0,0,0,0,0,0,0,0,0,0,0,
0,0,0,0,0,0,0,0,0,0,0,0,0,0,0,0,
0,0,0,0,0,0,0,0,0,0,0,0,0,0,0,0,
0,0,0,0,0,0,0,0,0,0,0,0,0,0,0,0,
0,0,0,0,0,0,0,0,0,0,0,0,0,0,0,0
</chunk>
   </data>
  </layer>
  <layer id="17" name="Objects1" width="16" height="24">
   <data encoding="csv">
    <chunk x="0" y="-16" width="16" height="16">
0,0,0,0,0,0,0,0,0,0,0,0,0,0,0,0,
0,0,0,0,0,0,0,0,0,0,0,0,0,0,0,0,
0,0,0,0,0,0,0,0,0,0,0,0,0,0,0,0,
0,0,0,0,0,0,0,0,0,0,0,0,0,0,0,0,
0,0,0,0,0,0,0,0,0,0,0,0,0,0,0,0,
0,0,0,0,0,0,0,0,0,0,0,0,0,0,0,0,
0,0,0,0,0,0,0,0,0,0,0,0,0,0,0,0,
0,0,0,0,0,0,0,0,0,0,0,0,0,0,0,0,
0,0,0,0,0,0,0,0,0,0,0,0,0,0,0,0,
0,0,0,0,0,0,0,0,0,0,0,0,0,0,0,0,
0,0,0,0,0,0,0,0,0,0,0,0,0,0,0,0,
0,0,0,0,0,0,0,0,0,0,0,0,0,0,0,0,
0,0,0,0,0,0,0,0,0,0,0,0,0,0,0,0,
0,0,0,0,0,0,0,0,0,0,0,0,0,0,0,0,
0,0,0,0,0,0,0,0,0,0,0,0,0,0,0,0,
0,0,0,1333,1334,0,0,0,0,0,0,0,0,0,0,0
</chunk>
    <chunk x="0" y="0" width="16" height="16">
0,0,0,1359,1360,0,0,0,0,0,0,0,0,0,0,0,
0,0,0,1385,1386,0,0,0,0,0,0,0,0,0,0,0,
0,0,0,0,0,0,0,0,0,0,0,0,0,0,0,0,
0,0,0,0,0,0,0,0,0,0,0,0,0,0,0,0,
0,0,0,0,0,0,0,0,0,0,0,0,0,0,0,0,
0,0,0,0,0,0,0,0,0,0,0,0,0,0,0,0,
0,0,0,0,0,0,0,0,0,0,0,0,0,0,0,0,
0,0,0,0,0,0,0,0,0,0,0,0,0,0,0,0,
0,0,0,0,0,0,0,0,0,0,0,0,0,0,0,0,
0,0,0,0,0,0,0,0,0,0,0,0,0,0,0,0,
0,0,0,0,0,0,0,0,0,0,0,0,0,0,0,0,
0,0,0,0,0,0,0,0,0,0,0,0,0,0,0,0,
0,0,0,0,0,0,0,0,0,0,0,0,0,0,0,0,
0,0,0,0,0,0,0,0,0,0,0,0,0,0,0,0,
0,0,0,0,0,0,0,0,0,0,0,0,0,0,0,0,
0,0,0,0,0,0,0,0,0,0,0,0,0,0,0,0
</chunk>
   </data>
  </layer>
  <layer id="18" name="Objects2" width="16" height="24">
   <data encoding="csv">
    <chunk x="0" y="-16" width="16" height="16">
0,0,0,0,0,0,0,0,0,0,0,0,0,0,0,0,
0,0,0,0,0,0,0,0,0,0,0,0,0,0,0,0,
0,0,0,0,0,0,0,0,0,0,0,0,0,0,0,0,
0,0,0,0,0,0,0,0,0,0,0,0,0,0,0,0,
0,0,0,0,0,0,0,0,0,0,0,0,0,0,0,0,
0,0,0,0,0,0,0,0,0,0,0,0,0,0,0,0,
0,0,0,0,0,0,0,0,0,0,0,0,0,0,0,0,
0,0,0,0,0,0,0,0,0,0,0,0,0,0,0,0,
0,0,0,0,0,0,0,0,0,0,0,0,0,0,0,0,
0,0,0,0,0,0,0,0,0,0,0,0,0,0,0,0,
0,0,0,0,0,0,0,0,0,0,0,0,0,0,0,0,
0,0,0,0,0,0,0,0,0,0,0,0,0,0,0,0,
0,0,0,0,0,0,0,0,0,0,0,0,0,0,0,0,
0,0,0,0,0,0,0,0,0,0,0,0,0,0,0,0,
0,1209,1210,1211,0,0,0,0,0,0,0,0,0,0,0,0,
0,1235,1236,1237,0,0,1347,1348,1349,0,0,0,0,0,0,0
</chunk>
    <chunk x="0" y="0" width="16" height="16">
0,0,0,0,0,0,1373,1374,1375,0,0,0,0,0,0,0,
0,0,0,0,0,0,0,0,0,0,0,0,0,0,0,0,
0,0,0,0,0,0,0,0,0,0,0,0,0,0,0,0,
0,0,0,0,0,0,0,0,0,0,0,0,0,0,0,0,
0,0,0,0,0,0,0,0,0,0,0,0,0,0,0,0,
0,0,0,0,0,0,0,0,0,0,0,0,0,0,0,0,
0,0,0,0,0,0,0,0,0,0,0,0,0,0,0,0,
0,0,0,0,0,0,0,0,0,0,0,0,0,0,0,0,
0,0,0,0,0,0,0,0,0,0,0,0,0,0,0,0,
0,0,0,0,0,0,0,0,0,0,0,0,0,0,0,0,
0,0,0,0,0,0,0,0,0,0,0,0,0,0,0,0,
0,0,0,0,0,0,0,0,0,0,0,0,0,0,0,0,
0,0,0,0,0,0,0,0,0,0,0,0,0,0,0,0,
0,0,0,0,0,0,0,0,0,0,0,0,0,0,0,0,
0,0,0,0,0,0,0,0,0,0,0,0,0,0,0,0,
0,0,0,0,0,0,0,0,0,0,0,0,0,0,0,0
</chunk>
   </data>
  </layer>
 </group>
 <group id="31" name="Tent3">
  <layer id="30" name="Shadow" width="16" height="24">
   <data encoding="csv">
    <chunk x="-16" y="-16" width="16" height="16">
0,0,0,0,0,0,0,0,0,0,0,0,0,0,0,0,
0,0,0,0,0,0,0,0,0,0,0,0,0,0,0,0,
0,0,0,0,0,0,0,0,0,0,0,0,0,0,0,0,
0,0,0,0,0,0,0,0,0,0,0,0,0,0,0,0,
0,0,0,0,0,0,0,0,0,0,0,0,0,0,0,0,
0,0,0,0,0,0,0,0,0,0,0,0,0,0,0,0,
0,0,0,0,0,0,0,0,0,0,0,0,0,0,0,0,
0,0,0,0,0,0,0,0,0,0,0,0,0,0,0,0,
0,0,0,0,0,0,0,0,0,0,0,0,0,0,0,0,
0,0,0,0,0,0,0,0,0,0,0,0,0,0,0,0,
0,0,0,0,0,0,0,0,0,0,0,0,0,0,0,0,
0,0,0,0,0,0,0,0,0,0,0,0,0,1058,1059,1060,
0,0,0,0,0,0,0,0,0,0,0,0,0,1084,1085,1086,
0,0,0,0,0,0,0,0,0,0,0,0,0,1110,1111,1112,
0,0,0,0,0,0,0,0,0,0,0,0,0,1136,1137,1138,
0,0,0,0,0,0,0,0,0,0,0,0,0,0,0,0
</chunk>
    <chunk x="0" y="-16" width="16" height="16">
0,0,0,0,0,0,0,0,0,0,0,0,0,0,0,0,
0,0,0,0,0,0,0,0,0,0,0,0,0,0,0,0,
0,0,0,0,0,0,0,0,0,0,0,0,0,0,0,0,
0,0,0,0,0,0,0,0,0,0,0,0,0,0,0,0,
0,0,0,0,0,0,0,0,0,0,0,0,0,0,0,0,
0,0,0,0,0,0,0,0,0,0,0,0,0,0,0,0,
0,0,0,0,0,0,0,0,0,0,0,0,0,0,0,0,
0,0,0,0,0,0,0,0,0,0,0,0,0,0,0,0,
0,0,0,0,0,0,0,0,0,0,0,0,0,0,0,0,
0,0,0,0,0,0,0,0,0,0,0,0,0,0,0,0,
0,0,0,0,0,0,0,0,0,0,0,0,0,0,0,0,
1061,0,0,0,0,0,0,0,0,0,0,0,0,0,0,0,
1087,0,0,0,0,0,0,0,0,0,0,0,0,0,0,0,
1113,0,0,0,0,0,0,0,0,0,0,0,0,0,0,0,
1139,0,0,0,0,0,0,0,0,0,0,0,0,0,0,0,
0,0,0,0,0,0,0,0,0,0,0,0,0,0,0,0
</chunk>
   </data>
  </layer>
  <layer id="29" name="Objects5" width="16" height="24">
   <data encoding="csv">
    <chunk x="-16" y="-16" width="16" height="16">
0,0,0,0,0,0,0,0,0,0,0,0,0,0,0,0,
0,0,0,0,0,0,0,0,0,0,0,0,0,0,0,0,
0,0,0,0,0,0,0,0,0,0,0,0,0,0,0,0,
0,0,0,0,0,0,0,0,0,0,0,0,0,0,0,0,
0,0,0,0,0,0,0,0,0,0,0,0,0,0,0,0,
0,0,0,0,0,0,0,0,0,0,0,0,0,0,0,0,
0,0,0,0,0,0,0,0,0,0,0,0,0,0,0,0,
0,0,0,0,0,0,0,0,0,0,0,0,0,0,0,0,
0,0,0,0,0,0,0,0,0,0,0,0,0,0,0,0,
0,0,0,0,0,0,0,0,0,0,0,0,0,0,0,0,
0,0,0,0,0,0,0,0,0,0,0,0,0,0,0,0,
0,0,0,0,0,0,0,0,0,0,0,0,0,1070,1071,1072,
0,0,0,0,0,0,0,0,0,0,0,0,0,1096,1097,1098,
0,0,0,0,0,0,0,0,0,0,0,0,0,1122,1123,1124,
0,0,0,0,0,0,0,0,0,0,0,0,0,1148,1149,1150,
0,0,0,0,0,0,0,0,0,0,0,0,0,0,0,0
</chunk>
    <chunk x="0" y="-16" width="16" height="16">
0,0,0,0,0,0,0,0,0,0,0,0,0,0,0,0,
0,0,0,0,0,0,0,0,0,0,0,0,0,0,0,0,
0,0,0,0,0,0,0,0,0,0,0,0,0,0,0,0,
0,0,0,0,0,0,0,0,0,0,0,0,0,0,0,0,
0,0,0,0,0,0,0,0,0,0,0,0,0,0,0,0,
0,0,0,0,0,0,0,0,0,0,0,0,0,0,0,0,
0,0,0,0,0,0,0,0,0,0,0,0,0,0,0,0,
0,0,0,0,0,0,0,0,0,0,0,0,0,0,0,0,
0,0,0,0,0,0,0,0,0,0,0,0,0,0,0,0,
0,0,0,0,0,0,0,0,0,0,0,0,0,0,0,0,
0,0,0,0,0,0,0,0,0,0,0,0,0,0,0,0,
1073,1074,0,0,0,0,0,0,0,0,0,0,0,0,0,0,
1099,1100,0,0,0,0,0,0,0,0,0,0,0,0,0,0,
1125,1126,0,0,0,0,0,0,0,0,0,0,0,0,0,0,
1151,1152,0,0,0,0,0,0,0,0,0,0,0,0,0,0,
0,0,0,0,0,0,0,0,0,0,0,0,0,0,0,0
</chunk>
   </data>
  </layer>
  <layer id="27" name="Objects3" width="16" height="24">
   <data encoding="csv">
    <chunk x="-16" y="-16" width="16" height="16">
0,0,0,0,0,0,0,0,0,0,0,0,0,0,0,0,
0,0,0,0,0,0,0,0,0,0,0,0,0,0,0,0,
0,0,0,0,0,0,0,0,0,0,0,0,0,0,0,0,
0,0,0,0,0,0,0,0,0,0,0,0,0,0,0,0,
0,0,0,0,0,0,0,0,0,0,0,0,0,0,0,0,
0,0,0,0,0,0,0,0,0,0,0,0,0,0,0,0,
0,0,0,0,0,0,0,0,0,0,0,0,0,0,0,0,
0,0,0,0,0,0,0,0,0,0,0,0,0,0,0,0,
0,0,0,0,0,0,0,0,0,0,0,0,0,0,0,0,
0,0,0,0,0,0,0,0,0,0,0,0,0,0,0,0,
0,0,0,0,0,0,0,0,0,0,0,0,0,0,0,0,
0,0,0,0,0,0,0,0,0,0,0,0,0,0,0,0,
0,0,0,0,0,0,0,0,0,0,0,0,0,0,1172,1173,
0,0,0,0,0,0,0,0,0,0,0,0,0,0,1198,1199,
0,0,0,0,0,0,0,0,0,0,0,0,0,0,0,0,
0,0,0,0,0,0,0,0,0,0,0,0,0,0,0,0
</chunk>
    <chunk x="0" y="-16" width="16" height="16">
0,0,0,0,0,0,0,0,0,0,0,0,0,0,0,0,
0,0,0,0,0,0,0,0,0,0,0,0,0,0,0,0,
0,0,0,0,0,0,0,0,0,0,0,0,0,0,0,0,
0,0,0,0,0,0,0,0,0,0,0,0,0,0,0,0,
0,0,0,0,0,0,0,0,0,0,0,0,0,0,0,0,
0,0,0,0,0,0,0,0,0,0,0,0,0,0,0,0,
0,0,0,0,0,0,0,0,0,0,0,0,0,0,0,0,
0,0,0,0,0,0,0,0,0,0,0,0,0,0,0,0,
0,0,0,0,0,0,0,0,0,0,0,0,0,0,0,0,
0,0,0,0,0,0,0,0,0,0,0,0,0,0,0,0,
0,0,0,0,0,0,0,0,0,0,0,0,0,0,0,0,
0,0,0,0,0,0,0,0,0,0,0,0,0,0,0,0,
0,0,0,0,0,0,0,0,0,0,0,0,0,0,0,0,
1170,1171,0,0,0,0,0,0,0,0,0,0,0,0,0,0,
1196,1197,0,0,0,0,0,0,0,0,0,0,0,0,0,0,
0,0,0,0,0,0,0,0,0,0,0,0,0,0,0,0
</chunk>
   </data>
  </layer>
  <layer id="28" name="Objects4" width="16" height="24">
   <data encoding="csv">
    <chunk x="-16" y="-16" width="16" height="16">
0,0,0,0,0,0,0,0,0,0,0,0,0,0,0,0,
0,0,0,0,0,0,0,0,0,0,0,0,0,0,0,0,
0,0,0,0,0,0,0,0,0,0,0,0,0,0,0,0,
0,0,0,0,0,0,0,0,0,0,0,0,0,0,0,0,
0,0,0,0,0,0,0,0,0,0,0,0,0,0,0,0,
0,0,0,0,0,0,0,0,0,0,0,0,0,0,0,0,
0,0,0,0,0,0,0,0,0,0,0,0,0,0,0,0,
0,0,0,0,0,0,0,0,0,0,0,0,0,0,0,0,
0,0,0,0,0,0,0,0,0,0,0,0,0,0,0,0,
0,0,0,0,0,0,0,0,0,0,0,0,0,0,0,0,
0,0,0,0,0,0,0,0,0,0,0,0,0,0,0,0,
0,0,0,0,0,0,0,0,0,0,0,0,0,0,0,0,
0,0,0,0,0,0,0,0,0,0,0,0,0,0,0,0,
0,0,0,0,0,0,0,0,0,0,0,0,0,1174,1175,1176,
0,0,0,0,0,0,0,0,0,0,0,0,0,1200,1201,0,
0,0,0,0,0,0,0,0,0,0,0,0,0,0,0,0
</chunk>
   </data>
  </layer>
  <layer id="24" name="Tent3" width="16" height="24">
   <data encoding="csv">
    <chunk x="-16" y="-16" width="16" height="16">
0,0,0,0,0,0,0,0,0,0,0,0,0,0,0,0,
0,0,0,0,0,0,0,0,0,0,0,0,0,0,0,0,
0,0,0,0,0,0,0,0,0,0,0,0,0,0,0,0,
0,0,0,0,0,0,0,0,0,0,0,0,0,0,0,0,
0,0,0,0,0,0,0,0,0,0,0,0,0,0,0,0,
0,0,0,0,0,0,0,0,0,0,0,0,0,0,0,0,
0,0,0,0,0,0,0,0,0,0,0,0,0,0,0,0,
0,0,0,0,0,0,0,0,0,0,0,0,0,0,0,0,
0,0,0,0,0,0,0,0,0,0,0,0,0,0,0,0,
0,0,0,0,0,0,0,0,0,0,0,0,0,1054,1055,1056,
0,0,0,0,0,0,0,0,0,0,0,0,0,1080,1081,1082,
0,0,0,0,0,0,0,0,0,0,0,0,0,1106,1107,1108,
0,0,0,0,0,0,0,0,0,0,0,0,0,1132,1133,1134,
0,0,0,0,0,0,0,0,0,0,0,0,0,1158,1159,1160,
0,0,0,0,0,0,0,0,0,0,0,0,0,1184,1185,1186,
0,0,0,0,0,0,0,0,0,0,0,0,0,0,0,0
</chunk>
    <chunk x="0" y="-16" width="16" height="16">
0,0,0,0,0,0,0,0,0,0,0,0,0,0,0,0,
0,0,0,0,0,0,0,0,0,0,0,0,0,0,0,0,
0,0,0,0,0,0,0,0,0,0,0,0,0,0,0,0,
0,0,0,0,0,0,0,0,0,0,0,0,0,0,0,0,
0,0,0,0,0,0,0,0,0,0,0,0,0,0,0,0,
0,0,0,0,0,0,0,0,0,0,0,0,0,0,0,0,
0,0,0,0,0,0,0,0,0,0,0,0,0,0,0,0,
0,0,0,0,0,0,0,0,0,0,0,0,0,0,0,0,
0,0,0,0,0,0,0,0,0,0,0,0,0,0,0,0,
1057,0,0,0,0,0,0,0,0,0,0,0,0,0,0,0,
1083,0,0,0,0,0,0,0,0,0,0,0,0,0,0,0,
1109,0,0,0,0,0,0,0,0,0,0,0,0,0,0,0,
1135,0,0,0,0,0,0,0,0,0,0,0,0,0,0,0,
1161,0,0,0,0,0,0,0,0,0,0,0,0,0,0,0,
1187,0,0,0,0,0,0,0,0,0,0,0,0,0,0,0,
0,0,0,0,0,0,0,0,0,0,0,0,0,0,0,0
</chunk>
   </data>
  </layer>
  <layer id="25" name="Objects1" width="16" height="24">
   <data encoding="csv">
    <chunk x="-16" y="-16" width="16" height="16">
0,0,0,0,0,0,0,0,0,0,0,0,0,0,0,0,
0,0,0,0,0,0,0,0,0,0,0,0,0,0,0,0,
0,0,0,0,0,0,0,0,0,0,0,0,0,0,0,0,
0,0,0,0,0,0,0,0,0,0,0,0,0,0,0,0,
0,0,0,0,0,0,0,0,0,0,0,0,0,0,0,0,
0,0,0,0,0,0,0,0,0,0,0,0,0,0,0,0,
0,0,0,0,0,0,0,0,0,0,0,0,0,0,0,0,
0,0,0,0,0,0,0,0,0,0,0,0,0,0,0,0,
0,0,0,0,0,0,0,0,0,0,0,0,0,0,0,0,
0,0,0,0,0,0,0,0,0,0,0,0,0,0,0,0,
0,0,0,0,0,0,0,0,0,0,0,0,0,0,0,0,
0,0,0,0,0,0,0,0,0,0,0,0,0,0,0,0,
0,0,0,0,0,0,0,0,0,0,0,0,0,0,0,0,
0,0,0,0,0,0,0,0,0,0,0,0,0,1166,1167,1164,
0,0,0,0,0,0,0,0,0,0,0,0,0,1192,1193,1190,
0,0,0,0,0,0,0,0,0,0,0,0,0,0,0,0
</chunk>
    <chunk x="0" y="-16" width="16" height="16">
0,0,0,0,0,0,0,0,0,0,0,0,0,0,0,0,
0,0,0,0,0,0,0,0,0,0,0,0,0,0,0,0,
0,0,0,0,0,0,0,0,0,0,0,0,0,0,0,0,
0,0,0,0,0,0,0,0,0,0,0,0,0,0,0,0,
0,0,0,0,0,0,0,0,0,0,0,0,0,0,0,0,
0,0,0,0,0,0,0,0,0,0,0,0,0,0,0,0,
0,0,0,0,0,0,0,0,0,0,0,0,0,0,0,0,
0,0,0,0,0,0,0,0,0,0,0,0,0,0,0,0,
0,0,0,0,0,0,0,0,0,0,0,0,0,0,0,0,
0,0,0,0,0,0,0,0,0,0,0,0,0,0,0,0,
0,0,0,0,0,0,0,0,0,0,0,0,0,0,0,0,
0,0,0,0,0,0,0,0,0,0,0,0,0,0,0,0,
0,0,0,0,0,0,0,0,0,0,0,0,0,0,0,0,
1165,0,0,0,0,0,0,0,0,0,0,0,0,0,0,0,
1191,0,0,0,0,0,0,0,0,0,0,0,0,0,0,0,
0,0,0,0,0,0,0,0,0,0,0,0,0,0,0,0
</chunk>
   </data>
  </layer>
  <layer id="26" name="Objects2" width="16" height="24">
   <data encoding="csv">
    <chunk x="0" y="-16" width="16" height="16">
0,0,0,0,0,0,0,0,0,0,0,0,0,0,0,0,
0,0,0,0,0,0,0,0,0,0,0,0,0,0,0,0,
0,0,0,0,0,0,0,0,0,0,0,0,0,0,0,0,
0,0,0,0,0,0,0,0,0,0,0,0,0,0,0,0,
0,0,0,0,0,0,0,0,0,0,0,0,0,0,0,0,
0,0,0,0,0,0,0,0,0,0,0,0,0,0,0,0,
0,0,0,0,0,0,0,0,0,0,0,0,0,0,0,0,
0,0,0,0,0,0,0,0,0,0,0,0,0,0,0,0,
0,0,0,0,0,0,0,0,0,0,0,0,0,0,0,0,
0,0,0,0,0,0,0,0,0,0,0,0,0,0,0,0,
0,0,0,0,0,0,0,0,0,0,0,0,0,0,0,0,
0,0,0,0,0,0,0,0,0,0,0,0,0,0,0,0,
0,0,0,0,0,0,0,0,0,0,0,0,0,0,0,0,
0,0,0,0,0,0,0,0,0,0,0,0,0,0,0,0,
1168,1169,0,0,0,0,0,0,0,0,0,0,0,0,0,0,
1194,1195,0,0,0,0,0,0,0,0,0,0,0,0,0,0
</chunk>
   </data>
  </layer>
 </group>
 <group id="40" name="Tent4">
  <layer id="39" name="Shadow" width="16" height="24">
   <data encoding="csv">
    <chunk x="-16" y="0" width="16" height="16">
0,0,0,0,0,0,0,0,0,0,0,0,0,0,0,0,
0,0,0,0,0,0,0,0,0,0,0,0,0,0,0,0,
0,0,0,0,0,0,0,0,1530,1531,1532,1533,1534,0,0,0,
0,0,0,0,0,0,0,0,1556,1557,1558,1559,1560,0,0,0,
0,0,0,0,0,0,1580,1581,1582,1583,1584,1585,1586,0,0,0,
0,0,0,0,0,0,1606,1607,1608,1609,1610,1611,1612,0,0,0,
0,0,0,0,0,0,0,1633,1634,1635,1636,1637,1638,0,0,0,
0,0,0,0,0,0,0,0,0,0,0,0,0,0,0,0,
0,0,0,0,0,0,0,0,0,0,0,0,0,0,0,0,
0,0,0,0,0,0,0,0,0,0,0,0,0,0,0,0,
0,0,0,0,0,0,0,0,0,0,0,0,0,0,0,0,
0,0,0,0,0,0,0,0,0,0,0,0,0,0,0,0,
0,0,0,0,0,0,0,0,0,0,0,0,0,0,0,0,
0,0,0,0,0,0,0,0,0,0,0,0,0,0,0,0,
0,0,0,0,0,0,0,0,0,0,0,0,0,0,0,0,
0,0,0,0,0,0,0,0,0,0,0,0,0,0,0,0
</chunk>
   </data>
  </layer>
  <layer id="38" name="Objects6" width="16" height="24">
   <data encoding="csv">
    <chunk x="-16" y="0" width="16" height="16">
0,0,0,0,0,0,0,0,0,0,0,0,0,0,0,0,
0,0,0,0,0,0,0,0,0,0,0,0,0,0,0,0,
0,0,0,0,0,0,0,0,1638,1639,1640,0,0,0,0,0,
0,0,0,0,0,0,0,1663,1664,1665,1666,1667,1668,0,0,0,
0,0,0,0,0,0,0,1689,1690,1691,1692,1693,1694,0,0,0,
0,0,0,0,0,0,0,1715,1716,1717,1718,1719,0,0,0,0,
0,0,0,0,0,0,0,0,0,1743,1744,1745,0,0,0,0,
0,0,0,0,0,0,0,0,0,1769,1770,1771,0,0,0,0,
0,0,0,0,0,0,0,0,0,0,0,0,0,0,0,0,
0,0,0,0,0,0,0,0,0,0,0,0,0,0,0,0,
0,0,0,0,0,0,0,0,0,0,0,0,0,0,0,0,
0,0,0,0,0,0,0,0,0,0,0,0,0,0,0,0,
0,0,0,0,0,0,0,0,0,0,0,0,0,0,0,0,
0,0,0,0,0,0,0,0,0,0,0,0,0,0,0,0,
0,0,0,0,0,0,0,0,0,0,0,0,0,0,0,0,
0,0,0,0,0,0,0,0,0,0,0,0,0,0,0,0
</chunk>
   </data>
  </layer>
  <layer id="37" name="Objects5" width="16" height="24">
   <data encoding="csv">
    <chunk x="-16" y="0" width="16" height="16">
0,0,0,0,0,0,0,0,0,0,0,0,0,0,0,0,
0,0,0,0,0,0,0,0,0,0,0,0,0,0,0,0,
0,0,0,0,0,0,0,0,0,0,0,0,0,0,0,0,
0,0,0,0,0,0,0,0,1540,1541,1542,0,0,0,0,0,
0,0,0,0,0,0,0,0,1566,1567,1568,0,0,0,0,0,
0,0,0,0,0,0,0,0,0,0,0,0,0,0,0,0,
0,0,0,0,0,0,0,0,0,0,0,0,0,0,0,0,
0,0,0,0,0,0,0,0,0,0,0,0,0,0,0,0,
0,0,0,0,0,0,0,0,0,0,0,0,0,0,0,0,
0,0,0,0,0,0,0,0,0,0,0,0,0,0,0,0,
0,0,0,0,0,0,0,0,0,0,0,0,0,0,0,0,
0,0,0,0,0,0,0,0,0,0,0,0,0,0,0,0,
0,0,0,0,0,0,0,0,0,0,0,0,0,0,0,0,
0,0,0,0,0,0,0,0,0,0,0,0,0,0,0,0,
0,0,0,0,0,0,0,0,0,0,0,0,0,0,0,0,
0,0,0,0,0,0,0,0,0,0,0,0,0,0,0,0
</chunk>
   </data>
  </layer>
  <layer id="36" name="Objects4" width="16" height="24">
   <data encoding="csv">
    <chunk x="-16" y="0" width="16" height="16">
0,0,0,0,0,0,0,0,0,0,0,0,0,0,0,0,
0,0,0,0,0,0,0,0,0,0,0,0,0,0,0,0,
0,0,0,0,0,0,0,0,0,0,0,0,0,0,0,0,
0,0,0,0,0,0,0,1587,1588,0,0,0,0,0,0,0,
0,0,0,0,0,0,0,1613,1614,0,0,0,0,0,0,0,
0,0,0,0,0,0,0,0,0,0,0,0,0,0,0,0,
0,0,0,0,0,0,0,0,0,0,0,0,0,0,0,0,
0,0,0,0,0,0,0,0,0,0,0,0,0,0,0,0,
0,0,0,0,0,0,0,0,0,0,0,0,0,0,0,0,
0,0,0,0,0,0,0,0,0,0,0,0,0,0,0,0,
0,0,0,0,0,0,0,0,0,0,0,0,0,0,0,0,
0,0,0,0,0,0,0,0,0,0,0,0,0,0,0,0,
0,0,0,0,0,0,0,0,0,0,0,0,0,0,0,0,
0,0,0,0,0,0,0,0,0,0,0,0,0,0,0,0,
0,0,0,0,0,0,0,0,0,0,0,0,0,0,0,0,
0,0,0,0,0,0,0,0,0,0,0,0,0,0,0,0
</chunk>
   </data>
  </layer>
  <layer id="35" name="Objects3" width="16" height="24">
   <data encoding="csv">
    <chunk x="-16" y="0" width="16" height="16">
0,0,0,0,0,0,0,0,0,0,0,0,0,0,0,0,
0,0,0,0,0,0,0,0,0,0,0,0,0,0,0,0,
0,0,0,0,0,0,0,0,0,0,0,1704,1705,0,0,0,
0,0,0,0,0,0,0,0,0,0,0,1730,1731,0,0,0,
0,0,0,0,0,0,0,0,1741,1742,0,0,0,0,0,0,
0,0,0,0,0,0,0,0,1767,1768,0,0,0,0,0,0,
0,0,0,0,0,0,0,0,0,0,0,0,0,0,0,0,
0,0,0,0,0,0,0,0,0,0,0,0,0,0,0,0,
0,0,0,0,0,0,0,0,0,0,0,0,0,0,0,0,
0,0,0,0,0,0,0,0,0,0,0,0,0,0,0,0,
0,0,0,0,0,0,0,0,0,0,0,0,0,0,0,0,
0,0,0,0,0,0,0,0,0,0,0,0,0,0,0,0,
0,0,0,0,0,0,0,0,0,0,0,0,0,0,0,0,
0,0,0,0,0,0,0,0,0,0,0,0,0,0,0,0,
0,0,0,0,0,0,0,0,0,0,0,0,0,0,0,0,
0,0,0,0,0,0,0,0,0,0,0,0,0,0,0,0
</chunk>
   </data>
  </layer>
  <layer id="32" name="Tent4" width="16" height="24">
   <data encoding="csv">
    <chunk x="-16" y="0" width="16" height="16">
0,0,0,0,0,0,0,0,0,0,0,0,0,0,0,0,
0,0,0,0,0,0,0,0,0,1577,1578,1579,0,0,0,0,
0,0,0,0,0,0,0,0,0,1603,1604,1605,1606,0,0,0,
0,0,0,0,0,0,0,1627,1628,1629,1630,1631,1632,0,0,0,
0,0,0,0,0,0,0,1653,1654,1655,1656,1657,1658,0,0,0,
0,0,0,0,0,0,0,1679,1680,1681,1682,1683,1684,0,0,0,
0,0,0,0,0,0,0,0,0,1707,1708,1709,0,0,0,0,
0,0,0,0,0,0,0,0,0,0,0,0,0,0,0,0,
0,0,0,0,0,0,0,0,0,0,0,0,0,0,0,0,
0,0,0,0,0,0,0,0,0,0,0,0,0,0,0,0,
0,0,0,0,0,0,0,0,0,0,0,0,0,0,0,0,
0,0,0,0,0,0,0,0,0,0,0,0,0,0,0,0,
0,0,0,0,0,0,0,0,0,0,0,0,0,0,0,0,
0,0,0,0,0,0,0,0,0,0,0,0,0,0,0,0,
0,0,0,0,0,0,0,0,0,0,0,0,0,0,0,0,
0,0,0,0,0,0,0,0,0,0,0,0,0,0,0,0
</chunk>
   </data>
  </layer>
  <layer id="33" name="Objects1" width="16" height="24">
   <data encoding="csv">
    <chunk x="-16" y="0" width="16" height="16">
0,0,0,0,0,0,0,0,0,0,0,0,0,0,0,0,
0,0,0,0,0,0,0,0,0,0,0,0,0,0,0,0,
0,0,0,0,0,0,0,0,0,0,0,0,0,0,0,0,
0,0,0,0,0,0,0,1684,1685,0,0,0,0,0,0,0,
0,0,0,0,0,0,0,1710,1711,1712,0,1575,1576,0,0,0,
0,0,0,0,0,0,0,1736,1737,1738,0,1601,1602,0,0,0,
0,0,0,0,0,0,0,0,0,0,1706,0,0,0,0,0,
0,0,0,0,0,0,0,0,0,0,1732,0,0,0,0,0,
0,0,0,0,0,0,0,0,0,0,0,0,0,0,0,0,
0,0,0,0,0,0,0,0,0,0,0,0,0,0,0,0,
0,0,0,0,0,0,0,0,0,0,0,0,0,0,0,0,
0,0,0,0,0,0,0,0,0,0,0,0,0,0,0,0,
0,0,0,0,0,0,0,0,0,0,0,0,0,0,0,0,
0,0,0,0,0,0,0,0,0,0,0,0,0,0,0,0,
0,0,0,0,0,0,0,0,0,0,0,0,0,0,0,0,
0,0,0,0,0,0,0,0,0,0,0,0,0,0,0,0
</chunk>
   </data>
  </layer>
  <layer id="34" name="Objects2" width="16" height="24">
   <data encoding="csv">
    <chunk x="-16" y="0" width="16" height="16">
0,0,0,0,0,0,0,0,0,0,0,0,0,0,0,0,
0,0,0,0,0,0,0,0,0,0,0,0,0,0,0,0,
0,0,0,0,0,0,0,0,0,0,0,0,0,0,0,0,
0,0,0,0,0,0,0,0,0,0,0,0,0,0,0,0,
0,0,0,0,0,0,0,0,0,0,0,0,0,0,0,0,
0,0,0,0,0,0,0,0,0,1687,1688,0,0,0,0,0,
0,0,0,0,0,0,0,0,0,1713,1714,0,0,0,0,0,
0,0,0,0,0,0,0,0,0,0,0,0,0,0,0,0,
0,0,0,0,0,0,0,0,0,0,0,0,0,0,0,0,
0,0,0,0,0,0,0,0,0,0,0,0,0,0,0,0,
0,0,0,0,0,0,0,0,0,0,0,0,0,0,0,0,
0,0,0,0,0,0,0,0,0,0,0,0,0,0,0,0,
0,0,0,0,0,0,0,0,0,0,0,0,0,0,0,0,
0,0,0,0,0,0,0,0,0,0,0,0,0,0,0,0,
0,0,0,0,0,0,0,0,0,0,0,0,0,0,0,0,
0,0,0,0,0,0,0,0,0,0,0,0,0,0,0,0
</chunk>
   </data>
  </layer>
 </group>
 <group id="45" name="Tent5">
  <layer id="43" name="Object" width="16" height="24">
   <data encoding="csv">
    <chunk x="0" y="0" width="16" height="16">
0,0,0,0,0,0,0,0,0,0,0,0,0,0,0,0,
0,0,0,0,0,0,0,0,0,0,0,0,0,0,0,0,
0,0,0,0,0,0,0,0,0,0,0,0,0,0,0,0,
0,0,0,0,0,0,0,0,0,0,0,0,0,0,0,0,
1825,1826,0,0,0,0,0,0,0,0,0,0,0,0,0,0,
1851,1852,0,0,0,0,0,0,0,0,0,0,0,0,0,0,
1877,1878,0,0,0,0,0,0,0,0,0,0,0,0,0,0,
0,0,0,0,0,0,0,0,0,0,0,0,0,0,0,0,
0,0,0,0,0,0,0,0,0,0,0,0,0,0,0,0,
0,0,0,0,0,0,0,0,0,0,0,0,0,0,0,0,
0,0,0,0,0,0,0,0,0,0,0,0,0,0,0,0,
0,0,0,0,0,0,0,0,0,0,0,0,0,0,0,0,
0,0,0,0,0,0,0,0,0,0,0,0,0,0,0,0,
0,0,0,0,0,0,0,0,0,0,0,0,0,0,0,0,
0,0,0,0,0,0,0,0,0,0,0,0,0,0,0,0,
0,0,0,0,0,0,0,0,0,0,0,0,0,0,0,0
</chunk>
   </data>
  </layer>
  <layer id="42" name="Tent5" width="16" height="24">
   <data encoding="csv">
    <chunk x="-16" y="0" width="16" height="16">
0,0,0,0,0,0,0,0,0,0,0,0,0,0,0,0,
0,0,0,0,0,0,0,0,0,0,0,0,0,0,0,0,
0,0,0,0,0,0,0,0,0,0,0,0,0,0,0,0,
0,0,0,0,0,0,0,0,0,0,0,0,1757,1758,1759,1760,
0,0,0,0,0,0,0,0,0,0,0,0,1783,1784,1785,1786,
0,0,0,0,0,0,0,0,0,0,0,0,1809,1810,1811,1812,
0,0,0,0,0,0,0,0,0,0,0,0,1835,1836,1837,1838,
0,0,0,0,0,0,0,0,0,0,0,0,0,1862,1863,1864,
0,0,0,0,0,0,0,0,0,0,0,0,0,1888,1889,1890,
0,0,0,0,0,0,0,0,0,0,0,0,0,0,0,0,
0,0,0,0,0,0,0,0,0,0,0,0,0,0,0,0,
0,0,0,0,0,0,0,0,0,0,0,0,0,0,0,0,
0,0,0,0,0,0,0,0,0,0,0,0,0,0,0,0,
0,0,0,0,0,0,0,0,0,0,0,0,0,0,0,0,
0,0,0,0,0,0,0,0,0,0,0,0,0,0,0,0,
0,0,0,0,0,0,0,0,0,0,0,0,0,0,0,0
</chunk>
    <chunk x="0" y="0" width="16" height="16">
0,0,0,0,0,0,0,0,0,0,0,0,0,0,0,0,
0,0,0,0,0,0,0,0,0,0,0,0,0,0,0,0,
0,0,0,0,0,0,0,0,0,0,0,0,0,0,0,0,
1761,1762,0,0,0,0,0,0,0,0,0,0,0,0,0,0,
1787,1788,0,0,0,0,0,0,0,0,0,0,0,0,0,0,
1813,0,0,0,0,0,0,0,0,0,0,0,0,0,0,0,
1839,1840,0,0,0,0,0,0,0,0,0,0,0,0,0,0,
1865,1866,0,0,0,0,0,0,0,0,0,0,0,0,0,0,
1891,1892,0,0,0,0,0,0,0,0,0,0,0,0,0,0,
0,0,0,0,0,0,0,0,0,0,0,0,0,0,0,0,
0,0,0,0,0,0,0,0,0,0,0,0,0,0,0,0,
0,0,0,0,0,0,0,0,0,0,0,0,0,0,0,0,
0,0,0,0,0,0,0,0,0,0,0,0,0,0,0,0,
0,0,0,0,0,0,0,0,0,0,0,0,0,0,0,0,
0,0,0,0,0,0,0,0,0,0,0,0,0,0,0,0,
0,0,0,0,0,0,0,0,0,0,0,0,0,0,0,0
</chunk>
   </data>
  </layer>
 </group>
 <group id="52" name="Tent6">
  <layer id="51" name="Shadow" width="16" height="24">
   <data encoding="csv">
    <chunk x="0" y="0" width="16" height="16">
0,0,0,0,0,0,0,0,0,0,0,0,0,0,0,0,
0,0,0,0,0,0,0,0,0,0,0,0,0,0,0,0,
0,0,0,1376,1377,1378,1379,0,0,0,0,0,0,0,0,0,
0,0,1401,1402,1403,1404,1405,1406,0,0,0,0,0,0,0,0,
0,1426,1427,1428,1429,1430,1431,1432,0,0,0,0,0,0,0,0,
0,1452,1453,1454,1455,1456,1457,1458,0,0,0,0,0,0,0,0,
0,1478,1479,1480,1481,0,0,0,0,0,0,0,0,0,0,0,
0,1504,1505,1506,1507,0,0,0,0,0,0,0,0,0,0,0,
0,0,0,0,0,0,0,0,0,0,0,0,0,0,0,0,
0,0,0,0,0,0,0,0,0,0,0,0,0,0,0,0,
0,0,0,0,0,0,0,0,0,0,0,0,0,0,0,0,
0,0,0,0,0,0,0,0,0,0,0,0,0,0,0,0,
0,0,0,0,0,0,0,0,0,0,0,0,0,0,0,0,
0,0,0,0,0,0,0,0,0,0,0,0,0,0,0,0,
0,0,0,0,0,0,0,0,0,0,0,0,0,0,0,0,
0,0,0,0,0,0,0,0,0,0,0,0,0,0,0,0
</chunk>
   </data>
  </layer>
  <layer id="50" name="Objects3" width="16" height="24">
   <data encoding="csv">
    <chunk x="0" y="0" width="16" height="16">
0,0,0,0,0,0,0,0,0,0,0,0,0,0,0,0,
0,0,0,0,0,0,0,0,0,0,0,0,0,0,0,0,
0,0,0,1458,1459,1460,0,0,0,0,0,0,0,0,0,0,
0,1482,1483,1484,1485,1486,1487,1488,0,0,0,0,0,0,0,0,
0,1508,1509,1510,1511,1512,1513,1514,0,0,0,0,0,0,0,0,
0,1534,1535,1536,1537,1538,0,0,0,0,0,0,0,0,0,0,
0,0,1561,1562,1563,1564,0,0,0,0,0,0,0,0,0,0,
0,0,0,0,0,0,0,0,0,0,0,0,0,0,0,0,
0,0,0,0,0,0,0,0,0,0,0,0,0,0,0,0,
0,0,0,0,0,0,0,0,0,0,0,0,0,0,0,0,
0,0,0,0,0,0,0,0,0,0,0,0,0,0,0,0,
0,0,0,0,0,0,0,0,0,0,0,0,0,0,0,0,
0,0,0,0,0,0,0,0,0,0,0,0,0,0,0,0,
0,0,0,0,0,0,0,0,0,0,0,0,0,0,0,0,
0,0,0,0,0,0,0,0,0,0,0,0,0,0,0,0,
0,0,0,0,0,0,0,0,0,0,0,0,0,0,0,0
</chunk>
   </data>
  </layer>
  <layer id="70" name="Sleeping_character2" width="16" height="24">
   <data encoding="csv">
    <chunk x="0" y="0" width="16" height="16">
0,0,0,0,0,0,0,0,0,0,0,0,0,0,0,0,
0,0,0,0,0,0,0,0,0,0,0,0,0,0,0,0,
0,0,0,0,0,0,0,0,0,0,0,0,0,0,0,0,
0,0,0,0,0,0,0,0,0,0,0,0,0,0,0,0,
0,0,0,3516,3517,0,0,0,0,0,0,0,0,0,0,0,
0,0,0,3520,3521,0,0,0,0,0,0,0,0,0,0,0,
0,0,0,0,0,0,0,0,0,0,0,0,0,0,0,0,
0,0,0,0,0,0,0,0,0,0,0,0,0,0,0,0,
0,0,0,0,0,0,0,0,0,0,0,0,0,0,0,0,
0,0,0,0,0,0,0,0,0,0,0,0,0,0,0,0,
0,0,0,0,0,0,0,0,0,0,0,0,0,0,0,0,
0,0,0,0,0,0,0,0,0,0,0,0,0,0,0,0,
0,0,0,0,0,0,0,0,0,0,0,0,0,0,0,0,
0,0,0,0,0,0,0,0,0,0,0,0,0,0,0,0,
0,0,0,0,0,0,0,0,0,0,0,0,0,0,0,0,
0,0,0,0,0,0,0,0,0,0,0,0,0,0,0,0
</chunk>
   </data>
  </layer>
  <layer id="46" name="Tent6" width="16" height="24">
   <data encoding="csv">
    <chunk x="0" y="0" width="16" height="16">
0,0,0,0,0,0,0,0,0,0,0,0,0,0,0,0,
0,1420,0,0,1423,1424,1425,0,0,0,0,0,0,0,0,0,
0,1446,1447,1448,1449,1450,1451,1452,0,0,0,0,0,0,0,0,
0,1472,1473,1474,1475,1476,1477,1478,0,0,0,0,0,0,0,0,
0,1498,1499,1500,1501,1502,1503,1504,0,0,0,0,0,0,0,0,
0,1524,1525,1526,1527,1528,1529,1530,0,0,0,0,0,0,0,0,
0,1550,1551,1552,1553,1554,1555,0,0,0,0,0,0,0,0,0,
0,0,0,0,0,0,0,0,0,0,0,0,0,0,0,0,
0,0,0,0,0,0,0,0,0,0,0,0,0,0,0,0,
0,0,0,0,0,0,0,0,0,0,0,0,0,0,0,0,
0,0,0,0,0,0,0,0,0,0,0,0,0,0,0,0,
0,0,0,0,0,0,0,0,0,0,0,0,0,0,0,0,
0,0,0,0,0,0,0,0,0,0,0,0,0,0,0,0,
0,0,0,0,0,0,0,0,0,0,0,0,0,0,0,0,
0,0,0,0,0,0,0,0,0,0,0,0,0,0,0,0,
0,0,0,0,0,0,0,0,0,0,0,0,0,0,0,0
</chunk>
   </data>
  </layer>
  <layer id="47" name="Objects1" width="16" height="24">
   <data encoding="csv">
    <chunk x="0" y="0" width="16" height="16">
0,0,0,0,0,0,0,0,0,0,0,0,0,0,0,0,
0,0,0,0,0,0,0,0,0,0,0,0,0,0,0,0,
0,0,0,0,0,0,0,0,0,0,0,0,0,0,0,0,
0,0,0,0,0,0,0,0,0,0,0,0,0,0,0,0,
0,0,0,0,0,1463,1464,0,0,0,0,0,0,0,0,0,
0,0,0,0,0,1489,1490,0,0,0,0,0,0,0,0,0,
0,0,0,0,0,1515,1516,0,0,0,0,0,0,0,0,0,
0,0,0,0,0,0,0,0,0,0,0,0,0,0,0,0,
0,0,0,0,0,0,0,0,0,0,0,0,0,0,0,0,
0,0,0,0,0,0,0,0,0,0,0,0,0,0,0,0,
0,0,0,0,0,0,0,0,0,0,0,0,0,0,0,0,
0,0,0,0,0,0,0,0,0,0,0,0,0,0,0,0,
0,0,0,0,0,0,0,0,0,0,0,0,0,0,0,0,
0,0,0,0,0,0,0,0,0,0,0,0,0,0,0,0,
0,0,0,0,0,0,0,0,0,0,0,0,0,0,0,0,
0,0,0,0,0,0,0,0,0,0,0,0,0,0,0,0
</chunk>
   </data>
  </layer>
  <layer id="49" name="Objects2" width="16" height="24">
   <data encoding="csv">
    <chunk x="0" y="0" width="16" height="16">
0,0,0,0,0,0,0,0,0,0,0,0,0,0,0,0,
0,0,0,0,0,0,0,0,0,0,0,0,0,0,0,0,
0,0,0,0,0,0,0,0,0,0,0,0,0,0,0,0,
0,0,0,0,0,0,0,0,0,0,0,0,0,0,0,0,
0,0,0,0,0,0,1395,1396,0,0,0,0,0,0,0,0,
0,0,0,0,0,0,1421,1422,0,0,0,0,0,0,0,0,
0,0,0,0,0,0,0,0,0,0,0,0,0,0,0,0,
0,0,0,0,0,0,0,0,0,0,0,0,0,0,0,0,
0,0,0,0,0,0,0,0,0,0,0,0,0,0,0,0,
0,0,0,0,0,0,0,0,0,0,0,0,0,0,0,0,
0,0,0,0,0,0,0,0,0,0,0,0,0,0,0,0,
0,0,0,0,0,0,0,0,0,0,0,0,0,0,0,0,
0,0,0,0,0,0,0,0,0,0,0,0,0,0,0,0,
0,0,0,0,0,0,0,0,0,0,0,0,0,0,0,0,
0,0,0,0,0,0,0,0,0,0,0,0,0,0,0,0,
0,0,0,0,0,0,0,0,0,0,0,0,0,0,0,0
</chunk>
   </data>
  </layer>
 </group>
 <layer id="53" name="Trees1" width="16" height="24">
  <data encoding="csv">
   <chunk x="-16" y="-16" width="16" height="16">
0,0,0,0,0,0,0,0,0,0,0,0,0,0,0,0,
0,0,0,0,0,0,0,0,0,0,0,0,0,0,0,0,
0,0,0,0,0,0,0,0,0,0,0,0,0,0,0,0,
0,0,0,0,0,0,0,0,0,0,0,0,0,0,0,0,
0,0,0,0,0,0,0,0,0,0,0,0,0,0,0,0,
0,0,0,0,0,0,0,0,0,0,0,0,0,0,0,0,
0,0,0,0,0,0,0,0,0,0,0,0,0,0,0,0,
0,0,0,0,0,0,0,0,0,0,0,0,0,0,0,0,
0,0,0,0,0,0,0,0,0,0,0,0,0,0,0,0,
0,0,0,0,2484,2485,0,2184,2185,2186,2187,2188,0,0,0,0,
0,0,0,0,2507,2508,0,2207,2208,2209,2210,2211,0,0,0,0,
0,0,0,0,2530,2531,0,2230,2231,2232,2233,0,0,0,0,0,
0,0,0,0,0,0,0,0,0,0,0,0,0,0,0,0,
0,0,0,0,2386,2387,0,0,0,0,0,0,0,0,0,0,
0,0,0,0,2409,2410,0,0,0,0,0,0,0,0,0,0,
0,0,0,0,2432,2433,0,0,0,0,0,0,0,0,0,0
</chunk>
   <chunk x="0" y="-16" width="16" height="16">
0,0,0,0,0,0,0,0,0,0,0,0,0,0,0,0,
0,0,0,0,0,0,0,0,0,0,0,0,0,0,0,0,
0,0,0,0,0,0,0,0,0,0,0,0,0,0,0,0,
0,0,0,0,0,0,0,0,0,0,0,0,0,0,0,0,
0,0,0,0,0,0,0,0,0,0,0,0,0,0,0,0,
0,0,0,0,0,0,0,0,0,0,0,0,0,0,0,0,
0,0,0,0,0,0,0,0,0,0,0,0,0,0,0,0,
0,0,0,0,0,0,0,0,0,0,0,0,0,0,0,0,
0,0,0,0,0,0,0,0,0,0,0,0,0,0,0,0,
2227,2228,2229,0,0,0,0,2176,2177,2178,2179,0,0,0,0,0,
2250,2251,2252,0,0,0,0,2199,2200,2201,2202,0,0,0,0,0,
0,0,0,0,0,2463,2464,2465,2223,2224,2225,0,0,0,0,0,
0,0,0,0,0,2486,2487,2488,2246,2247,2248,0,0,0,0,0,
0,0,0,0,0,2509,2510,2511,0,0,0,0,0,0,0,0,
0,0,0,0,0,0,0,0,0,0,0,0,0,0,0,0,
0,0,0,0,0,0,0,0,0,0,0,0,0,0,0,0
</chunk>
   <chunk x="-16" y="0" width="16" height="16">
0,0,0,0,2455,2456,0,0,0,0,0,0,0,0,0,0,
0,0,0,0,0,0,0,0,0,0,0,0,0,0,0,0,
0,0,0,0,0,0,0,0,0,0,0,0,0,0,0,0,
0,0,0,0,0,0,0,0,0,0,0,0,0,0,0,0,
0,0,0,0,0,0,0,0,0,0,0,0,0,0,0,0,
0,0,0,0,0,0,0,0,0,0,0,0,0,0,0,0,
0,0,0,0,2377,2378,0,0,0,0,0,0,0,0,0,0,
0,0,0,0,2400,2401,0,0,0,2273,2274,2275,0,0,0,0,
0,0,0,0,2423,2424,0,0,0,2296,2297,2298,0,0,0,0,
0,0,0,0,0,0,0,0,0,0,0,0,0,0,0,0,
0,0,0,0,0,0,0,0,0,0,0,0,0,0,0,0,
0,0,0,0,0,0,0,0,0,0,0,0,0,0,0,0,
0,0,0,0,0,0,0,0,0,0,0,0,0,0,0,0,
0,0,0,0,0,0,0,0,0,0,0,0,0,0,0,0,
0,0,0,0,0,0,0,0,0,0,0,0,0,0,0,0,
0,0,0,0,0,0,0,0,0,0,0,0,0,0,0,0
</chunk>
   <chunk x="0" y="0" width="16" height="16">
0,0,0,0,0,0,0,0,2270,2271,2272,0,0,0,0,0,
0,0,0,0,0,0,0,0,2293,2294,2295,0,0,0,0,0,
0,0,0,0,0,0,0,0,2316,2317,2318,0,0,0,0,0,
0,0,0,0,0,0,0,0,0,0,0,0,0,0,0,0,
0,0,0,0,0,0,0,0,0,0,0,0,0,0,0,0,
0,0,0,0,0,0,0,0,0,0,0,0,0,0,0,0,
0,2125,2126,2127,2128,0,0,0,2120,2121,2122,0,0,0,0,0,
0,2148,2149,2150,2151,2152,0,0,2143,2144,2145,0,0,0,0,0,
0,2171,2172,2173,2174,2175,0,0,2166,2167,2168,0,0,0,0,0,
0,0,0,0,0,0,0,0,0,0,0,0,0,0,0,0,
0,0,0,0,0,0,0,0,0,0,0,0,0,0,0,0,
0,0,0,0,0,0,0,0,0,0,0,0,0,0,0,0,
0,0,0,0,0,0,0,0,0,0,0,0,0,0,0,0,
0,0,0,0,0,0,0,0,0,0,0,0,0,0,0,0,
0,0,0,0,0,0,0,0,0,0,0,0,0,0,0,0,
0,0,0,0,0,0,0,0,0,0,0,0,0,0,0,0
</chunk>
  </data>
 </layer>
 <layer id="54" name="Trees2" width="16" height="24">
  <data encoding="csv">
   <chunk x="-16" y="-16" width="16" height="16">
0,0,0,0,0,0,0,0,0,0,0,0,0,0,0,0,
0,0,0,0,0,0,0,0,0,0,0,0,0,0,0,0,
0,0,0,0,0,0,0,0,0,0,0,0,0,0,0,0,
0,0,0,0,0,0,0,0,0,0,0,0,0,0,0,0,
0,0,0,0,0,0,0,0,0,0,0,0,0,0,0,0,
0,0,0,0,0,0,0,0,0,0,0,0,0,0,0,0,
0,0,0,0,0,0,0,0,0,0,0,0,0,0,0,0,
0,0,0,0,0,0,0,0,0,0,0,0,0,0,0,0,
0,0,0,0,2230,0,0,0,0,0,0,0,0,0,0,0,
0,0,0,0,2253,2254,2255,2256,0,0,0,0,0,0,0,0,
0,0,0,0,2276,2277,2278,2279,0,0,0,0,0,0,0,0,
0,0,0,0,2299,2300,2301,2302,2303,0,0,0,0,0,0,0,
0,0,0,0,2322,2323,2324,2325,2326,0,0,0,0,0,0,0,
0,0,0,0,2345,2346,2347,2348,2349,0,0,0,0,0,0,0,
0,0,0,0,0,0,0,0,0,0,0,0,0,0,0,0,
0,0,0,0,0,0,0,0,0,0,0,0,0,0,0,0
</chunk>
   <chunk x="0" y="-16" width="16" height="16">
0,0,0,0,0,0,0,0,0,0,0,0,0,0,0,0,
0,0,0,0,0,0,0,0,0,0,0,0,0,0,0,0,
0,0,0,0,0,0,0,0,0,0,0,0,0,0,0,0,
0,0,0,0,0,0,0,0,0,0,0,0,0,0,0,0,
0,0,0,0,0,0,0,0,0,0,0,0,0,0,0,0,
0,0,0,0,0,0,0,0,0,0,0,0,0,0,0,0,
0,0,0,0,0,0,0,0,0,0,0,0,0,0,0,0,
0,0,0,0,0,0,0,0,0,0,0,0,0,0,0,0,
0,0,0,0,0,0,0,0,0,0,0,0,0,0,0,0,
0,0,0,0,0,0,0,0,0,0,0,0,0,0,0,0,
0,0,0,2342,2343,0,0,0,0,0,0,0,0,0,0,0,
0,0,0,2365,2366,0,0,0,0,0,0,0,0,0,0,0,
0,0,0,0,0,0,0,0,2259,2260,2261,0,0,0,0,0,
0,0,0,0,0,0,0,2281,2282,2283,2284,0,0,0,0,0,
0,0,0,0,0,0,0,2304,2305,2306,2307,0,0,0,0,0,
0,0,0,0,0,0,0,2327,2328,2329,2330,0,0,0,0,0
</chunk>
   <chunk x="-16" y="0" width="16" height="16">
0,0,0,0,0,0,0,0,0,0,0,0,0,0,0,0,
0,0,0,0,0,0,0,0,0,0,0,0,0,0,0,0,
0,0,0,0,0,0,0,0,0,0,0,0,0,0,0,0,
0,0,0,0,0,0,0,0,0,0,0,0,0,0,0,0,
0,0,0,0,0,0,0,0,0,0,0,0,0,0,0,0,
0,0,0,0,0,0,2379,2380,2381,0,0,0,0,0,0,0,
0,0,0,0,0,0,2402,2403,2404,0,0,0,0,0,0,0,
0,0,0,0,0,0,2425,2426,2427,0,0,0,0,0,0,0,
0,0,0,0,0,0,2448,2449,2450,0,0,0,0,0,0,0,
0,0,0,0,0,0,0,0,0,0,0,0,0,0,0,0,
0,0,0,0,0,0,0,0,0,0,0,0,0,0,0,0,
0,0,0,0,0,0,0,0,0,0,0,0,0,0,0,0,
0,0,0,0,0,0,0,0,0,0,0,0,0,0,0,0,
0,0,0,0,0,0,0,0,0,0,0,0,0,0,0,0,
0,0,0,0,0,0,0,0,0,0,0,0,0,0,0,0,
0,0,0,0,0,0,0,0,0,0,0,0,0,0,0,0
</chunk>
   <chunk x="0" y="0" width="16" height="16">
0,0,0,0,0,0,0,2350,2351,2352,2353,0,0,0,0,0,
0,0,0,0,0,0,0,0,0,0,0,0,0,0,0,0,
0,0,0,0,0,0,0,0,0,0,0,0,0,0,0,0,
0,0,0,0,0,0,0,0,0,0,0,0,0,0,0,0,
0,0,0,0,0,0,0,0,0,0,0,0,0,0,0,0,
0,0,0,0,0,0,0,0,0,0,0,0,0,0,0,0,
0,0,0,0,0,0,0,0,0,0,0,0,0,0,0,0,
0,0,0,0,0,0,0,0,0,0,0,0,0,0,0,0,
0,0,0,0,0,0,0,0,0,0,0,0,0,0,0,0,
0,0,0,0,0,0,0,0,0,0,0,0,0,0,0,0,
0,0,0,0,0,0,0,0,0,0,0,0,0,0,0,0,
0,0,0,0,0,0,0,0,0,0,0,0,0,0,0,0,
0,0,0,0,0,0,0,0,0,0,0,0,0,0,0,0,
0,0,0,0,0,0,0,0,0,0,0,0,0,0,0,0,
0,0,0,0,0,0,0,0,0,0,0,0,0,0,0,0,
0,0,0,0,0,0,0,0,0,0,0,0,0,0,0,0
</chunk>
  </data>
 </layer>
 <layer id="71" name="flowers" width="16" height="24">
  <data encoding="csv">
   <chunk x="-16" y="-16" width="16" height="16">
0,0,0,0,0,0,0,0,0,0,0,0,0,0,0,0,
0,0,0,0,0,0,0,0,0,0,0,0,0,0,0,0,
0,0,0,0,0,0,0,0,0,0,0,0,0,0,0,0,
0,0,0,0,0,0,0,0,0,0,0,0,0,0,0,0,
0,0,0,0,0,0,0,0,0,0,0,0,0,0,0,0,
0,0,0,0,0,0,0,0,0,0,0,0,0,0,0,0,
0,0,0,0,0,0,0,0,0,0,0,0,0,0,0,0,
0,0,0,0,0,0,0,0,0,0,0,0,0,0,0,0,
0,0,0,0,0,0,0,0,0,0,0,0,0,0,0,0,
0,0,0,0,0,239,240,0,0,0,0,0,0,0,0,0,
0,0,0,0,0,0,0,0,0,0,247,248,0,0,0,0,
0,0,0,0,0,0,0,0,0,0,0,0,0,0,0,0,
0,0,0,0,0,0,0,0,0,0,0,237,238,0,0,0,
0,0,0,0,0,0,0,0,0,0,0,0,0,0,0,0,
0,0,0,0,0,0,243,0,0,0,0,0,0,0,0,0,
0,0,0,0,0,0,0,0,0,0,0,0,0,0,0,0
</chunk>
   <chunk x="0" y="-16" width="16" height="16">
0,0,0,0,0,0,0,0,0,0,0,0,0,0,0,0,
0,0,0,0,0,0,0,0,0,0,0,0,0,0,0,0,
0,0,0,0,0,0,0,0,0,0,0,0,0,0,0,0,
0,0,0,0,0,0,0,0,0,0,0,0,0,0,0,0,
0,0,0,0,0,0,0,0,0,0,0,0,0,0,0,0,
0,0,0,0,0,0,0,0,0,0,0,0,0,0,0,0,
0,0,0,0,0,0,0,0,0,0,0,0,0,0,0,0,
0,0,0,0,0,0,0,0,0,0,0,0,0,0,0,0,
0,0,0,0,0,0,0,0,0,0,0,0,0,0,0,0,
0,0,0,0,0,0,0,0,0,0,0,0,0,0,0,0,
0,0,0,0,0,0,0,0,0,0,0,0,0,0,0,0,
0,0,0,0,247,248,0,0,0,0,0,0,0,0,0,0,
0,0,0,0,0,0,0,0,0,0,230,0,0,0,0,0,
0,0,0,0,0,0,0,0,0,0,0,0,0,0,0,0,
0,0,0,0,0,0,0,0,0,0,0,0,0,0,0,0,
0,0,0,0,0,0,0,0,0,0,0,0,0,0,0,0
</chunk>
   <chunk x="-16" y="0" width="16" height="16">
0,0,0,0,0,0,0,0,0,0,0,0,0,0,0,0,
0,0,0,0,0,0,0,0,0,0,0,0,0,0,0,0,
0,0,0,0,0,0,0,0,0,0,0,0,0,0,0,0,
0,0,0,0,0,0,0,0,0,0,0,0,0,0,0,0,
0,0,0,0,0,229,0,0,0,0,0,0,0,0,0,0,
0,0,0,0,0,241,0,0,0,0,0,0,0,0,0,0,
0,0,0,0,0,0,0,0,0,0,0,0,0,0,0,0,
0,0,0,0,0,0,0,0,0,0,0,239,240,0,0,0,
0,0,0,0,0,0,0,0,230,0,0,0,0,0,0,0,
0,0,0,0,0,0,0,0,0,0,0,0,0,0,0,0,
0,0,0,0,0,0,0,0,0,0,0,0,0,0,0,0,
0,0,0,0,0,0,0,0,0,0,0,0,0,0,0,0,
0,0,0,0,0,0,0,0,0,0,0,0,0,0,0,0,
0,0,0,0,0,0,0,0,0,0,0,0,0,0,0,0,
0,0,0,0,0,0,0,0,0,0,0,0,0,0,0,0,
0,0,0,0,0,0,0,0,0,0,0,0,0,0,0,0
</chunk>
   <chunk x="0" y="0" width="16" height="16">
0,0,0,0,0,0,0,0,0,0,0,0,0,0,0,0,
0,0,0,0,0,0,0,0,0,0,0,0,0,0,0,0,
0,0,0,0,0,0,0,0,0,0,0,0,0,0,0,0,
0,0,0,0,0,0,0,0,0,0,0,0,0,0,0,0,
0,0,0,0,0,0,0,0,0,0,0,0,0,0,0,0,
0,0,0,0,0,0,0,0,0,0,0,0,0,0,0,0,
0,0,0,0,0,0,0,0,0,0,0,0,0,0,0,0,
0,0,0,0,0,0,0,249,250,0,0,0,0,0,0,0,
0,0,0,0,0,0,0,0,0,0,0,0,0,0,0,0,
0,0,0,0,0,0,0,0,0,0,0,0,0,0,0,0,
0,0,0,0,0,0,0,0,0,0,0,0,0,0,0,0,
0,0,0,0,0,0,0,0,0,0,0,0,0,0,0,0,
0,0,0,0,0,0,0,0,0,0,0,0,0,0,0,0,
0,0,0,0,0,0,0,0,0,0,0,0,0,0,0,0,
0,0,0,0,0,0,0,0,0,0,0,0,0,0,0,0,
0,0,0,0,0,0,0,0,0,0,0,0,0,0,0,0
</chunk>
  </data>
 </layer>
 <layer id="55" name="Rocks" width="16" height="24">
  <data encoding="csv">
   <chunk x="-16" y="0" width="16" height="16">
0,0,0,0,0,0,0,0,0,0,0,0,0,0,0,0,
0,0,0,0,0,0,0,0,0,0,0,2537,2538,0,0,0,
0,0,0,0,2473,2474,2475,0,0,0,0,0,0,0,0,0,
0,0,0,0,2496,2497,2498,0,0,0,0,0,0,0,0,0,
0,0,0,0,0,0,0,0,0,0,0,0,0,0,0,0,
0,0,0,0,0,0,0,0,0,0,0,0,0,0,0,0,
0,0,0,0,0,0,0,0,0,0,0,0,0,0,0,0,
0,0,0,0,0,0,0,0,0,0,0,0,0,0,0,0,
0,0,0,0,0,0,0,0,0,0,0,0,0,0,0,0,
0,0,0,0,0,0,0,0,0,0,0,0,0,0,0,0,
0,0,0,0,0,0,0,0,0,0,0,0,0,0,0,0,
0,0,0,0,0,0,0,0,0,0,0,0,0,0,0,0,
0,0,0,0,0,0,0,0,0,0,0,0,0,0,0,0,
0,0,0,0,0,0,0,0,0,0,0,0,0,0,0,0,
0,0,0,0,0,0,0,0,0,0,0,0,0,0,0,0,
0,0,0,0,0,0,0,0,0,0,0,0,0,0,0,0
</chunk>
   <chunk x="0" y="0" width="16" height="16">
0,2521,2522,2523,0,0,0,0,0,0,0,0,0,0,0,0,
0,2544,2545,2546,0,0,2526,2527,2528,0,0,0,0,0,0,0,
0,0,0,0,0,0,2549,2550,2551,0,0,0,0,0,0,0,
0,0,0,0,0,0,0,0,0,0,0,0,0,0,0,0,
0,0,0,0,0,0,0,0,0,0,0,0,0,0,0,0,
0,0,0,0,0,0,0,0,0,0,0,0,0,0,0,0,
2468,2469,2470,0,0,0,0,0,0,0,0,0,0,0,0,0,
2491,2492,2493,0,0,0,0,0,0,0,0,0,0,0,0,0,
2514,2515,2516,0,0,0,0,0,0,0,0,0,0,0,0,0,
0,0,0,0,0,0,0,0,0,0,0,0,0,0,0,0,
0,0,0,0,0,0,0,0,0,0,0,0,0,0,0,0,
0,0,0,0,0,0,0,0,0,0,0,0,0,0,0,0,
0,0,0,0,0,0,0,0,0,0,0,0,0,0,0,0,
0,0,0,0,0,0,0,0,0,0,0,0,0,0,0,0,
0,0,0,0,0,0,0,0,0,0,0,0,0,0,0,0,
0,0,0,0,0,0,0,0,0,0,0,0,0,0,0,0
</chunk>
  </data>
 </layer>
 <layer id="56" name="Rocks2" width="16" height="24">
  <data encoding="csv">
   <chunk x="-16" y="-16" width="16" height="16">
0,0,0,0,0,0,0,0,0,0,0,0,0,0,0,0,
0,0,0,0,0,0,0,0,0,0,0,0,0,0,0,0,
0,0,0,0,0,0,0,0,0,0,0,0,0,0,0,0,
0,0,0,0,0,0,0,0,0,0,0,0,0,0,0,0,
0,0,0,0,0,0,0,0,0,0,0,0,0,0,0,0,
0,0,0,0,0,0,0,0,0,0,0,0,0,0,0,0,
0,0,0,0,0,0,0,0,0,0,0,0,0,0,0,0,
0,0,0,0,0,0,0,0,0,0,0,0,0,0,0,0,
0,0,0,0,0,0,0,0,0,0,0,0,0,0,0,0,
0,0,0,0,0,0,0,0,0,0,0,0,0,0,0,0,
0,0,0,0,0,0,0,0,0,0,0,0,0,0,0,0,
0,0,0,0,0,0,0,0,0,0,0,0,0,0,0,0,
0,0,0,0,0,0,0,0,0,0,0,0,0,0,0,0,
0,0,0,0,0,0,0,0,0,0,0,0,0,0,0,0,
0,0,0,0,0,0,0,0,0,0,0,0,0,0,0,0,
0,0,0,0,0,0,0,0,0,0,0,0,2517,2518,0,0
</chunk>
   <chunk x="-16" y="0" width="16" height="16">
0,0,0,0,0,0,0,0,0,0,0,0,2540,2541,0,0,
0,0,0,0,0,0,0,0,0,0,0,0,0,0,0,0,
0,0,0,0,0,0,0,0,0,0,0,0,0,0,0,0,
0,0,0,0,0,0,0,0,0,0,0,0,0,0,0,0,
0,0,0,0,0,0,0,0,0,0,0,0,0,0,0,0,
0,0,0,0,0,0,0,0,0,0,0,0,0,0,0,0,
0,0,0,0,0,0,0,0,0,0,0,0,0,0,0,0,
0,0,0,0,0,0,0,0,0,0,0,0,0,0,0,0,
0,0,0,0,0,0,0,0,0,0,0,0,0,0,0,0,
0,0,0,0,0,0,0,0,0,0,0,0,0,0,0,0,
0,0,0,0,0,0,0,0,0,0,0,0,0,0,0,0,
0,0,0,0,0,0,0,0,0,0,0,0,0,0,0,0,
0,0,0,0,0,0,0,0,0,0,0,0,0,0,0,0,
0,0,0,0,0,0,0,0,0,0,0,0,0,0,0,0,
0,0,0,0,0,0,0,0,0,0,0,0,0,0,0,0,
0,0,0,0,0,0,0,0,0,0,0,0,0,0,0,0
</chunk>
   <chunk x="0" y="0" width="16" height="16">
0,0,0,0,0,0,0,0,0,0,0,0,0,0,0,0,
0,0,0,0,0,0,0,0,0,0,0,0,0,0,0,0,
0,0,0,0,0,0,0,0,2519,2520,0,0,0,0,0,0,
0,0,0,0,0,0,0,0,2542,2543,0,0,0,0,0,0,
0,0,0,0,0,0,0,0,0,0,0,0,0,0,0,0,
0,0,0,0,0,0,0,0,0,0,0,0,0,0,0,0,
0,0,0,0,0,0,0,0,0,0,0,0,0,0,0,0,
0,0,0,0,0,2534,2535,0,0,0,0,0,0,0,0,0,
0,0,0,0,0,0,0,0,0,0,0,0,0,0,0,0,
0,0,0,0,0,0,0,0,0,0,0,0,0,0,0,0,
0,0,0,0,0,0,0,0,0,0,0,0,0,0,0,0,
0,0,0,0,0,0,0,0,0,0,0,0,0,0,0,0,
0,0,0,0,0,0,0,0,0,0,0,0,0,0,0,0,
0,0,0,0,0,0,0,0,0,0,0,0,0,0,0,0,
0,0,0,0,0,0,0,0,0,0,0,0,0,0,0,0,
0,0,0,0,0,0,0,0,0,0,0,0,0,0,0,0
</chunk>
  </data>
 </layer>
 <layer id="57" name="Logs" width="16" height="24">
  <data encoding="csv">
   <chunk x="-16" y="-16" width="16" height="16">
0,0,0,0,0,0,0,0,0,0,0,0,0,0,0,0,
0,0,0,0,0,0,0,0,0,0,0,0,0,0,0,0,
0,0,0,0,0,0,0,0,0,0,0,0,0,0,0,0,
0,0,0,0,0,0,0,0,0,0,0,0,0,0,0,0,
0,0,0,0,0,0,0,0,0,0,0,0,0,0,0,0,
0,0,0,0,0,0,0,0,0,0,0,0,0,0,0,0,
0,0,0,0,0,0,0,0,0,0,0,0,0,0,0,0,
0,0,0,0,0,0,0,0,0,0,0,0,0,0,0,0,
0,0,0,0,0,0,0,0,0,0,0,0,0,0,0,0,
0,0,0,0,0,0,0,0,0,0,0,0,0,0,0,0,
0,0,0,0,0,0,0,0,0,0,0,0,0,0,0,0,
0,0,0,0,0,0,0,0,0,0,0,0,0,0,0,0,
0,0,0,0,0,0,0,0,0,0,0,0,0,0,0,0,
0,0,0,0,0,0,0,0,0,0,0,0,0,0,0,0,
0,0,0,0,0,0,0,0,0,0,0,0,0,0,0,0,
0,0,0,0,0,0,0,0,0,0,0,0,1762,1763,1764,1765
</chunk>
   <chunk x="0" y="-16" width="16" height="16">
0,0,0,0,0,0,0,0,0,0,0,0,0,0,0,0,
0,0,0,0,0,0,0,0,0,0,0,0,0,0,0,0,
0,0,0,0,0,0,0,0,0,0,0,0,0,0,0,0,
0,0,0,0,0,0,0,0,0,0,0,0,0,0,0,0,
0,0,0,0,0,0,0,0,0,0,0,0,0,0,0,0,
0,0,0,0,0,0,0,0,0,0,0,0,0,0,0,0,
0,0,0,0,0,0,0,0,0,0,0,0,0,0,0,0,
0,0,0,0,0,0,0,0,0,0,0,0,0,0,0,0,
0,0,0,0,0,0,0,0,0,0,0,0,0,0,0,0,
0,0,0,0,0,0,0,0,0,0,0,0,0,0,0,0,
0,0,0,0,0,0,0,0,0,0,0,0,0,0,0,0,
0,0,0,0,0,0,0,0,0,0,0,0,0,0,0,0,
0,0,0,0,0,0,0,0,0,0,0,0,0,0,0,0,
0,0,0,0,0,0,0,0,0,0,0,0,0,0,0,0,
0,0,0,0,0,0,0,0,0,0,0,0,0,0,0,0,
1766,0,0,0,0,0,0,0,0,0,0,0,0,0,0,0
</chunk>
   <chunk x="-16" y="0" width="16" height="16">
0,0,0,0,0,0,0,0,0,0,0,0,1788,1789,1790,1791,
0,0,0,0,0,0,0,0,0,0,0,0,1814,1815,1816,1817,
0,0,0,0,0,0,0,0,0,0,0,0,0,1841,1842,1843,
0,0,0,0,0,0,0,0,0,0,0,0,0,1867,1868,1869,
0,0,0,0,0,0,0,0,0,0,0,0,0,1893,1894,1895,
0,0,0,0,0,0,0,0,0,0,0,0,0,0,0,0,
0,0,0,0,0,0,0,0,0,0,0,0,0,0,0,0,
0,0,0,0,0,0,0,0,0,0,0,0,0,0,0,0,
0,0,0,0,0,0,0,0,0,0,0,0,0,0,0,0,
0,0,0,0,0,0,0,0,0,0,0,0,0,0,0,0,
0,0,0,0,0,0,0,0,0,0,0,0,0,0,0,0,
0,0,0,0,0,0,0,0,0,0,0,0,0,0,0,0,
0,0,0,0,0,0,0,0,0,0,0,0,0,0,0,0,
0,0,0,0,0,0,0,0,0,0,0,0,0,0,0,0,
0,0,0,0,0,0,0,0,0,0,0,0,0,0,0,0,
0,0,0,0,0,0,0,0,0,0,0,0,0,0,0,0
</chunk>
   <chunk x="0" y="0" width="16" height="16">
1792,1793,0,0,0,0,0,0,0,0,0,0,0,0,0,0,
1818,1819,0,0,0,0,0,0,0,0,0,0,0,0,0,0,
1844,1845,0,0,0,0,0,0,0,0,0,0,0,0,0,0,
0,0,0,0,0,0,0,0,0,0,0,0,0,0,0,0,
0,0,0,0,0,0,0,0,0,0,0,0,0,0,0,0,
0,0,0,0,0,0,0,0,0,0,0,0,0,0,0,0,
0,0,0,0,0,0,0,0,0,0,0,0,0,0,0,0,
0,0,0,0,0,0,0,0,0,0,0,0,0,0,0,0,
0,0,0,0,0,0,0,0,0,0,0,0,0,0,0,0,
0,0,0,0,0,0,0,0,0,0,0,0,0,0,0,0,
0,0,0,0,0,0,0,0,0,0,0,0,0,0,0,0,
0,0,0,0,0,0,0,0,0,0,0,0,0,0,0,0,
0,0,0,0,0,0,0,0,0,0,0,0,0,0,0,0,
0,0,0,0,0,0,0,0,0,0,0,0,0,0,0,0,
0,0,0,0,0,0,0,0,0,0,0,0,0,0,0,0,
0,0,0,0,0,0,0,0,0,0,0,0,0,0,0,0
</chunk>
  </data>
 </layer>
 <layer id="64" name="Weapons" width="16" height="24">
  <data encoding="csv">
   <chunk x="-16" y="0" width="16" height="16">
0,0,0,0,0,0,0,0,0,0,0,0,0,0,0,0,
0,0,0,0,0,0,0,0,0,0,0,0,0,0,0,0,
0,0,0,0,0,0,0,0,0,0,0,0,0,0,0,1827,
0,0,0,0,0,0,0,0,0,0,0,0,0,0,0,1853,
0,0,0,0,0,0,0,0,0,0,0,0,0,0,0,0,
0,0,0,0,0,0,0,0,0,0,0,0,0,0,0,0,
0,0,0,0,0,0,0,0,0,0,0,0,0,0,0,0,
0,0,0,0,0,0,0,0,0,0,0,0,0,0,0,0,
0,0,0,0,0,0,0,0,0,0,0,0,0,0,0,0,
0,0,0,0,0,0,0,0,0,0,0,0,0,0,0,0,
0,0,0,0,0,0,0,0,0,0,0,0,0,0,0,0,
0,0,0,0,0,0,0,0,0,0,0,0,0,0,0,0,
0,0,0,0,0,0,0,0,0,0,0,0,0,0,0,0,
0,0,0,0,0,0,0,0,0,0,0,0,0,0,0,0,
0,0,0,0,0,0,0,0,0,0,0,0,0,0,0,0,
0,0,0,0,0,0,0,0,0,0,0,0,0,0,0,0
</chunk>
   <chunk x="0" y="0" width="16" height="16">
0,0,0,0,0,0,0,0,0,0,0,0,0,0,0,0,
0,0,0,0,0,0,1860,1861,0,0,0,0,0,0,0,0,
1828,0,0,0,0,0,1886,1887,0,0,0,0,0,0,0,0,
1854,0,0,0,0,0,0,0,0,0,0,0,0,0,0,0,
0,0,0,0,0,0,0,0,0,0,0,0,0,0,0,0,
0,0,0,0,0,0,0,0,0,0,0,0,0,0,0,0,
0,0,0,0,0,0,0,0,0,0,0,0,0,0,0,0,
0,0,0,0,0,0,0,0,0,0,0,0,0,0,0,0,
0,0,0,0,0,0,0,0,0,0,0,0,0,0,0,0,
0,0,0,0,0,0,0,0,0,0,0,0,0,0,0,0,
0,0,0,0,0,0,0,0,0,0,0,0,0,0,0,0,
0,0,0,0,0,0,0,0,0,0,0,0,0,0,0,0,
0,0,0,0,0,0,0,0,0,0,0,0,0,0,0,0,
0,0,0,0,0,0,0,0,0,0,0,0,0,0,0,0,
0,0,0,0,0,0,0,0,0,0,0,0,0,0,0,0,
0,0,0,0,0,0,0,0,0,0,0,0,0,0,0,0
</chunk>
  </data>
 </layer>
 <layer id="8" name="Bonfire_lizardman" width="16" height="24">
  <data encoding="csv">
   <chunk x="-16" y="-16" width="16" height="16">
0,0,0,0,0,0,0,0,0,0,0,0,0,0,0,0,
0,0,0,0,0,0,0,0,0,0,0,0,0,0,0,0,
0,0,0,0,0,0,0,0,0,0,0,0,0,0,0,0,
0,0,0,0,0,0,0,0,0,0,0,0,0,0,0,0,
0,0,0,0,0,0,0,0,0,0,0,0,0,0,0,0,
0,0,0,0,0,0,0,0,0,0,0,0,0,0,0,0,
0,0,0,0,0,0,0,0,0,0,0,0,0,0,0,0,
0,0,0,0,0,0,0,0,0,0,0,0,0,0,0,0,
0,0,0,0,0,0,0,0,0,0,0,0,0,0,0,0,
0,0,0,0,0,0,0,0,0,0,0,0,0,0,0,0,
0,0,0,0,0,0,0,0,0,0,0,0,0,0,0,0,
0,0,0,0,0,0,0,0,0,0,0,0,0,0,0,0,
0,0,0,0,0,0,0,0,0,0,0,0,0,0,0,0,
0,0,0,0,0,0,0,0,0,0,0,0,0,0,0,0,
0,0,0,0,0,0,0,0,0,0,0,0,0,0,0,0,
0,0,0,0,0,0,0,0,0,0,0,0,0,253,254,255
</chunk>
   <chunk x="0" y="-16" width="16" height="16">
0,0,0,0,0,0,0,0,0,0,0,0,0,0,0,0,
0,0,0,0,0,0,0,0,0,0,0,0,0,0,0,0,
0,0,0,0,0,0,0,0,0,0,0,0,0,0,0,0,
0,0,0,0,0,0,0,0,0,0,0,0,0,0,0,0,
0,0,0,0,0,0,0,0,0,0,0,0,0,0,0,0,
0,0,0,0,0,0,0,0,0,0,0,0,0,0,0,0,
0,0,0,0,0,0,0,0,0,0,0,0,0,0,0,0,
0,0,0,0,0,0,0,0,0,0,0,0,0,0,0,0,
0,0,0,0,0,0,0,0,0,0,0,0,0,0,0,0,
0,0,0,0,0,0,0,0,0,0,0,0,0,0,0,0,
0,0,0,0,0,0,0,0,0,0,0,0,0,0,0,0,
0,0,0,0,0,0,0,0,0,0,0,0,0,0,0,0,
0,0,0,0,0,0,0,0,0,0,0,0,0,0,0,0,
0,0,0,0,0,0,0,0,0,0,0,0,0,0,0,0,
0,0,0,0,0,0,0,0,0,0,0,0,0,0,0,0,
256,0,0,0,0,0,0,0,0,0,0,0,0,0,0,0
</chunk>
   <chunk x="-16" y="0" width="16" height="16">
0,0,0,0,0,0,0,0,0,0,0,0,0,274,275,276,
0,0,0,0,0,0,0,0,0,0,0,0,0,295,296,297,
0,0,0,0,0,0,0,0,0,0,0,0,0,316,317,318,
0,0,0,0,0,0,0,0,0,0,0,0,0,0,0,0,
0,0,0,0,0,0,0,0,0,0,0,0,0,0,0,0,
0,0,0,0,0,0,0,0,0,0,0,0,0,0,0,0,
0,0,0,0,0,0,0,0,0,0,0,0,0,0,0,0,
0,0,0,0,0,0,0,0,0,0,0,0,0,0,0,0,
0,0,0,0,0,0,0,0,0,0,0,0,0,0,0,0,
0,0,0,0,0,0,0,0,0,0,0,0,0,0,0,0,
0,0,0,0,0,0,0,0,0,0,0,0,0,0,0,0,
0,0,0,0,0,0,0,0,0,0,0,0,0,0,0,0,
0,0,0,0,0,0,0,0,0,0,0,0,0,0,0,0,
0,0,0,0,0,0,0,0,0,0,0,0,0,0,0,0,
0,0,0,0,0,0,0,0,0,0,0,0,0,0,0,0,
0,0,0,0,0,0,0,0,0,0,0,0,0,0,0,0
</chunk>
   <chunk x="0" y="0" width="16" height="16">
277,0,0,0,0,0,0,0,0,0,0,0,0,0,0,0,
298,0,0,0,0,0,0,0,0,0,0,0,0,0,0,0,
319,0,0,0,0,0,0,0,0,0,0,0,0,0,0,0,
0,0,0,0,0,0,0,0,0,0,0,0,0,0,0,0,
0,0,0,0,0,0,0,0,0,0,0,0,0,0,0,0,
0,0,0,0,0,0,0,0,0,0,0,0,0,0,0,0,
0,0,0,0,0,0,0,0,0,0,0,0,0,0,0,0,
0,0,0,0,0,0,0,0,0,0,0,0,0,0,0,0,
0,0,0,0,0,0,0,0,0,0,0,0,0,0,0,0,
0,0,0,0,0,0,0,0,0,0,0,0,0,0,0,0,
0,0,0,0,0,0,0,0,0,0,0,0,0,0,0,0,
0,0,0,0,0,0,0,0,0,0,0,0,0,0,0,0,
0,0,0,0,0,0,0,0,0,0,0,0,0,0,0,0,
0,0,0,0,0,0,0,0,0,0,0,0,0,0,0,0,
0,0,0,0,0,0,0,0,0,0,0,0,0,0,0,0,
0,0,0,0,0,0,0,0,0,0,0,0,0,0,0,0
</chunk>
  </data>
 </layer>
 <layer id="61" name="Lute_player" width="16" height="24">
  <data encoding="csv">
   <chunk x="-16" y="-16" width="16" height="16">
0,0,0,0,0,0,0,0,0,0,0,0,0,0,0,0,
0,0,0,0,0,0,0,0,0,0,0,0,0,0,0,0,
0,0,0,0,0,0,0,0,0,0,0,0,0,0,0,0,
0,0,0,0,0,0,0,0,0,0,0,0,0,0,0,0,
0,0,0,0,0,0,0,0,0,0,0,0,0,0,0,0,
0,0,0,0,0,0,0,0,0,0,0,0,0,0,0,0,
0,0,0,0,0,0,0,0,0,0,0,0,0,0,0,0,
0,0,0,0,0,0,0,0,0,0,0,0,0,0,0,0,
0,0,0,0,0,0,0,0,0,0,0,0,0,0,0,0,
0,0,0,0,0,0,0,0,0,0,0,0,0,0,0,0,
0,0,0,0,0,0,0,0,0,0,0,0,0,0,0,0,
0,0,0,0,0,0,0,0,0,0,0,0,0,0,0,0,
0,0,0,0,0,0,0,0,0,0,0,0,0,0,0,0,
0,0,0,0,0,0,0,0,0,0,0,0,0,0,0,0,
0,0,0,0,0,0,0,0,0,0,0,0,0,2720,2721,2722,
0,0,0,0,0,0,0,0,0,0,0,0,0,2728,2729,2730
</chunk>
   <chunk x="-16" y="0" width="16" height="16">
0,0,0,0,0,0,0,0,0,0,0,0,0,2736,2737,2738,
0,0,0,0,0,0,0,0,0,0,0,0,0,0,0,0,
0,0,0,0,0,0,0,0,0,0,0,0,0,0,0,0,
0,0,0,0,0,0,0,0,0,0,0,0,0,0,0,0,
0,0,0,0,0,0,0,0,0,0,0,0,0,0,0,0,
0,0,0,0,0,0,0,0,0,0,0,0,0,0,0,0,
0,0,0,0,0,0,0,0,0,0,0,0,0,0,0,0,
0,0,0,0,0,0,0,0,0,0,0,0,0,0,0,0,
0,0,0,0,0,0,0,0,0,0,0,0,0,0,0,0,
0,0,0,0,0,0,0,0,0,0,0,0,0,0,0,0,
0,0,0,0,0,0,0,0,0,0,0,0,0,0,0,0,
0,0,0,0,0,0,0,0,0,0,0,0,0,0,0,0,
0,0,0,0,0,0,0,0,0,0,0,0,0,0,0,0,
0,0,0,0,0,0,0,0,0,0,0,0,0,0,0,0,
0,0,0,0,0,0,0,0,0,0,0,0,0,0,0,0,
0,0,0,0,0,0,0,0,0,0,0,0,0,0,0,0
</chunk>
  </data>
 </layer>
 <layer id="62" name="Drinker1" width="16" height="24">
  <data encoding="csv">
   <chunk x="-16" y="0" width="16" height="16">
0,0,0,0,0,0,0,0,0,0,0,0,2868,2869,0,0,
0,0,0,0,0,0,0,0,0,0,0,0,2874,2875,0,0,
0,0,0,0,0,0,0,0,0,0,0,0,0,0,0,0,
0,0,0,0,0,0,0,0,0,0,0,0,0,0,0,0,
0,0,0,0,0,0,0,0,0,0,0,0,0,0,0,0,
0,0,0,0,0,0,0,0,0,0,0,0,0,0,0,0,
0,0,0,0,0,0,0,0,0,0,0,0,0,0,0,0,
0,0,0,0,0,0,0,0,0,0,0,0,0,0,0,0,
0,0,0,0,0,0,0,0,0,0,0,0,0,0,0,0,
0,0,0,0,0,0,0,0,0,0,0,0,0,0,0,0,
0,0,0,0,0,0,0,0,0,0,0,0,0,0,0,0,
0,0,0,0,0,0,0,0,0,0,0,0,0,0,0,0,
0,0,0,0,0,0,0,0,0,0,0,0,0,0,0,0,
0,0,0,0,0,0,0,0,0,0,0,0,0,0,0,0,
0,0,0,0,0,0,0,0,0,0,0,0,0,0,0,0,
0,0,0,0,0,0,0,0,0,0,0,0,0,0,0,0
</chunk>
  </data>
 </layer>
 <layer id="63" name="Happy_character1" width="16" height="24">
  <data encoding="csv">
   <chunk x="0" y="0" width="16" height="16">
3010,3011,0,0,0,0,0,0,0,0,0,0,0,0,0,0,
3034,3035,0,0,0,0,0,0,0,0,0,0,0,0,0,0,
3058,3059,0,0,0,0,0,0,0,0,0,0,0,0,0,0,
0,0,0,0,0,0,0,0,0,0,0,0,0,0,0,0,
0,0,0,0,0,0,0,0,0,0,0,0,0,0,0,0,
0,0,0,0,0,0,0,0,0,0,0,0,0,0,0,0,
0,0,0,0,0,0,0,0,0,0,0,0,0,0,0,0,
0,0,0,0,0,0,0,0,0,0,0,0,0,0,0,0,
0,0,0,0,0,0,0,0,0,0,0,0,0,0,0,0,
0,0,0,0,0,0,0,0,0,0,0,0,0,0,0,0,
0,0,0,0,0,0,0,0,0,0,0,0,0,0,0,0,
0,0,0,0,0,0,0,0,0,0,0,0,0,0,0,0,
0,0,0,0,0,0,0,0,0,0,0,0,0,0,0,0,
0,0,0,0,0,0,0,0,0,0,0,0,0,0,0,0,
0,0,0,0,0,0,0,0,0,0,0,0,0,0,0,0,
0,0,0,0,0,0,0,0,0,0,0,0,0,0,0,0
</chunk>
  </data>
 </layer>
 <layer id="65" name="Orc" width="16" height="24">
  <data encoding="csv">
   <chunk x="-16" y="0" width="16" height="16">
0,0,0,0,0,0,0,0,0,0,0,0,0,0,0,0,
0,0,0,0,0,0,0,0,0,0,0,0,0,3188,3189,0,
0,0,0,0,0,0,0,0,0,0,0,0,0,3202,3203,0,
0,0,0,0,0,0,0,0,0,0,0,0,0,0,0,0,
0,0,0,0,0,0,0,0,0,0,0,0,0,0,0,0,
0,0,0,0,0,0,0,0,0,0,0,0,0,0,0,0,
0,0,0,0,0,0,0,0,0,0,0,0,0,0,0,0,
0,0,0,0,0,0,0,0,0,0,0,0,0,0,0,0,
0,0,0,0,0,0,0,0,0,0,0,0,0,0,0,0,
0,0,0,0,0,0,0,0,0,0,0,0,0,0,0,0,
0,0,0,0,0,0,0,0,0,0,0,0,0,0,0,0,
0,0,0,0,0,0,0,0,0,0,0,0,0,0,0,0,
0,0,0,0,0,0,0,0,0,0,0,0,0,0,0,0,
0,0,0,0,0,0,0,0,0,0,0,0,0,0,0,0,
0,0,0,0,0,0,0,0,0,0,0,0,0,0,0,0,
0,0,0,0,0,0,0,0,0,0,0,0,0,0,0,0
</chunk>
  </data>
 </layer>
 <layer id="66" name="Resting_character" width="16" height="24">
  <data encoding="csv">
   <chunk x="0" y="-16" width="16" height="16">
0,0,0,0,0,0,0,0,0,0,0,0,0,0,0,0,
0,0,0,0,0,0,0,0,0,0,0,0,0,0,0,0,
0,0,0,0,0,0,0,0,0,0,0,0,0,0,0,0,
0,0,0,0,0,0,0,0,0,0,0,0,0,0,0,0,
0,0,0,0,0,0,0,0,0,0,0,0,0,0,0,0,
0,0,0,0,0,0,0,0,0,0,0,0,0,0,0,0,
0,0,0,0,0,0,0,0,0,0,0,0,0,0,0,0,
0,0,0,0,0,0,0,0,0,0,0,0,0,0,0,0,
0,0,0,0,0,0,0,0,0,0,0,0,0,0,0,0,
0,0,0,0,0,0,0,0,0,0,0,0,0,0,0,0,
0,0,0,0,0,0,0,0,0,0,0,0,0,0,0,0,
0,0,0,0,0,0,0,0,0,0,0,0,0,0,0,0,
0,0,0,0,0,0,0,0,0,0,0,0,0,0,0,0,
0,0,0,0,0,0,0,0,0,0,0,0,0,0,0,0,
0,0,3216,3217,3218,0,0,0,0,0,0,0,0,0,0,0,
0,0,3221,3222,3223,0,0,0,0,0,0,0,0,0,0,0
</chunk>
  </data>
 </layer>
 <layer id="68" name="Drinker2" width="16" height="24">
  <data encoding="csv">
   <chunk x="-16" y="-16" width="16" height="16">
0,0,0,0,0,0,0,0,0,0,0,0,0,0,0,0,
0,0,0,0,0,0,0,0,0,0,0,0,0,0,0,0,
0,0,0,0,0,0,0,0,0,0,0,0,0,0,0,0,
0,0,0,0,0,0,0,0,0,0,0,0,0,0,0,0,
0,0,0,0,0,0,0,0,0,0,0,0,0,0,0,0,
0,0,0,0,0,0,0,0,0,0,0,0,0,0,0,0,
0,0,0,0,0,0,0,0,0,0,0,0,0,0,0,0,
0,0,0,0,0,0,0,0,0,0,0,0,0,0,0,0,
0,0,0,0,0,0,0,0,0,0,0,0,0,0,0,0,
0,0,0,0,0,0,0,0,0,0,0,0,0,0,0,0,
0,0,0,0,0,0,0,0,0,0,0,0,0,0,0,0,
0,0,0,0,0,0,0,0,0,0,0,0,0,0,0,0,
0,0,0,0,0,0,0,0,0,0,0,0,0,0,0,0,
0,0,0,0,0,0,0,0,0,0,0,0,0,0,0,3400,
0,0,0,0,0,0,0,0,0,0,0,0,0,0,0,3402,
0,0,0,0,0,0,0,0,0,0,0,0,0,0,0,0
</chunk>
   <chunk x="0" y="-16" width="16" height="16">
0,0,0,0,0,0,0,0,0,0,0,0,0,0,0,0,
0,0,0,0,0,0,0,0,0,0,0,0,0,0,0,0,
0,0,0,0,0,0,0,0,0,0,0,0,0,0,0,0,
0,0,0,0,0,0,0,0,0,0,0,0,0,0,0,0,
0,0,0,0,0,0,0,0,0,0,0,0,0,0,0,0,
0,0,0,0,0,0,0,0,0,0,0,0,0,0,0,0,
0,0,0,0,0,0,0,0,0,0,0,0,0,0,0,0,
0,0,0,0,0,0,0,0,0,0,0,0,0,0,0,0,
0,0,0,0,0,0,0,0,0,0,0,0,0,0,0,0,
0,0,0,0,0,0,0,0,0,0,0,0,0,0,0,0,
0,0,0,0,0,0,0,0,0,0,0,0,0,0,0,0,
0,0,0,0,0,0,0,0,0,0,0,0,0,0,0,0,
0,0,0,0,0,0,0,0,0,0,0,0,0,0,0,0,
3401,0,0,0,0,0,0,0,0,0,0,0,0,0,0,0,
3403,0,0,0,0,0,0,0,0,0,0,0,0,0,0,0,
0,0,0,0,0,0,0,0,0,0,0,0,0,0,0,0
</chunk>
  </data>
 </layer>
 <layer id="69" name="Character_bag" width="16" height="24">
  <data encoding="csv">
   <chunk x="-16" y="0" width="16" height="16">
0,0,0,0,0,0,0,0,0,0,0,0,0,0,0,0,
0,0,0,0,0,0,0,0,0,0,0,0,0,0,0,0,
0,0,0,0,0,0,0,0,0,0,0,0,0,0,0,0,
0,0,0,0,0,0,0,0,0,0,0,0,0,0,0,0,
0,0,0,0,0,0,0,0,0,0,0,0,0,0,0,0,
0,0,0,0,0,0,0,0,0,0,0,3416,3417,0,0,0,
0,0,0,0,0,0,0,0,0,0,0,3420,3421,0,0,0,
0,0,0,0,0,0,0,0,0,0,0,0,0,0,0,0,
0,0,0,0,0,0,0,0,0,0,0,0,0,0,0,0,
0,0,0,0,0,0,0,0,0,0,0,0,0,0,0,0,
0,0,0,0,0,0,0,0,0,0,0,0,0,0,0,0,
0,0,0,0,0,0,0,0,0,0,0,0,0,0,0,0,
0,0,0,0,0,0,0,0,0,0,0,0,0,0,0,0,
0,0,0,0,0,0,0,0,0,0,0,0,0,0,0,0,
0,0,0,0,0,0,0,0,0,0,0,0,0,0,0,0,
0,0,0,0,0,0,0,0,0,0,0,0,0,0,0,0
</chunk>
  </data>
 </layer>
 <layer id="72" name="Char_sharpening_weapon" width="16" height="24">
  <data encoding="csv">
   <chunk x="0" y="0" width="16" height="16">
0,0,0,0,3532,3533,3534,0,0,0,0,0,0,0,0,0,
0,0,0,0,3550,3551,3552,0,0,0,0,0,0,0,0,0,
0,0,0,0,0,0,0,0,0,0,0,0,0,0,0,0,
0,0,0,0,0,0,0,0,0,0,0,0,0,0,0,0,
0,0,0,0,0,0,0,0,0,0,0,0,0,0,0,0,
0,0,0,0,0,0,0,0,0,0,0,0,0,0,0,0,
0,0,0,0,0,0,0,0,0,0,0,0,0,0,0,0,
0,0,0,0,0,0,0,0,0,0,0,0,0,0,0,0,
0,0,0,0,0,0,0,0,0,0,0,0,0,0,0,0,
0,0,0,0,0,0,0,0,0,0,0,0,0,0,0,0,
0,0,0,0,0,0,0,0,0,0,0,0,0,0,0,0,
0,0,0,0,0,0,0,0,0,0,0,0,0,0,0,0,
0,0,0,0,0,0,0,0,0,0,0,0,0,0,0,0,
0,0,0,0,0,0,0,0,0,0,0,0,0,0,0,0,
0,0,0,0,0,0,0,0,0,0,0,0,0,0,0,0,
0,0,0,0,0,0,0,0,0,0,0,0,0,0,0,0
</chunk>
  </data>
 </layer>
</map>
