<?xml version="1.0" encoding="UTF-8"?>
<map version="1.10" tiledversion="1.10.2" orientation="orthogonal" renderorder="right-down" width="16" height="24" tilewidth="16" tileheight="16" infinite="1" nextlayerid="6" nextobjectid="1">
 <tileset firstgid="1" name="Bonfire_boiler_lizardman" tilewidth="16" tileheight="16" tilecount="588" columns="21">
  <image source="Bonfire_boiler_lizardman.png" width="336" height="448"/>
  <tile id="2">
   <animation>
    <frame tileid="2" duration="150"/>
    <frame tileid="149" duration="150"/>
    <frame tileid="296" duration="150"/>
    <frame tileid="443" duration="150"/>
    <frame tileid="9" duration="150"/>
    <frame tileid="156" duration="150"/>
    <frame tileid="303" duration="150"/>
    <frame tileid="450" duration="150"/>
    <frame tileid="16" duration="150"/>
    <frame tileid="163" duration="150"/>
    <frame tileid="310" duration="150"/>
    <frame tileid="457" duration="150"/>
   </animation>
  </tile>
  <tile id="3">
   <animation>
    <frame tileid="3" duration="150"/>
    <frame tileid="150" duration="150"/>
    <frame tileid="297" duration="150"/>
    <frame tileid="444" duration="150"/>
    <frame tileid="10" duration="150"/>
    <frame tileid="157" duration="150"/>
    <frame tileid="304" duration="150"/>
    <frame tileid="451" duration="150"/>
    <frame tileid="17" duration="150"/>
    <frame tileid="164" duration="150"/>
    <frame tileid="311" duration="150"/>
    <frame tileid="458" duration="150"/>
   </animation>
  </tile>
  <tile id="22">
   <animation>
    <frame tileid="22" duration="150"/>
    <frame tileid="169" duration="150"/>
    <frame tileid="316" duration="150"/>
    <frame tileid="463" duration="150"/>
    <frame tileid="29" duration="150"/>
    <frame tileid="176" duration="150"/>
    <frame tileid="323" duration="150"/>
    <frame tileid="470" duration="150"/>
    <frame tileid="36" duration="150"/>
    <frame tileid="183" duration="150"/>
    <frame tileid="330" duration="150"/>
    <frame tileid="477" duration="150"/>
   </animation>
  </tile>
  <tile id="23">
   <animation>
    <frame tileid="23" duration="150"/>
    <frame tileid="170" duration="150"/>
    <frame tileid="317" duration="150"/>
    <frame tileid="464" duration="150"/>
    <frame tileid="30" duration="150"/>
    <frame tileid="177" duration="150"/>
    <frame tileid="324" duration="150"/>
    <frame tileid="471" duration="150"/>
    <frame tileid="37" duration="150"/>
    <frame tileid="184" duration="150"/>
    <frame tileid="331" duration="150"/>
    <frame tileid="478" duration="150"/>
   </animation>
  </tile>
  <tile id="24">
   <animation>
    <frame tileid="24" duration="150"/>
    <frame tileid="171" duration="150"/>
    <frame tileid="318" duration="150"/>
    <frame tileid="465" duration="150"/>
    <frame tileid="31" duration="150"/>
    <frame tileid="178" duration="150"/>
    <frame tileid="325" duration="150"/>
    <frame tileid="472" duration="150"/>
    <frame tileid="38" duration="150"/>
    <frame tileid="185" duration="150"/>
    <frame tileid="332" duration="150"/>
    <frame tileid="479" duration="150"/>
   </animation>
  </tile>
  <tile id="25">
   <animation>
    <frame tileid="25" duration="150"/>
    <frame tileid="172" duration="150"/>
    <frame tileid="319" duration="150"/>
    <frame tileid="466" duration="150"/>
    <frame tileid="32" duration="150"/>
    <frame tileid="179" duration="150"/>
    <frame tileid="326" duration="150"/>
    <frame tileid="473" duration="150"/>
    <frame tileid="39" duration="150"/>
    <frame tileid="186" duration="150"/>
    <frame tileid="333" duration="150"/>
    <frame tileid="480" duration="150"/>
   </animation>
  </tile>
  <tile id="26">
   <animation>
    <frame tileid="26" duration="150"/>
    <frame tileid="173" duration="150"/>
    <frame tileid="320" duration="150"/>
    <frame tileid="467" duration="150"/>
    <frame tileid="33" duration="150"/>
    <frame tileid="180" duration="150"/>
    <frame tileid="327" duration="150"/>
    <frame tileid="474" duration="150"/>
    <frame tileid="40" duration="150"/>
    <frame tileid="187" duration="150"/>
    <frame tileid="334" duration="150"/>
    <frame tileid="481" duration="150"/>
   </animation>
  </tile>
  <tile id="27">
   <animation>
    <frame tileid="27" duration="150"/>
    <frame tileid="174" duration="150"/>
    <frame tileid="321" duration="150"/>
    <frame tileid="468" duration="150"/>
    <frame tileid="34" duration="150"/>
    <frame tileid="181" duration="150"/>
    <frame tileid="328" duration="150"/>
    <frame tileid="475" duration="150"/>
    <frame tileid="41" duration="150"/>
    <frame tileid="188" duration="150"/>
    <frame tileid="335" duration="150"/>
    <frame tileid="482" duration="150"/>
   </animation>
  </tile>
  <tile id="43">
   <animation>
    <frame tileid="43" duration="150"/>
    <frame tileid="190" duration="150"/>
    <frame tileid="337" duration="150"/>
    <frame tileid="484" duration="150"/>
    <frame tileid="50" duration="150"/>
    <frame tileid="197" duration="150"/>
    <frame tileid="344" duration="150"/>
    <frame tileid="491" duration="150"/>
    <frame tileid="57" duration="150"/>
    <frame tileid="204" duration="150"/>
    <frame tileid="351" duration="150"/>
    <frame tileid="498" duration="150"/>
   </animation>
  </tile>
  <tile id="44">
   <animation>
    <frame tileid="44" duration="150"/>
    <frame tileid="191" duration="150"/>
    <frame tileid="338" duration="150"/>
    <frame tileid="485" duration="150"/>
    <frame tileid="51" duration="150"/>
    <frame tileid="198" duration="150"/>
    <frame tileid="345" duration="150"/>
    <frame tileid="492" duration="150"/>
    <frame tileid="58" duration="150"/>
    <frame tileid="205" duration="150"/>
    <frame tileid="352" duration="150"/>
    <frame tileid="499" duration="150"/>
   </animation>
  </tile>
  <tile id="45">
   <animation>
    <frame tileid="45" duration="150"/>
    <frame tileid="192" duration="150"/>
    <frame tileid="339" duration="150"/>
    <frame tileid="486" duration="150"/>
    <frame tileid="52" duration="150"/>
    <frame tileid="199" duration="150"/>
    <frame tileid="346" duration="150"/>
    <frame tileid="493" duration="150"/>
    <frame tileid="59" duration="150"/>
    <frame tileid="206" duration="150"/>
    <frame tileid="353" duration="150"/>
    <frame tileid="500" duration="150"/>
   </animation>
  </tile>
  <tile id="46">
   <animation>
    <frame tileid="46" duration="150"/>
    <frame tileid="193" duration="150"/>
    <frame tileid="340" duration="150"/>
    <frame tileid="487" duration="150"/>
    <frame tileid="53" duration="150"/>
    <frame tileid="200" duration="150"/>
    <frame tileid="347" duration="150"/>
    <frame tileid="494" duration="150"/>
    <frame tileid="60" duration="150"/>
    <frame tileid="207" duration="150"/>
    <frame tileid="354" duration="150"/>
    <frame tileid="501" duration="150"/>
   </animation>
  </tile>
  <tile id="47">
   <animation>
    <frame tileid="47" duration="150"/>
    <frame tileid="194" duration="150"/>
    <frame tileid="341" duration="150"/>
    <frame tileid="488" duration="150"/>
    <frame tileid="54" duration="150"/>
    <frame tileid="201" duration="150"/>
    <frame tileid="348" duration="150"/>
    <frame tileid="495" duration="150"/>
    <frame tileid="61" duration="150"/>
    <frame tileid="208" duration="150"/>
    <frame tileid="355" duration="150"/>
    <frame tileid="502" duration="150"/>
   </animation>
  </tile>
  <tile id="48">
   <animation>
    <frame tileid="48" duration="150"/>
    <frame tileid="195" duration="150"/>
    <frame tileid="342" duration="150"/>
    <frame tileid="489" duration="150"/>
    <frame tileid="55" duration="150"/>
    <frame tileid="202" duration="150"/>
    <frame tileid="349" duration="150"/>
    <frame tileid="496" duration="150"/>
    <frame tileid="62" duration="150"/>
    <frame tileid="209" duration="150"/>
    <frame tileid="356" duration="150"/>
    <frame tileid="503" duration="150"/>
   </animation>
  </tile>
  <tile id="85">
   <animation>
    <frame tileid="85" duration="150"/>
    <frame tileid="232" duration="150"/>
    <frame tileid="379" duration="150"/>
    <frame tileid="526" duration="150"/>
    <frame tileid="92" duration="150"/>
    <frame tileid="239" duration="150"/>
    <frame tileid="386" duration="150"/>
    <frame tileid="533" duration="150"/>
    <frame tileid="99" duration="150"/>
    <frame tileid="246" duration="150"/>
    <frame tileid="393" duration="150"/>
    <frame tileid="540" duration="150"/>
   </animation>
  </tile>
  <tile id="86">
   <animation>
    <frame tileid="86" duration="150"/>
    <frame tileid="233" duration="150"/>
    <frame tileid="380" duration="150"/>
    <frame tileid="527" duration="150"/>
    <frame tileid="93" duration="150"/>
    <frame tileid="240" duration="150"/>
    <frame tileid="387" duration="150"/>
    <frame tileid="534" duration="150"/>
    <frame tileid="100" duration="150"/>
    <frame tileid="247" duration="150"/>
    <frame tileid="394" duration="150"/>
    <frame tileid="541" duration="150"/>
   </animation>
  </tile>
  <tile id="88">
   <animation>
    <frame tileid="88" duration="150"/>
    <frame tileid="235" duration="150"/>
    <frame tileid="382" duration="150"/>
    <frame tileid="529" duration="150"/>
    <frame tileid="95" duration="150"/>
    <frame tileid="242" duration="150"/>
    <frame tileid="389" duration="150"/>
    <frame tileid="536" duration="150"/>
    <frame tileid="102" duration="150"/>
    <frame tileid="249" duration="150"/>
    <frame tileid="396" duration="150"/>
    <frame tileid="543" duration="150"/>
   </animation>
  </tile>
  <tile id="89">
   <animation>
    <frame tileid="89" duration="150"/>
    <frame tileid="236" duration="150"/>
    <frame tileid="383" duration="150"/>
    <frame tileid="530" duration="150"/>
    <frame tileid="96" duration="150"/>
    <frame tileid="243" duration="150"/>
    <frame tileid="390" duration="150"/>
    <frame tileid="537" duration="150"/>
    <frame tileid="103" duration="150"/>
    <frame tileid="250" duration="150"/>
    <frame tileid="397" duration="150"/>
    <frame tileid="544" duration="150"/>
   </animation>
  </tile>
  <tile id="105">
   <animation>
    <frame tileid="105" duration="150"/>
    <frame tileid="252" duration="150"/>
    <frame tileid="399" duration="150"/>
    <frame tileid="546" duration="150"/>
    <frame tileid="112" duration="150"/>
    <frame tileid="259" duration="150"/>
    <frame tileid="406" duration="150"/>
    <frame tileid="553" duration="150"/>
    <frame tileid="119" duration="150"/>
    <frame tileid="266" duration="150"/>
    <frame tileid="413" duration="150"/>
    <frame tileid="560" duration="150"/>
   </animation>
  </tile>
  <tile id="106">
   <animation>
    <frame tileid="106" duration="150"/>
    <frame tileid="253" duration="150"/>
    <frame tileid="400" duration="150"/>
    <frame tileid="547" duration="150"/>
    <frame tileid="113" duration="150"/>
    <frame tileid="260" duration="150"/>
    <frame tileid="407" duration="150"/>
    <frame tileid="554" duration="150"/>
    <frame tileid="120" duration="150"/>
    <frame tileid="267" duration="150"/>
    <frame tileid="414" duration="150"/>
    <frame tileid="561" duration="150"/>
   </animation>
  </tile>
  <tile id="107">
   <animation>
    <frame tileid="107" duration="150"/>
    <frame tileid="254" duration="150"/>
    <frame tileid="401" duration="150"/>
    <frame tileid="548" duration="150"/>
    <frame tileid="114" duration="150"/>
    <frame tileid="261" duration="150"/>
    <frame tileid="408" duration="150"/>
    <frame tileid="555" duration="150"/>
    <frame tileid="121" duration="150"/>
    <frame tileid="268" duration="150"/>
    <frame tileid="415" duration="150"/>
    <frame tileid="562" duration="150"/>
   </animation>
  </tile>
  <tile id="109">
   <animation>
    <frame tileid="109" duration="150"/>
    <frame tileid="256" duration="150"/>
    <frame tileid="403" duration="150"/>
    <frame tileid="550" duration="150"/>
    <frame tileid="116" duration="150"/>
    <frame tileid="263" duration="150"/>
    <frame tileid="410" duration="150"/>
    <frame tileid="557" duration="150"/>
    <frame tileid="123" duration="150"/>
    <frame tileid="270" duration="150"/>
    <frame tileid="417" duration="150"/>
    <frame tileid="564" duration="150"/>
   </animation>
  </tile>
  <tile id="110">
   <animation>
    <frame tileid="110" duration="150"/>
    <frame tileid="257" duration="150"/>
    <frame tileid="404" duration="150"/>
    <frame tileid="551" duration="150"/>
    <frame tileid="117" duration="150"/>
    <frame tileid="264" duration="150"/>
    <frame tileid="411" duration="150"/>
    <frame tileid="558" duration="150"/>
    <frame tileid="124" duration="150"/>
    <frame tileid="271" duration="150"/>
    <frame tileid="418" duration="150"/>
    <frame tileid="565" duration="150"/>
   </animation>
  </tile>
  <tile id="126">
   <animation>
    <frame tileid="126" duration="150"/>
    <frame tileid="273" duration="150"/>
    <frame tileid="420" duration="150"/>
    <frame tileid="567" duration="150"/>
    <frame tileid="133" duration="150"/>
    <frame tileid="280" duration="150"/>
    <frame tileid="427" duration="150"/>
    <frame tileid="574" duration="150"/>
    <frame tileid="140" duration="150"/>
    <frame tileid="287" duration="150"/>
    <frame tileid="434" duration="150"/>
    <frame tileid="581" duration="150"/>
   </animation>
  </tile>
  <tile id="127">
   <animation>
    <frame tileid="127" duration="150"/>
    <frame tileid="274" duration="150"/>
    <frame tileid="421" duration="150"/>
    <frame tileid="568" duration="150"/>
    <frame tileid="134" duration="150"/>
    <frame tileid="281" duration="150"/>
    <frame tileid="428" duration="150"/>
    <frame tileid="575" duration="150"/>
    <frame tileid="141" duration="150"/>
    <frame tileid="288" duration="150"/>
    <frame tileid="435" duration="150"/>
    <frame tileid="582" duration="150"/>
   </animation>
  </tile>
 </tileset>
 <tileset firstgid="589" name="Lute_player" tilewidth="16" tileheight="16" tilecount="144" columns="8">
  <image source="Lute_player_without_shadow.png" width="128" height="288"/>
  <tile id="0">
   <animation>
    <frame tileid="0" duration="150"/>
    <frame tileid="24" duration="150"/>
    <frame tileid="48" duration="150"/>
    <frame tileid="72" duration="150"/>
    <frame tileid="96" duration="150"/>
    <frame tileid="120" duration="150"/>
   </animation>
  </tile>
  <tile id="1">
   <animation>
    <frame tileid="1" duration="150"/>
    <frame tileid="25" duration="150"/>
    <frame tileid="49" duration="150"/>
    <frame tileid="73" duration="150"/>
    <frame tileid="97" duration="150"/>
    <frame tileid="121" duration="150"/>
   </animation>
  </tile>
  <tile id="2">
   <animation>
    <frame tileid="2" duration="150"/>
    <frame tileid="26" duration="150"/>
    <frame tileid="50" duration="150"/>
    <frame tileid="74" duration="150"/>
    <frame tileid="98" duration="150"/>
    <frame tileid="122" duration="150"/>
   </animation>
  </tile>
  <tile id="4">
   <animation>
    <frame tileid="4" duration="150"/>
    <frame tileid="28" duration="150"/>
    <frame tileid="52" duration="150"/>
    <frame tileid="76" duration="150"/>
    <frame tileid="100" duration="150"/>
    <frame tileid="124" duration="150"/>
   </animation>
  </tile>
  <tile id="6">
   <animation>
    <frame tileid="6" duration="150"/>
    <frame tileid="30" duration="150"/>
    <frame tileid="54" duration="150"/>
    <frame tileid="78" duration="150"/>
    <frame tileid="102" duration="150"/>
    <frame tileid="126" duration="150"/>
   </animation>
  </tile>
  <tile id="7">
   <animation>
    <frame tileid="7" duration="150"/>
    <frame tileid="31" duration="150"/>
    <frame tileid="55" duration="150"/>
    <frame tileid="79" duration="150"/>
    <frame tileid="103" duration="150"/>
    <frame tileid="127" duration="150"/>
   </animation>
  </tile>
  <tile id="8">
   <animation>
    <frame tileid="8" duration="150"/>
    <frame tileid="32" duration="150"/>
    <frame tileid="56" duration="150"/>
    <frame tileid="80" duration="150"/>
    <frame tileid="104" duration="150"/>
    <frame tileid="128" duration="150"/>
   </animation>
  </tile>
  <tile id="9">
   <animation>
    <frame tileid="9" duration="150"/>
    <frame tileid="33" duration="150"/>
    <frame tileid="57" duration="150"/>
    <frame tileid="81" duration="150"/>
    <frame tileid="105" duration="150"/>
    <frame tileid="129" duration="150"/>
   </animation>
  </tile>
  <tile id="10">
   <animation>
    <frame tileid="10" duration="150"/>
    <frame tileid="34" duration="150"/>
    <frame tileid="58" duration="150"/>
    <frame tileid="82" duration="150"/>
    <frame tileid="106" duration="150"/>
    <frame tileid="130" duration="150"/>
   </animation>
  </tile>
  <tile id="11">
   <animation>
    <frame tileid="11" duration="150"/>
    <frame tileid="35" duration="150"/>
    <frame tileid="59" duration="150"/>
    <frame tileid="83" duration="150"/>
    <frame tileid="107" duration="150"/>
    <frame tileid="131" duration="150"/>
   </animation>
  </tile>
  <tile id="12">
   <animation>
    <frame tileid="12" duration="150"/>
    <frame tileid="36" duration="150"/>
    <frame tileid="60" duration="150"/>
    <frame tileid="84" duration="150"/>
    <frame tileid="108" duration="150"/>
    <frame tileid="132" duration="150"/>
   </animation>
  </tile>
  <tile id="13">
   <animation>
    <frame tileid="13" duration="150"/>
    <frame tileid="37" duration="150"/>
    <frame tileid="61" duration="150"/>
    <frame tileid="85" duration="150"/>
    <frame tileid="109" duration="150"/>
    <frame tileid="133" duration="150"/>
   </animation>
  </tile>
  <tile id="14">
   <animation>
    <frame tileid="14" duration="150"/>
    <frame tileid="38" duration="150"/>
    <frame tileid="62" duration="150"/>
    <frame tileid="86" duration="150"/>
    <frame tileid="110" duration="150"/>
    <frame tileid="134" duration="150"/>
   </animation>
  </tile>
  <tile id="15">
   <animation>
    <frame tileid="15" duration="150"/>
    <frame tileid="39" duration="150"/>
    <frame tileid="63" duration="150"/>
    <frame tileid="87" duration="150"/>
    <frame tileid="111" duration="150"/>
    <frame tileid="135" duration="150"/>
   </animation>
  </tile>
  <tile id="20">
   <animation>
    <frame tileid="20" duration="150"/>
    <frame tileid="44" duration="150"/>
    <frame tileid="68" duration="150"/>
    <frame tileid="92" duration="150"/>
    <frame tileid="116" duration="150"/>
    <frame tileid="140" duration="150"/>
   </animation>
  </tile>
  <tile id="21">
   <animation>
    <frame tileid="21" duration="150"/>
    <frame tileid="45" duration="150"/>
    <frame tileid="69" duration="150"/>
    <frame tileid="93" duration="150"/>
    <frame tileid="117" duration="150"/>
    <frame tileid="141" duration="150"/>
   </animation>
  </tile>
 </tileset>
 <tileset firstgid="733" name="Lute_player" tilewidth="16" tileheight="16" tilecount="144" columns="8">
  <image source="Lute_player.png" width="128" height="288"/>
  <tile id="0">
   <animation>
    <frame tileid="0" duration="150"/>
    <frame tileid="24" duration="150"/>
    <frame tileid="48" duration="150"/>
    <frame tileid="72" duration="150"/>
    <frame tileid="96" duration="150"/>
    <frame tileid="120" duration="150"/>
   </animation>
  </tile>
  <tile id="1">
   <animation>
    <frame tileid="1" duration="150"/>
    <frame tileid="25" duration="150"/>
    <frame tileid="49" duration="150"/>
    <frame tileid="73" duration="150"/>
    <frame tileid="97" duration="150"/>
    <frame tileid="121" duration="150"/>
   </animation>
  </tile>
  <tile id="2">
   <animation>
    <frame tileid="2" duration="150"/>
    <frame tileid="26" duration="150"/>
    <frame tileid="50" duration="150"/>
    <frame tileid="74" duration="150"/>
    <frame tileid="98" duration="150"/>
    <frame tileid="122" duration="150"/>
   </animation>
  </tile>
  <tile id="4">
   <animation>
    <frame tileid="4" duration="150"/>
    <frame tileid="28" duration="150"/>
    <frame tileid="52" duration="150"/>
    <frame tileid="76" duration="150"/>
    <frame tileid="100" duration="150"/>
    <frame tileid="124" duration="150"/>
   </animation>
  </tile>
  <tile id="6">
   <animation>
    <frame tileid="6" duration="150"/>
    <frame tileid="30" duration="150"/>
    <frame tileid="54" duration="150"/>
    <frame tileid="78" duration="150"/>
    <frame tileid="102" duration="150"/>
    <frame tileid="126" duration="150"/>
   </animation>
  </tile>
  <tile id="7">
   <animation>
    <frame tileid="7" duration="150"/>
    <frame tileid="31" duration="150"/>
    <frame tileid="55" duration="150"/>
    <frame tileid="79" duration="150"/>
    <frame tileid="103" duration="150"/>
    <frame tileid="127" duration="150"/>
   </animation>
  </tile>
  <tile id="8">
   <animation>
    <frame tileid="8" duration="150"/>
    <frame tileid="32" duration="150"/>
    <frame tileid="56" duration="150"/>
    <frame tileid="80" duration="150"/>
    <frame tileid="104" duration="150"/>
    <frame tileid="128" duration="150"/>
   </animation>
  </tile>
  <tile id="9">
   <animation>
    <frame tileid="9" duration="150"/>
    <frame tileid="33" duration="150"/>
    <frame tileid="57" duration="150"/>
    <frame tileid="81" duration="150"/>
    <frame tileid="105" duration="150"/>
    <frame tileid="129" duration="150"/>
   </animation>
  </tile>
  <tile id="10">
   <animation>
    <frame tileid="10" duration="150"/>
    <frame tileid="34" duration="150"/>
    <frame tileid="58" duration="150"/>
    <frame tileid="82" duration="150"/>
    <frame tileid="106" duration="150"/>
    <frame tileid="130" duration="150"/>
   </animation>
  </tile>
  <tile id="11">
   <animation>
    <frame tileid="11" duration="150"/>
    <frame tileid="35" duration="150"/>
    <frame tileid="59" duration="150"/>
    <frame tileid="83" duration="150"/>
    <frame tileid="107" duration="150"/>
    <frame tileid="131" duration="150"/>
   </animation>
  </tile>
  <tile id="12">
   <animation>
    <frame tileid="12" duration="150"/>
    <frame tileid="36" duration="150"/>
    <frame tileid="60" duration="150"/>
    <frame tileid="84" duration="150"/>
    <frame tileid="108" duration="150"/>
    <frame tileid="132" duration="150"/>
   </animation>
  </tile>
  <tile id="13">
   <animation>
    <frame tileid="13" duration="150"/>
    <frame tileid="37" duration="150"/>
    <frame tileid="61" duration="150"/>
    <frame tileid="85" duration="150"/>
    <frame tileid="109" duration="150"/>
    <frame tileid="133" duration="150"/>
   </animation>
  </tile>
  <tile id="14">
   <animation>
    <frame tileid="14" duration="150"/>
    <frame tileid="38" duration="150"/>
    <frame tileid="62" duration="150"/>
    <frame tileid="86" duration="150"/>
    <frame tileid="110" duration="150"/>
    <frame tileid="134" duration="150"/>
   </animation>
  </tile>
  <tile id="15">
   <animation>
    <frame tileid="15" duration="150"/>
    <frame tileid="39" duration="150"/>
    <frame tileid="63" duration="150"/>
    <frame tileid="87" duration="150"/>
    <frame tileid="111" duration="150"/>
    <frame tileid="135" duration="150"/>
   </animation>
  </tile>
  <tile id="20">
   <animation>
    <frame tileid="20" duration="150"/>
    <frame tileid="44" duration="150"/>
    <frame tileid="68" duration="150"/>
    <frame tileid="92" duration="150"/>
    <frame tileid="116" duration="150"/>
    <frame tileid="140" duration="150"/>
   </animation>
  </tile>
  <tile id="21">
   <animation>
    <frame tileid="21" duration="150"/>
    <frame tileid="45" duration="150"/>
    <frame tileid="69" duration="150"/>
    <frame tileid="93" duration="150"/>
    <frame tileid="117" duration="150"/>
    <frame tileid="141" duration="150"/>
   </animation>
  </tile>
 </tileset>
 <tileset firstgid="877" name="Lute_player_shadow" tilewidth="16" tileheight="16" tilecount="6" columns="3">
  <image source="Lute_player_shadow.png" width="48" height="32"/>
 </tileset>
 <tileset firstgid="883" name="Drinker1" tilewidth="16" tileheight="16" tilecount="144" columns="6">
  <image source="Drinker1.png" width="96" height="384"/>
  <tile id="0">
   <animation>
    <frame tileid="0" duration="150"/>
    <frame tileid="0" duration="150"/>
    <frame tileid="0" duration="150"/>
    <frame tileid="18" duration="150"/>
    <frame tileid="36" duration="150"/>
    <frame tileid="54" duration="150"/>
    <frame tileid="72" duration="150"/>
    <frame tileid="72" duration="150"/>
    <frame tileid="72" duration="150"/>
    <frame tileid="90" duration="150"/>
    <frame tileid="108" duration="150"/>
    <frame tileid="126" duration="150"/>
   </animation>
  </tile>
  <tile id="1">
   <animation>
    <frame tileid="1" duration="150"/>
    <frame tileid="1" duration="150"/>
    <frame tileid="1" duration="150"/>
    <frame tileid="19" duration="150"/>
    <frame tileid="37" duration="150"/>
    <frame tileid="55" duration="150"/>
    <frame tileid="73" duration="150"/>
    <frame tileid="73" duration="150"/>
    <frame tileid="73" duration="150"/>
    <frame tileid="91" duration="150"/>
    <frame tileid="109" duration="150"/>
    <frame tileid="127" duration="150"/>
   </animation>
  </tile>
  <tile id="3">
   <animation>
    <frame tileid="3" duration="150"/>
    <frame tileid="3" duration="150"/>
    <frame tileid="3" duration="150"/>
    <frame tileid="21" duration="150"/>
    <frame tileid="39" duration="150"/>
    <frame tileid="57" duration="150"/>
    <frame tileid="75" duration="150"/>
    <frame tileid="75" duration="150"/>
    <frame tileid="75" duration="150"/>
    <frame tileid="93" duration="150"/>
    <frame tileid="111" duration="150"/>
    <frame tileid="129" duration="150"/>
   </animation>
  </tile>
  <tile id="4">
   <animation>
    <frame tileid="4" duration="150"/>
    <frame tileid="4" duration="150"/>
    <frame tileid="4" duration="150"/>
    <frame tileid="22" duration="150"/>
    <frame tileid="40" duration="150"/>
    <frame tileid="58" duration="150"/>
    <frame tileid="76" duration="150"/>
    <frame tileid="76" duration="150"/>
    <frame tileid="76" duration="150"/>
    <frame tileid="94" duration="150"/>
    <frame tileid="112" duration="150"/>
    <frame tileid="130" duration="150"/>
   </animation>
  </tile>
  <tile id="5">
   <animation>
    <frame tileid="5" duration="150"/>
    <frame tileid="5" duration="150"/>
    <frame tileid="5" duration="150"/>
    <frame tileid="23" duration="150"/>
    <frame tileid="41" duration="150"/>
    <frame tileid="59" duration="150"/>
    <frame tileid="77" duration="150"/>
    <frame tileid="77" duration="150"/>
    <frame tileid="77" duration="150"/>
    <frame tileid="95" duration="150"/>
    <frame tileid="113" duration="150"/>
    <frame tileid="131" duration="150"/>
   </animation>
  </tile>
  <tile id="6">
   <animation>
    <frame tileid="6" duration="150"/>
    <frame tileid="6" duration="150"/>
    <frame tileid="6" duration="150"/>
    <frame tileid="24" duration="150"/>
    <frame tileid="42" duration="150"/>
    <frame tileid="60" duration="150"/>
    <frame tileid="78" duration="150"/>
    <frame tileid="78" duration="150"/>
    <frame tileid="78" duration="150"/>
    <frame tileid="96" duration="150"/>
    <frame tileid="114" duration="150"/>
    <frame tileid="132" duration="150"/>
   </animation>
  </tile>
  <tile id="7">
   <animation>
    <frame tileid="7" duration="150"/>
    <frame tileid="7" duration="150"/>
    <frame tileid="7" duration="150"/>
    <frame tileid="25" duration="150"/>
    <frame tileid="43" duration="150"/>
    <frame tileid="61" duration="150"/>
    <frame tileid="79" duration="150"/>
    <frame tileid="79" duration="150"/>
    <frame tileid="79" duration="150"/>
    <frame tileid="97" duration="150"/>
    <frame tileid="115" duration="150"/>
    <frame tileid="133" duration="150"/>
   </animation>
  </tile>
  <tile id="8">
   <animation>
    <frame tileid="8" duration="150"/>
    <frame tileid="8" duration="150"/>
    <frame tileid="8" duration="150"/>
    <frame tileid="26" duration="150"/>
    <frame tileid="44" duration="150"/>
    <frame tileid="62" duration="150"/>
    <frame tileid="80" duration="150"/>
    <frame tileid="80" duration="150"/>
    <frame tileid="80" duration="150"/>
    <frame tileid="98" duration="150"/>
    <frame tileid="116" duration="150"/>
    <frame tileid="134" duration="150"/>
   </animation>
  </tile>
  <tile id="9">
   <animation>
    <frame tileid="9" duration="150"/>
    <frame tileid="9" duration="150"/>
    <frame tileid="9" duration="150"/>
    <frame tileid="27" duration="150"/>
    <frame tileid="45" duration="150"/>
    <frame tileid="63" duration="150"/>
    <frame tileid="81" duration="150"/>
    <frame tileid="81" duration="150"/>
    <frame tileid="81" duration="150"/>
    <frame tileid="99" duration="150"/>
    <frame tileid="117" duration="150"/>
    <frame tileid="135" duration="150"/>
   </animation>
  </tile>
  <tile id="10">
   <animation>
    <frame tileid="10" duration="150"/>
    <frame tileid="10" duration="150"/>
    <frame tileid="10" duration="150"/>
    <frame tileid="28" duration="150"/>
    <frame tileid="46" duration="150"/>
    <frame tileid="64" duration="150"/>
    <frame tileid="82" duration="150"/>
    <frame tileid="82" duration="150"/>
    <frame tileid="82" duration="150"/>
    <frame tileid="100" duration="150"/>
    <frame tileid="118" duration="150"/>
    <frame tileid="136" duration="150"/>
   </animation>
  </tile>
  <tile id="11">
   <animation>
    <frame tileid="11" duration="150"/>
    <frame tileid="11" duration="150"/>
    <frame tileid="11" duration="150"/>
    <frame tileid="29" duration="150"/>
    <frame tileid="47" duration="150"/>
    <frame tileid="65" duration="150"/>
    <frame tileid="83" duration="150"/>
    <frame tileid="83" duration="150"/>
    <frame tileid="83" duration="150"/>
    <frame tileid="101" duration="150"/>
    <frame tileid="119" duration="150"/>
    <frame tileid="137" duration="150"/>
   </animation>
  </tile>
  <tile id="12">
   <animation>
    <frame tileid="12" duration="150"/>
    <frame tileid="12" duration="150"/>
    <frame tileid="12" duration="150"/>
    <frame tileid="30" duration="150"/>
    <frame tileid="48" duration="150"/>
    <frame tileid="66" duration="150"/>
    <frame tileid="84" duration="150"/>
    <frame tileid="84" duration="150"/>
    <frame tileid="84" duration="150"/>
    <frame tileid="102" duration="150"/>
    <frame tileid="120" duration="150"/>
    <frame tileid="138" duration="150"/>
   </animation>
  </tile>
 </tileset>
 <tileset firstgid="1027" name="Happy_character1" tilewidth="16" tileheight="16" tilecount="96" columns="24">
  <image source="Happy_character1.png" width="384" height="64"/>
  <tile id="0">
   <animation>
    <frame tileid="0" duration="150"/>
    <frame tileid="4" duration="150"/>
    <frame tileid="8" duration="150"/>
    <frame tileid="12" duration="150"/>
    <frame tileid="16" duration="150"/>
    <frame tileid="20" duration="150"/>
   </animation>
  </tile>
  <tile id="1">
   <animation>
    <frame tileid="1" duration="150"/>
    <frame tileid="5" duration="150"/>
    <frame tileid="9" duration="150"/>
    <frame tileid="13" duration="150"/>
    <frame tileid="17" duration="150"/>
    <frame tileid="21" duration="150"/>
   </animation>
  </tile>
  <tile id="2">
   <animation>
    <frame tileid="2" duration="150"/>
    <frame tileid="6" duration="150"/>
    <frame tileid="10" duration="150"/>
    <frame tileid="14" duration="150"/>
    <frame tileid="18" duration="150"/>
    <frame tileid="22" duration="150"/>
   </animation>
  </tile>
  <tile id="3">
   <animation>
    <frame tileid="3" duration="150"/>
    <frame tileid="7" duration="150"/>
    <frame tileid="11" duration="150"/>
    <frame tileid="15" duration="150"/>
    <frame tileid="19" duration="150"/>
    <frame tileid="23" duration="150"/>
   </animation>
  </tile>
  <tile id="24">
   <animation>
    <frame tileid="24" duration="150"/>
    <frame tileid="28" duration="150"/>
    <frame tileid="32" duration="150"/>
    <frame tileid="36" duration="150"/>
    <frame tileid="40" duration="150"/>
    <frame tileid="44" duration="150"/>
   </animation>
  </tile>
  <tile id="25">
   <animation>
    <frame tileid="25" duration="150"/>
    <frame tileid="29" duration="150"/>
    <frame tileid="33" duration="150"/>
    <frame tileid="37" duration="150"/>
    <frame tileid="41" duration="150"/>
    <frame tileid="45" duration="150"/>
   </animation>
  </tile>
  <tile id="26">
   <animation>
    <frame tileid="26" duration="150"/>
    <frame tileid="30" duration="150"/>
    <frame tileid="34" duration="150"/>
    <frame tileid="38" duration="150"/>
    <frame tileid="42" duration="150"/>
    <frame tileid="46" duration="150"/>
   </animation>
  </tile>
  <tile id="27">
   <animation>
    <frame tileid="27" duration="150"/>
    <frame tileid="31" duration="150"/>
    <frame tileid="35" duration="150"/>
    <frame tileid="39" duration="150"/>
    <frame tileid="43" duration="150"/>
    <frame tileid="47" duration="150"/>
   </animation>
  </tile>
  <tile id="48">
   <animation>
    <frame tileid="48" duration="150"/>
    <frame tileid="52" duration="150"/>
    <frame tileid="56" duration="150"/>
    <frame tileid="60" duration="150"/>
    <frame tileid="64" duration="150"/>
    <frame tileid="68" duration="150"/>
   </animation>
  </tile>
  <tile id="49">
   <animation>
    <frame tileid="49" duration="150"/>
    <frame tileid="53" duration="150"/>
    <frame tileid="57" duration="150"/>
    <frame tileid="61" duration="150"/>
    <frame tileid="65" duration="150"/>
    <frame tileid="69" duration="150"/>
   </animation>
  </tile>
  <tile id="50">
   <animation>
    <frame tileid="50" duration="150"/>
    <frame tileid="54" duration="150"/>
    <frame tileid="58" duration="150"/>
    <frame tileid="62" duration="150"/>
    <frame tileid="66" duration="150"/>
    <frame tileid="70" duration="150"/>
   </animation>
  </tile>
  <tile id="51">
   <animation>
    <frame tileid="51" duration="150"/>
    <frame tileid="55" duration="150"/>
    <frame tileid="59" duration="150"/>
    <frame tileid="63" duration="150"/>
    <frame tileid="67" duration="150"/>
    <frame tileid="71" duration="150"/>
   </animation>
  </tile>
  <tile id="72">
   <animation>
    <frame tileid="72" duration="150"/>
    <frame tileid="76" duration="150"/>
    <frame tileid="80" duration="150"/>
    <frame tileid="84" duration="150"/>
    <frame tileid="88" duration="150"/>
    <frame tileid="92" duration="150"/>
   </animation>
  </tile>
  <tile id="73">
   <animation>
    <frame tileid="73" duration="150"/>
    <frame tileid="77" duration="150"/>
    <frame tileid="81" duration="150"/>
    <frame tileid="85" duration="150"/>
    <frame tileid="89" duration="150"/>
    <frame tileid="93" duration="150"/>
   </animation>
  </tile>
 </tileset>
 <tileset firstgid="1123" name="Orc" tilewidth="16" tileheight="16" tilecount="112" columns="14">
  <image source="Orc.png" width="224" height="128"/>
  <tile id="0">
   <animation>
    <frame tileid="0" duration="150"/>
    <frame tileid="0" duration="150"/>
    <frame tileid="0" duration="150"/>
    <frame tileid="0" duration="150"/>
    <frame tileid="2" duration="150"/>
    <frame tileid="4" duration="150"/>
    <frame tileid="6" duration="150"/>
    <frame tileid="6" duration="150"/>
    <frame tileid="6" duration="150"/>
    <frame tileid="8" duration="150"/>
    <frame tileid="10" duration="150"/>
    <frame tileid="12" duration="150"/>
   </animation>
  </tile>
  <tile id="14">
   <animation>
    <frame tileid="14" duration="150"/>
    <frame tileid="14" duration="150"/>
    <frame tileid="14" duration="150"/>
    <frame tileid="14" duration="150"/>
    <frame tileid="16" duration="150"/>
    <frame tileid="18" duration="150"/>
    <frame tileid="20" duration="150"/>
    <frame tileid="20" duration="150"/>
    <frame tileid="20" duration="150"/>
    <frame tileid="22" duration="150"/>
    <frame tileid="24" duration="150"/>
    <frame tileid="26" duration="150"/>
   </animation>
  </tile>
  <tile id="15">
   <animation>
    <frame tileid="15" duration="150"/>
    <frame tileid="15" duration="150"/>
    <frame tileid="15" duration="150"/>
    <frame tileid="15" duration="150"/>
    <frame tileid="17" duration="150"/>
    <frame tileid="19" duration="150"/>
    <frame tileid="21" duration="150"/>
    <frame tileid="21" duration="150"/>
    <frame tileid="21" duration="150"/>
    <frame tileid="23" duration="150"/>
    <frame tileid="25" duration="150"/>
    <frame tileid="27" duration="150"/>
   </animation>
  </tile>
  <tile id="28">
   <animation>
    <frame tileid="28" duration="150"/>
    <frame tileid="28" duration="150"/>
    <frame tileid="28" duration="150"/>
    <frame tileid="28" duration="150"/>
    <frame tileid="30" duration="150"/>
    <frame tileid="32" duration="150"/>
    <frame tileid="34" duration="150"/>
    <frame tileid="34" duration="150"/>
    <frame tileid="34" duration="150"/>
    <frame tileid="36" duration="150"/>
    <frame tileid="38" duration="150"/>
    <frame tileid="40" duration="150"/>
   </animation>
  </tile>
  <tile id="29">
   <animation>
    <frame tileid="29" duration="150"/>
    <frame tileid="29" duration="150"/>
    <frame tileid="29" duration="150"/>
    <frame tileid="29" duration="150"/>
    <frame tileid="31" duration="150"/>
    <frame tileid="33" duration="150"/>
    <frame tileid="35" duration="150"/>
    <frame tileid="35" duration="150"/>
    <frame tileid="35" duration="150"/>
    <frame tileid="37" duration="150"/>
    <frame tileid="39" duration="150"/>
    <frame tileid="41" duration="150"/>
   </animation>
  </tile>
  <tile id="42">
   <animation>
    <frame tileid="42" duration="150"/>
    <frame tileid="42" duration="150"/>
    <frame tileid="42" duration="150"/>
    <frame tileid="42" duration="150"/>
    <frame tileid="44" duration="150"/>
    <frame tileid="46" duration="150"/>
    <frame tileid="48" duration="150"/>
    <frame tileid="48" duration="150"/>
    <frame tileid="48" duration="150"/>
    <frame tileid="50" duration="150"/>
    <frame tileid="52" duration="150"/>
    <frame tileid="54" duration="150"/>
   </animation>
  </tile>
  <tile id="43">
   <animation>
    <frame tileid="43" duration="150"/>
    <frame tileid="43" duration="150"/>
    <frame tileid="43" duration="150"/>
    <frame tileid="43" duration="150"/>
    <frame tileid="45" duration="150"/>
    <frame tileid="47" duration="150"/>
    <frame tileid="49" duration="150"/>
    <frame tileid="49" duration="150"/>
    <frame tileid="49" duration="150"/>
    <frame tileid="51" duration="150"/>
    <frame tileid="53" duration="150"/>
    <frame tileid="55" duration="150"/>
   </animation>
  </tile>
  <tile id="56">
   <animation>
    <frame tileid="56" duration="150"/>
    <frame tileid="56" duration="150"/>
    <frame tileid="56" duration="150"/>
    <frame tileid="56" duration="150"/>
    <frame tileid="58" duration="150"/>
    <frame tileid="60" duration="150"/>
    <frame tileid="62" duration="150"/>
    <frame tileid="62" duration="150"/>
    <frame tileid="62" duration="150"/>
    <frame tileid="64" duration="150"/>
    <frame tileid="66" duration="150"/>
    <frame tileid="68" duration="150"/>
   </animation>
  </tile>
  <tile id="57">
   <animation>
    <frame tileid="57" duration="150"/>
    <frame tileid="57" duration="150"/>
    <frame tileid="57" duration="150"/>
    <frame tileid="57" duration="150"/>
    <frame tileid="59" duration="150"/>
    <frame tileid="61" duration="150"/>
    <frame tileid="63" duration="150"/>
    <frame tileid="63" duration="150"/>
    <frame tileid="63" duration="150"/>
    <frame tileid="65" duration="150"/>
    <frame tileid="67" duration="150"/>
    <frame tileid="69" duration="150"/>
   </animation>
  </tile>
  <tile id="84">
   <animation>
    <frame tileid="84" duration="150"/>
    <frame tileid="84" duration="150"/>
    <frame tileid="84" duration="150"/>
    <frame tileid="84" duration="150"/>
    <frame tileid="86" duration="150"/>
    <frame tileid="88" duration="150"/>
    <frame tileid="90" duration="150"/>
    <frame tileid="90" duration="150"/>
    <frame tileid="90" duration="150"/>
    <frame tileid="92" duration="150"/>
    <frame tileid="94" duration="150"/>
    <frame tileid="96" duration="150"/>
   </animation>
  </tile>
  <tile id="85">
   <animation>
    <frame tileid="85" duration="150"/>
    <frame tileid="85" duration="150"/>
    <frame tileid="85" duration="150"/>
    <frame tileid="85" duration="150"/>
    <frame tileid="87" duration="150"/>
    <frame tileid="89" duration="150"/>
    <frame tileid="91" duration="150"/>
    <frame tileid="91" duration="150"/>
    <frame tileid="91" duration="150"/>
    <frame tileid="93" duration="150"/>
    <frame tileid="95" duration="150"/>
    <frame tileid="97" duration="150"/>
   </animation>
  </tile>
  <tile id="98">
   <animation>
    <frame tileid="98" duration="150"/>
    <frame tileid="98" duration="150"/>
    <frame tileid="98" duration="150"/>
    <frame tileid="98" duration="150"/>
    <frame tileid="100" duration="150"/>
    <frame tileid="102" duration="150"/>
    <frame tileid="104" duration="150"/>
    <frame tileid="104" duration="150"/>
    <frame tileid="104" duration="150"/>
    <frame tileid="106" duration="150"/>
    <frame tileid="108" duration="150"/>
    <frame tileid="110" duration="150"/>
   </animation>
  </tile>
  <tile id="99">
   <animation>
    <frame tileid="99" duration="150"/>
    <frame tileid="99" duration="150"/>
    <frame tileid="99" duration="150"/>
    <frame tileid="99" duration="150"/>
    <frame tileid="101" duration="150"/>
    <frame tileid="103" duration="150"/>
    <frame tileid="105" duration="150"/>
    <frame tileid="105" duration="150"/>
    <frame tileid="105" duration="150"/>
    <frame tileid="107" duration="150"/>
    <frame tileid="109" duration="150"/>
    <frame tileid="111" duration="150"/>
   </animation>
  </tile>
 </tileset>
 <tileset firstgid="1235" name="Resting_character" tilewidth="16" tileheight="16" tilecount="120" columns="5">
  <image source="Resting_character.png" width="80" height="384"/>
  <tile id="1">
   <animation>
    <frame tileid="1" duration="150"/>
    <frame tileid="11" duration="150"/>
    <frame tileid="21" duration="150"/>
    <frame tileid="31" duration="150"/>
    <frame tileid="41" duration="150"/>
    <frame tileid="51" duration="150"/>
    <frame tileid="61" duration="150"/>
    <frame tileid="71" duration="150"/>
    <frame tileid="81" duration="150"/>
    <frame tileid="91" duration="150"/>
    <frame tileid="101" duration="150"/>
    <frame tileid="111" duration="150"/>
   </animation>
  </tile>
  <tile id="2">
   <animation>
    <frame tileid="2" duration="150"/>
    <frame tileid="12" duration="150"/>
    <frame tileid="22" duration="150"/>
    <frame tileid="32" duration="150"/>
    <frame tileid="42" duration="150"/>
    <frame tileid="52" duration="150"/>
    <frame tileid="62" duration="150"/>
    <frame tileid="72" duration="150"/>
    <frame tileid="82" duration="150"/>
    <frame tileid="92" duration="150"/>
    <frame tileid="102" duration="150"/>
    <frame tileid="112" duration="150"/>
   </animation>
  </tile>
  <tile id="4">
   <animation>
    <frame tileid="4" duration="150"/>
    <frame tileid="14" duration="150"/>
    <frame tileid="24" duration="150"/>
    <frame tileid="34" duration="150"/>
    <frame tileid="44" duration="150"/>
    <frame tileid="54" duration="150"/>
    <frame tileid="64" duration="150"/>
    <frame tileid="74" duration="150"/>
    <frame tileid="84" duration="150"/>
    <frame tileid="94" duration="150"/>
    <frame tileid="104" duration="150"/>
    <frame tileid="114" duration="150"/>
   </animation>
  </tile>
  <tile id="6">
   <animation>
    <frame tileid="6" duration="150"/>
    <frame tileid="16" duration="150"/>
    <frame tileid="26" duration="150"/>
    <frame tileid="36" duration="150"/>
    <frame tileid="46" duration="150"/>
    <frame tileid="56" duration="150"/>
    <frame tileid="66" duration="150"/>
    <frame tileid="76" duration="150"/>
    <frame tileid="86" duration="150"/>
    <frame tileid="96" duration="150"/>
    <frame tileid="106" duration="150"/>
    <frame tileid="116" duration="150"/>
   </animation>
  </tile>
  <tile id="7">
   <animation>
    <frame tileid="7" duration="150"/>
    <frame tileid="17" duration="150"/>
    <frame tileid="27" duration="150"/>
    <frame tileid="37" duration="150"/>
    <frame tileid="47" duration="150"/>
    <frame tileid="57" duration="150"/>
    <frame tileid="67" duration="150"/>
    <frame tileid="77" duration="150"/>
    <frame tileid="87" duration="150"/>
    <frame tileid="97" duration="150"/>
    <frame tileid="107" duration="150"/>
    <frame tileid="117" duration="150"/>
   </animation>
  </tile>
  <tile id="8">
   <animation>
    <frame tileid="8" duration="150"/>
    <frame tileid="18" duration="150"/>
    <frame tileid="28" duration="150"/>
    <frame tileid="38" duration="150"/>
    <frame tileid="48" duration="150"/>
    <frame tileid="58" duration="150"/>
    <frame tileid="68" duration="150"/>
    <frame tileid="78" duration="150"/>
    <frame tileid="88" duration="150"/>
    <frame tileid="98" duration="150"/>
    <frame tileid="108" duration="150"/>
    <frame tileid="118" duration="150"/>
   </animation>
  </tile>
  <tile id="9">
   <animation>
    <frame tileid="9" duration="150"/>
    <frame tileid="19" duration="150"/>
    <frame tileid="29" duration="150"/>
    <frame tileid="39" duration="150"/>
    <frame tileid="49" duration="150"/>
    <frame tileid="59" duration="150"/>
    <frame tileid="69" duration="150"/>
    <frame tileid="79" duration="150"/>
    <frame tileid="89" duration="150"/>
    <frame tileid="99" duration="150"/>
    <frame tileid="109" duration="150"/>
    <frame tileid="119" duration="150"/>
   </animation>
  </tile>
 </tileset>
 <tileset firstgid="1355" name="Sleeping_character" tilewidth="16" tileheight="16" tilecount="64" columns="8">
  <image source="Sleeping_character.png" width="128" height="128"/>
  <tile id="0">
   <animation>
    <frame tileid="0" duration="150"/>
    <frame tileid="0" duration="150"/>
    <frame tileid="0" duration="150"/>
    <frame tileid="0" duration="150"/>
    <frame tileid="0" duration="150"/>
    <frame tileid="0" duration="150"/>
    <frame tileid="16" duration="150"/>
    <frame tileid="32" duration="150"/>
    <frame tileid="32" duration="150"/>
    <frame tileid="32" duration="150"/>
    <frame tileid="16" duration="150"/>
    <frame tileid="48" duration="150"/>
   </animation>
  </tile>
  <tile id="1">
   <animation>
    <frame tileid="1" duration="150"/>
    <frame tileid="1" duration="150"/>
    <frame tileid="1" duration="150"/>
    <frame tileid="1" duration="150"/>
    <frame tileid="1" duration="150"/>
    <frame tileid="1" duration="150"/>
    <frame tileid="17" duration="150"/>
    <frame tileid="33" duration="150"/>
    <frame tileid="33" duration="150"/>
    <frame tileid="33" duration="150"/>
    <frame tileid="17" duration="150"/>
    <frame tileid="49" duration="150"/>
   </animation>
  </tile>
  <tile id="9">
   <animation>
    <frame tileid="9" duration="150"/>
    <frame tileid="9" duration="150"/>
    <frame tileid="9" duration="150"/>
    <frame tileid="9" duration="150"/>
    <frame tileid="9" duration="150"/>
    <frame tileid="9" duration="150"/>
    <frame tileid="25" duration="150"/>
    <frame tileid="41" duration="150"/>
    <frame tileid="41" duration="150"/>
    <frame tileid="41" duration="150"/>
    <frame tileid="25" duration="150"/>
    <frame tileid="57" duration="150"/>
   </animation>
  </tile>
  <tile id="12">
   <animation>
    <frame tileid="12" duration="150"/>
    <frame tileid="12" duration="150"/>
    <frame tileid="12" duration="150"/>
    <frame tileid="12" duration="150"/>
    <frame tileid="12" duration="150"/>
    <frame tileid="12" duration="150"/>
    <frame tileid="28" duration="150"/>
    <frame tileid="44" duration="150"/>
    <frame tileid="44" duration="150"/>
    <frame tileid="44" duration="150"/>
    <frame tileid="28" duration="150"/>
    <frame tileid="60" duration="150"/>
   </animation>
  </tile>
  <tile id="14">
   <animation>
    <frame tileid="14" duration="150"/>
    <frame tileid="14" duration="150"/>
    <frame tileid="14" duration="150"/>
    <frame tileid="14" duration="150"/>
    <frame tileid="14" duration="150"/>
    <frame tileid="14" duration="150"/>
    <frame tileid="30" duration="150"/>
    <frame tileid="46" duration="150"/>
    <frame tileid="46" duration="150"/>
    <frame tileid="46" duration="150"/>
    <frame tileid="30" duration="150"/>
    <frame tileid="62" duration="150"/>
   </animation>
  </tile>
 </tileset>
 <tileset firstgid="1419" name="Drinker2" tilewidth="16" tileheight="16" tilecount="16" columns="2">
  <image source="Drinker2.png" width="32" height="128"/>
  <tile id="0">
   <animation>
    <frame tileid="0" duration="150"/>
    <frame tileid="0" duration="150"/>
    <frame tileid="0" duration="150"/>
    <frame tileid="4" duration="150"/>
    <frame tileid="8" duration="150"/>
    <frame tileid="12" duration="150"/>
   </animation>
  </tile>
  <tile id="1">
   <animation>
    <frame tileid="1" duration="150"/>
    <frame tileid="1" duration="150"/>
    <frame tileid="1" duration="150"/>
    <frame tileid="5" duration="150"/>
    <frame tileid="9" duration="150"/>
    <frame tileid="13" duration="150"/>
   </animation>
  </tile>
  <tile id="2">
   <animation>
    <frame tileid="2" duration="150"/>
    <frame tileid="2" duration="150"/>
    <frame tileid="2" duration="150"/>
    <frame tileid="6" duration="150"/>
    <frame tileid="10" duration="150"/>
    <frame tileid="14" duration="150"/>
   </animation>
  </tile>
  <tile id="3">
   <animation>
    <frame tileid="3" duration="150"/>
    <frame tileid="3" duration="150"/>
    <frame tileid="3" duration="150"/>
    <frame tileid="7" duration="150"/>
    <frame tileid="11" duration="150"/>
    <frame tileid="15" duration="150"/>
   </animation>
  </tile>
 </tileset>
 <tileset firstgid="1435" name="Сharacter_bag" tilewidth="16" tileheight="16" tilecount="96" columns="4">
  <image source="Сharacter_bag.png" width="64" height="384"/>
  <tile id="0">
   <animation>
    <frame tileid="0" duration="150"/>
    <frame tileid="8" duration="150"/>
    <frame tileid="16" duration="150"/>
    <frame tileid="24" duration="150"/>
    <frame tileid="32" duration="150"/>
    <frame tileid="40" duration="150"/>
    <frame tileid="48" duration="150"/>
    <frame tileid="56" duration="150"/>
    <frame tileid="64" duration="150"/>
    <frame tileid="72" duration="150"/>
    <frame tileid="80" duration="150"/>
    <frame tileid="88" duration="150"/>
   </animation>
  </tile>
  <tile id="1">
   <animation>
    <frame tileid="1" duration="150"/>
    <frame tileid="9" duration="150"/>
    <frame tileid="17" duration="150"/>
    <frame tileid="25" duration="150"/>
    <frame tileid="33" duration="150"/>
    <frame tileid="41" duration="150"/>
    <frame tileid="49" duration="150"/>
    <frame tileid="57" duration="150"/>
    <frame tileid="65" duration="150"/>
    <frame tileid="73" duration="150"/>
    <frame tileid="81" duration="150"/>
    <frame tileid="89" duration="150"/>
   </animation>
  </tile>
  <tile id="2">
   <animation>
    <frame tileid="2" duration="150"/>
    <frame tileid="10" duration="150"/>
    <frame tileid="18" duration="150"/>
    <frame tileid="26" duration="150"/>
    <frame tileid="34" duration="150"/>
    <frame tileid="42" duration="150"/>
    <frame tileid="50" duration="150"/>
    <frame tileid="58" duration="150"/>
    <frame tileid="66" duration="150"/>
    <frame tileid="74" duration="150"/>
    <frame tileid="82" duration="150"/>
    <frame tileid="90" duration="150"/>
   </animation>
  </tile>
  <tile id="3">
   <animation>
    <frame tileid="3" duration="150"/>
    <frame tileid="11" duration="150"/>
    <frame tileid="19" duration="150"/>
    <frame tileid="27" duration="150"/>
    <frame tileid="35" duration="150"/>
    <frame tileid="43" duration="150"/>
    <frame tileid="51" duration="150"/>
    <frame tileid="59" duration="150"/>
    <frame tileid="67" duration="150"/>
    <frame tileid="75" duration="150"/>
    <frame tileid="83" duration="150"/>
    <frame tileid="91" duration="150"/>
   </animation>
  </tile>
  <tile id="4">
   <animation>
    <frame tileid="4" duration="150"/>
    <frame tileid="12" duration="150"/>
    <frame tileid="20" duration="150"/>
    <frame tileid="28" duration="150"/>
    <frame tileid="36" duration="150"/>
    <frame tileid="44" duration="150"/>
    <frame tileid="52" duration="150"/>
    <frame tileid="60" duration="150"/>
    <frame tileid="68" duration="150"/>
    <frame tileid="76" duration="150"/>
    <frame tileid="84" duration="150"/>
    <frame tileid="92" duration="150"/>
   </animation>
  </tile>
  <tile id="5">
   <animation>
    <frame tileid="5" duration="150"/>
    <frame tileid="13" duration="150"/>
    <frame tileid="21" duration="150"/>
    <frame tileid="29" duration="150"/>
    <frame tileid="37" duration="150"/>
    <frame tileid="45" duration="150"/>
    <frame tileid="53" duration="150"/>
    <frame tileid="61" duration="150"/>
    <frame tileid="69" duration="150"/>
    <frame tileid="77" duration="150"/>
    <frame tileid="85" duration="150"/>
    <frame tileid="93" duration="150"/>
   </animation>
  </tile>
  <tile id="6">
   <animation>
    <frame tileid="6" duration="150"/>
    <frame tileid="14" duration="150"/>
    <frame tileid="22" duration="150"/>
    <frame tileid="30" duration="150"/>
    <frame tileid="38" duration="150"/>
    <frame tileid="46" duration="150"/>
    <frame tileid="54" duration="150"/>
    <frame tileid="62" duration="150"/>
    <frame tileid="70" duration="150"/>
    <frame tileid="78" duration="150"/>
    <frame tileid="86" duration="150"/>
    <frame tileid="94" duration="150"/>
   </animation>
  </tile>
  <tile id="7">
   <animation>
    <frame tileid="7" duration="150"/>
    <frame tileid="15" duration="150"/>
    <frame tileid="23" duration="150"/>
    <frame tileid="31" duration="150"/>
    <frame tileid="39" duration="150"/>
    <frame tileid="47" duration="150"/>
    <frame tileid="55" duration="150"/>
    <frame tileid="63" duration="150"/>
    <frame tileid="71" duration="150"/>
    <frame tileid="79" duration="150"/>
    <frame tileid="87" duration="150"/>
    <frame tileid="95" duration="150"/>
   </animation>
  </tile>
 </tileset>
 <tileset firstgid="1531" name="Sleeping_character2" tilewidth="16" tileheight="16" tilecount="20" columns="4">
  <image source="Sleeping_character2.png" width="64" height="80"/>
  <tile id="0">
   <animation>
    <frame tileid="0" duration="150"/>
    <frame tileid="0" duration="150"/>
    <frame tileid="0" duration="150"/>
    <frame tileid="0" duration="150"/>
    <frame tileid="0" duration="150"/>
    <frame tileid="0" duration="150"/>
    <frame tileid="2" duration="150"/>
    <frame tileid="2" duration="150"/>
    <frame tileid="2" duration="150"/>
    <frame tileid="2" duration="150"/>
    <frame tileid="2" duration="150"/>
    <frame tileid="2" duration="150"/>
   </animation>
  </tile>
  <tile id="1">
   <animation>
    <frame tileid="1" duration="150"/>
    <frame tileid="1" duration="150"/>
    <frame tileid="1" duration="150"/>
    <frame tileid="1" duration="150"/>
    <frame tileid="1" duration="150"/>
    <frame tileid="1" duration="150"/>
    <frame tileid="3" duration="150"/>
    <frame tileid="3" duration="150"/>
    <frame tileid="3" duration="150"/>
    <frame tileid="3" duration="150"/>
    <frame tileid="3" duration="150"/>
    <frame tileid="3" duration="150"/>
   </animation>
  </tile>
  <tile id="4">
   <animation>
    <frame tileid="4" duration="150"/>
    <frame tileid="4" duration="150"/>
    <frame tileid="4" duration="150"/>
    <frame tileid="4" duration="150"/>
    <frame tileid="4" duration="150"/>
    <frame tileid="4" duration="150"/>
    <frame tileid="6" duration="150"/>
    <frame tileid="6" duration="150"/>
    <frame tileid="6" duration="150"/>
    <frame tileid="6" duration="150"/>
    <frame tileid="6" duration="150"/>
    <frame tileid="6" duration="150"/>
   </animation>
  </tile>
  <tile id="5">
   <animation>
    <frame tileid="5" duration="150"/>
    <frame tileid="5" duration="150"/>
    <frame tileid="5" duration="150"/>
    <frame tileid="5" duration="150"/>
    <frame tileid="5" duration="150"/>
    <frame tileid="5" duration="150"/>
    <frame tileid="7" duration="150"/>
    <frame tileid="7" duration="150"/>
    <frame tileid="7" duration="150"/>
    <frame tileid="7" duration="150"/>
    <frame tileid="7" duration="150"/>
    <frame tileid="7" duration="150"/>
   </animation>
  </tile>
  <tile id="8">
   <animation>
    <frame tileid="8" duration="150"/>
    <frame tileid="8" duration="150"/>
    <frame tileid="8" duration="150"/>
    <frame tileid="8" duration="150"/>
    <frame tileid="8" duration="150"/>
    <frame tileid="8" duration="150"/>
    <frame tileid="10" duration="150"/>
    <frame tileid="10" duration="150"/>
    <frame tileid="10" duration="150"/>
    <frame tileid="10" duration="150"/>
    <frame tileid="10" duration="150"/>
    <frame tileid="10" duration="150"/>
   </animation>
  </tile>
  <tile id="9">
   <animation>
    <frame tileid="9" duration="150"/>
    <frame tileid="9" duration="150"/>
    <frame tileid="9" duration="150"/>
    <frame tileid="9" duration="150"/>
    <frame tileid="9" duration="150"/>
    <frame tileid="9" duration="150"/>
    <frame tileid="11" duration="150"/>
    <frame tileid="11" duration="150"/>
    <frame tileid="11" duration="150"/>
    <frame tileid="11" duration="150"/>
    <frame tileid="11" duration="150"/>
    <frame tileid="11" duration="150"/>
   </animation>
  </tile>
  <tile id="12">
   <animation>
    <frame tileid="12" duration="150"/>
    <frame tileid="12" duration="150"/>
    <frame tileid="12" duration="150"/>
    <frame tileid="12" duration="150"/>
    <frame tileid="12" duration="150"/>
    <frame tileid="12" duration="150"/>
    <frame tileid="14" duration="150"/>
    <frame tileid="14" duration="150"/>
    <frame tileid="14" duration="150"/>
    <frame tileid="14" duration="150"/>
    <frame tileid="14" duration="150"/>
    <frame tileid="14" duration="150"/>
   </animation>
  </tile>
  <tile id="13">
   <animation>
    <frame tileid="13" duration="150"/>
    <frame tileid="13" duration="150"/>
    <frame tileid="13" duration="150"/>
    <frame tileid="13" duration="150"/>
    <frame tileid="13" duration="150"/>
    <frame tileid="13" duration="150"/>
    <frame tileid="15" duration="150"/>
    <frame tileid="15" duration="150"/>
    <frame tileid="15" duration="150"/>
    <frame tileid="15" duration="150"/>
    <frame tileid="15" duration="150"/>
    <frame tileid="15" duration="150"/>
   </animation>
  </tile>
  <tile id="16">
   <animation>
    <frame tileid="16" duration="150"/>
    <frame tileid="16" duration="150"/>
    <frame tileid="16" duration="150"/>
    <frame tileid="16" duration="150"/>
    <frame tileid="16" duration="150"/>
    <frame tileid="16" duration="150"/>
    <frame tileid="18" duration="150"/>
    <frame tileid="18" duration="150"/>
    <frame tileid="18" duration="150"/>
    <frame tileid="18" duration="150"/>
    <frame tileid="18" duration="150"/>
    <frame tileid="18" duration="150"/>
   </animation>
  </tile>
  <tile id="17">
   <animation>
    <frame tileid="17" duration="150"/>
    <frame tileid="17" duration="150"/>
    <frame tileid="17" duration="150"/>
    <frame tileid="17" duration="150"/>
    <frame tileid="17" duration="150"/>
    <frame tileid="17" duration="150"/>
    <frame tileid="19" duration="150"/>
    <frame tileid="19" duration="150"/>
    <frame tileid="19" duration="150"/>
    <frame tileid="19" duration="150"/>
    <frame tileid="19" duration="150"/>
    <frame tileid="19" duration="150"/>
   </animation>
  </tile>
 </tileset>
 <tileset firstgid="1551" name="Drinker1_shadow" tilewidth="16" tileheight="16" tilecount="10" columns="2">
  <image source="Drinker1_shadow.png" width="32" height="80"/>
 </tileset>
 <tileset firstgid="1561" name="Drinker2_shadow" tilewidth="16" tileheight="16" tilecount="4" columns="2">
  <image source="Drinker2_shadow.png" width="32" height="32"/>
 </tileset>
 <tileset firstgid="1565" name="Happy_character1_shadow" tilewidth="16" tileheight="16" tilecount="8" columns="2">
  <image source="Happy_character1_shadow.png" width="32" height="64"/>
 </tileset>
 <tileset firstgid="1573" name="orc_shadow" tilewidth="16" tileheight="16" tilecount="8" columns="2">
  <image source="orc_shadow.png" width="32" height="64"/>
 </tileset>
 <tileset firstgid="1581" name="Resting_character_shadow" tilewidth="16" tileheight="16" tilecount="9" columns="3">
  <image source="Resting_character_shadow.png" width="48" height="48"/>
 </tileset>
 <tileset firstgid="1590" name="Sleeping_character_shadow" tilewidth="16" tileheight="16" tilecount="12" columns="6">
  <image source="Sleeping_character_shadow.png" width="96" height="32"/>
 </tileset>
 <tileset firstgid="1602" name="Сharacter_bag_shadow" tilewidth="16" tileheight="16" tilecount="4" columns="2">
  <image source="Сharacter_bag_shadow.png" width="32" height="32"/>
 </tileset>
 <tileset firstgid="1606" name="Sleeping_character2_shadow" tilewidth="16" tileheight="16" tilecount="10" columns="2">
  <image source="Sleeping_character2_shadow.png" width="32" height="80"/>
 </tileset>
 <tileset firstgid="1616" name="Сharacter_bag" tilewidth="16" tileheight="16" tilecount="96" columns="4">
  <image source="Сharacter_bag_without_shadow.png" width="64" height="384"/>
  <tile id="0">
   <animation>
    <frame tileid="0" duration="150"/>
    <frame tileid="8" duration="150"/>
    <frame tileid="16" duration="150"/>
    <frame tileid="24" duration="150"/>
    <frame tileid="32" duration="150"/>
    <frame tileid="40" duration="150"/>
    <frame tileid="48" duration="150"/>
    <frame tileid="56" duration="150"/>
    <frame tileid="64" duration="150"/>
    <frame tileid="72" duration="150"/>
    <frame tileid="80" duration="150"/>
    <frame tileid="88" duration="150"/>
   </animation>
  </tile>
  <tile id="1">
   <animation>
    <frame tileid="1" duration="150"/>
    <frame tileid="9" duration="150"/>
    <frame tileid="17" duration="150"/>
    <frame tileid="25" duration="150"/>
    <frame tileid="33" duration="150"/>
    <frame tileid="41" duration="150"/>
    <frame tileid="49" duration="150"/>
    <frame tileid="57" duration="150"/>
    <frame tileid="65" duration="150"/>
    <frame tileid="73" duration="150"/>
    <frame tileid="81" duration="150"/>
    <frame tileid="89" duration="150"/>
   </animation>
  </tile>
  <tile id="2">
   <animation>
    <frame tileid="2" duration="150"/>
    <frame tileid="10" duration="150"/>
    <frame tileid="18" duration="150"/>
    <frame tileid="26" duration="150"/>
    <frame tileid="34" duration="150"/>
    <frame tileid="42" duration="150"/>
    <frame tileid="50" duration="150"/>
    <frame tileid="58" duration="150"/>
    <frame tileid="66" duration="150"/>
    <frame tileid="74" duration="150"/>
    <frame tileid="82" duration="150"/>
    <frame tileid="90" duration="150"/>
   </animation>
  </tile>
  <tile id="3">
   <animation>
    <frame tileid="3" duration="150"/>
    <frame tileid="11" duration="150"/>
    <frame tileid="19" duration="150"/>
    <frame tileid="27" duration="150"/>
    <frame tileid="35" duration="150"/>
    <frame tileid="43" duration="150"/>
    <frame tileid="51" duration="150"/>
    <frame tileid="59" duration="150"/>
    <frame tileid="67" duration="150"/>
    <frame tileid="75" duration="150"/>
    <frame tileid="83" duration="150"/>
    <frame tileid="91" duration="150"/>
   </animation>
  </tile>
  <tile id="4">
   <animation>
    <frame tileid="4" duration="150"/>
    <frame tileid="12" duration="150"/>
    <frame tileid="20" duration="150"/>
    <frame tileid="28" duration="150"/>
    <frame tileid="36" duration="150"/>
    <frame tileid="44" duration="150"/>
    <frame tileid="52" duration="150"/>
    <frame tileid="60" duration="150"/>
    <frame tileid="68" duration="150"/>
    <frame tileid="76" duration="150"/>
    <frame tileid="84" duration="150"/>
    <frame tileid="92" duration="150"/>
   </animation>
  </tile>
  <tile id="5">
   <animation>
    <frame tileid="5" duration="150"/>
    <frame tileid="13" duration="150"/>
    <frame tileid="21" duration="150"/>
    <frame tileid="29" duration="150"/>
    <frame tileid="37" duration="150"/>
    <frame tileid="45" duration="150"/>
    <frame tileid="53" duration="150"/>
    <frame tileid="61" duration="150"/>
    <frame tileid="69" duration="150"/>
    <frame tileid="77" duration="150"/>
    <frame tileid="85" duration="150"/>
    <frame tileid="93" duration="150"/>
   </animation>
  </tile>
  <tile id="6">
   <animation>
    <frame tileid="6" duration="150"/>
    <frame tileid="14" duration="150"/>
    <frame tileid="22" duration="150"/>
    <frame tileid="30" duration="150"/>
    <frame tileid="38" duration="150"/>
    <frame tileid="46" duration="150"/>
    <frame tileid="54" duration="150"/>
    <frame tileid="62" duration="150"/>
    <frame tileid="70" duration="150"/>
    <frame tileid="78" duration="150"/>
    <frame tileid="86" duration="150"/>
    <frame tileid="94" duration="150"/>
   </animation>
  </tile>
  <tile id="7">
   <animation>
    <frame tileid="7" duration="150"/>
    <frame tileid="15" duration="150"/>
    <frame tileid="23" duration="150"/>
    <frame tileid="31" duration="150"/>
    <frame tileid="39" duration="150"/>
    <frame tileid="47" duration="150"/>
    <frame tileid="55" duration="150"/>
    <frame tileid="63" duration="150"/>
    <frame tileid="71" duration="150"/>
    <frame tileid="79" duration="150"/>
    <frame tileid="87" duration="150"/>
    <frame tileid="95" duration="150"/>
   </animation>
  </tile>
 </tileset>
 <tileset firstgid="1712" name="Sleeping_character" tilewidth="16" tileheight="16" tilecount="64" columns="8">
  <image source="Sleeping_character_without_shadow.png" width="128" height="128"/>
  <tile id="0">
   <animation>
    <frame tileid="0" duration="150"/>
    <frame tileid="0" duration="150"/>
    <frame tileid="0" duration="150"/>
    <frame tileid="0" duration="150"/>
    <frame tileid="0" duration="150"/>
    <frame tileid="0" duration="150"/>
    <frame tileid="16" duration="150"/>
    <frame tileid="32" duration="150"/>
    <frame tileid="32" duration="150"/>
    <frame tileid="32" duration="150"/>
    <frame tileid="16" duration="150"/>
    <frame tileid="48" duration="150"/>
   </animation>
  </tile>
  <tile id="1">
   <animation>
    <frame tileid="1" duration="150"/>
    <frame tileid="1" duration="150"/>
    <frame tileid="1" duration="150"/>
    <frame tileid="1" duration="150"/>
    <frame tileid="1" duration="150"/>
    <frame tileid="1" duration="150"/>
    <frame tileid="17" duration="150"/>
    <frame tileid="33" duration="150"/>
    <frame tileid="33" duration="150"/>
    <frame tileid="33" duration="150"/>
    <frame tileid="17" duration="150"/>
    <frame tileid="49" duration="150"/>
   </animation>
  </tile>
  <tile id="9">
   <animation>
    <frame tileid="9" duration="150"/>
    <frame tileid="9" duration="150"/>
    <frame tileid="9" duration="150"/>
    <frame tileid="9" duration="150"/>
    <frame tileid="9" duration="150"/>
    <frame tileid="9" duration="150"/>
    <frame tileid="25" duration="150"/>
    <frame tileid="41" duration="150"/>
    <frame tileid="41" duration="150"/>
    <frame tileid="41" duration="150"/>
    <frame tileid="25" duration="150"/>
    <frame tileid="57" duration="150"/>
   </animation>
  </tile>
  <tile id="12">
   <animation>
    <frame tileid="12" duration="150"/>
    <frame tileid="12" duration="150"/>
    <frame tileid="12" duration="150"/>
    <frame tileid="12" duration="150"/>
    <frame tileid="12" duration="150"/>
    <frame tileid="12" duration="150"/>
    <frame tileid="28" duration="150"/>
    <frame tileid="44" duration="150"/>
    <frame tileid="44" duration="150"/>
    <frame tileid="44" duration="150"/>
    <frame tileid="28" duration="150"/>
    <frame tileid="60" duration="150"/>
   </animation>
  </tile>
  <tile id="14">
   <animation>
    <frame tileid="14" duration="150"/>
    <frame tileid="14" duration="150"/>
    <frame tileid="14" duration="150"/>
    <frame tileid="14" duration="150"/>
    <frame tileid="14" duration="150"/>
    <frame tileid="14" duration="150"/>
    <frame tileid="30" duration="150"/>
    <frame tileid="46" duration="150"/>
    <frame tileid="46" duration="150"/>
    <frame tileid="46" duration="150"/>
    <frame tileid="30" duration="150"/>
    <frame tileid="62" duration="150"/>
   </animation>
  </tile>
 </tileset>
 <tileset firstgid="1776" name="Orc" tilewidth="16" tileheight="16" tilecount="112" columns="14">
  <image source="Orc_without_shadow.png" width="224" height="128"/>
  <tile id="0">
   <animation>
    <frame tileid="0" duration="150"/>
    <frame tileid="0" duration="150"/>
    <frame tileid="0" duration="150"/>
    <frame tileid="0" duration="150"/>
    <frame tileid="2" duration="150"/>
    <frame tileid="4" duration="150"/>
    <frame tileid="6" duration="150"/>
    <frame tileid="6" duration="150"/>
    <frame tileid="6" duration="150"/>
    <frame tileid="8" duration="150"/>
    <frame tileid="10" duration="150"/>
    <frame tileid="12" duration="150"/>
   </animation>
  </tile>
  <tile id="14">
   <animation>
    <frame tileid="14" duration="150"/>
    <frame tileid="14" duration="150"/>
    <frame tileid="14" duration="150"/>
    <frame tileid="14" duration="150"/>
    <frame tileid="16" duration="150"/>
    <frame tileid="18" duration="150"/>
    <frame tileid="20" duration="150"/>
    <frame tileid="20" duration="150"/>
    <frame tileid="20" duration="150"/>
    <frame tileid="22" duration="150"/>
    <frame tileid="24" duration="150"/>
    <frame tileid="26" duration="150"/>
   </animation>
  </tile>
  <tile id="15">
   <animation>
    <frame tileid="15" duration="150"/>
    <frame tileid="15" duration="150"/>
    <frame tileid="15" duration="150"/>
    <frame tileid="15" duration="150"/>
    <frame tileid="17" duration="150"/>
    <frame tileid="19" duration="150"/>
    <frame tileid="21" duration="150"/>
    <frame tileid="21" duration="150"/>
    <frame tileid="21" duration="150"/>
    <frame tileid="23" duration="150"/>
    <frame tileid="25" duration="150"/>
    <frame tileid="27" duration="150"/>
   </animation>
  </tile>
  <tile id="28">
   <animation>
    <frame tileid="28" duration="150"/>
    <frame tileid="28" duration="150"/>
    <frame tileid="28" duration="150"/>
    <frame tileid="28" duration="150"/>
    <frame tileid="30" duration="150"/>
    <frame tileid="32" duration="150"/>
    <frame tileid="34" duration="150"/>
    <frame tileid="34" duration="150"/>
    <frame tileid="34" duration="150"/>
    <frame tileid="36" duration="150"/>
    <frame tileid="38" duration="150"/>
    <frame tileid="40" duration="150"/>
   </animation>
  </tile>
  <tile id="29">
   <animation>
    <frame tileid="29" duration="150"/>
    <frame tileid="29" duration="150"/>
    <frame tileid="29" duration="150"/>
    <frame tileid="29" duration="150"/>
    <frame tileid="31" duration="150"/>
    <frame tileid="33" duration="150"/>
    <frame tileid="35" duration="150"/>
    <frame tileid="35" duration="150"/>
    <frame tileid="35" duration="150"/>
    <frame tileid="37" duration="150"/>
    <frame tileid="39" duration="150"/>
    <frame tileid="41" duration="150"/>
   </animation>
  </tile>
  <tile id="42">
   <animation>
    <frame tileid="42" duration="150"/>
    <frame tileid="42" duration="150"/>
    <frame tileid="42" duration="150"/>
    <frame tileid="42" duration="150"/>
    <frame tileid="44" duration="150"/>
    <frame tileid="46" duration="150"/>
    <frame tileid="48" duration="150"/>
    <frame tileid="48" duration="150"/>
    <frame tileid="48" duration="150"/>
    <frame tileid="50" duration="150"/>
    <frame tileid="52" duration="150"/>
    <frame tileid="54" duration="150"/>
   </animation>
  </tile>
  <tile id="43">
   <animation>
    <frame tileid="43" duration="150"/>
    <frame tileid="43" duration="150"/>
    <frame tileid="43" duration="150"/>
    <frame tileid="43" duration="150"/>
    <frame tileid="45" duration="150"/>
    <frame tileid="47" duration="150"/>
    <frame tileid="49" duration="150"/>
    <frame tileid="49" duration="150"/>
    <frame tileid="49" duration="150"/>
    <frame tileid="51" duration="150"/>
    <frame tileid="53" duration="150"/>
    <frame tileid="55" duration="150"/>
   </animation>
  </tile>
  <tile id="56">
   <animation>
    <frame tileid="56" duration="150"/>
    <frame tileid="56" duration="150"/>
    <frame tileid="56" duration="150"/>
    <frame tileid="56" duration="150"/>
    <frame tileid="58" duration="150"/>
    <frame tileid="60" duration="150"/>
    <frame tileid="62" duration="150"/>
    <frame tileid="62" duration="150"/>
    <frame tileid="62" duration="150"/>
    <frame tileid="64" duration="150"/>
    <frame tileid="66" duration="150"/>
    <frame tileid="68" duration="150"/>
   </animation>
  </tile>
  <tile id="57">
   <animation>
    <frame tileid="57" duration="150"/>
    <frame tileid="57" duration="150"/>
    <frame tileid="57" duration="150"/>
    <frame tileid="57" duration="150"/>
    <frame tileid="59" duration="150"/>
    <frame tileid="61" duration="150"/>
    <frame tileid="63" duration="150"/>
    <frame tileid="63" duration="150"/>
    <frame tileid="63" duration="150"/>
    <frame tileid="65" duration="150"/>
    <frame tileid="67" duration="150"/>
    <frame tileid="69" duration="150"/>
   </animation>
  </tile>
  <tile id="84">
   <animation>
    <frame tileid="84" duration="150"/>
    <frame tileid="84" duration="150"/>
    <frame tileid="84" duration="150"/>
    <frame tileid="84" duration="150"/>
    <frame tileid="86" duration="150"/>
    <frame tileid="88" duration="150"/>
    <frame tileid="90" duration="150"/>
    <frame tileid="90" duration="150"/>
    <frame tileid="90" duration="150"/>
    <frame tileid="92" duration="150"/>
    <frame tileid="94" duration="150"/>
    <frame tileid="96" duration="150"/>
   </animation>
  </tile>
  <tile id="85">
   <animation>
    <frame tileid="85" duration="150"/>
    <frame tileid="85" duration="150"/>
    <frame tileid="85" duration="150"/>
    <frame tileid="85" duration="150"/>
    <frame tileid="87" duration="150"/>
    <frame tileid="89" duration="150"/>
    <frame tileid="91" duration="150"/>
    <frame tileid="91" duration="150"/>
    <frame tileid="91" duration="150"/>
    <frame tileid="93" duration="150"/>
    <frame tileid="95" duration="150"/>
    <frame tileid="97" duration="150"/>
   </animation>
  </tile>
  <tile id="98">
   <animation>
    <frame tileid="98" duration="150"/>
    <frame tileid="98" duration="150"/>
    <frame tileid="98" duration="150"/>
    <frame tileid="98" duration="150"/>
    <frame tileid="100" duration="150"/>
    <frame tileid="102" duration="150"/>
    <frame tileid="104" duration="150"/>
    <frame tileid="104" duration="150"/>
    <frame tileid="104" duration="150"/>
    <frame tileid="106" duration="150"/>
    <frame tileid="108" duration="150"/>
    <frame tileid="110" duration="150"/>
   </animation>
  </tile>
  <tile id="99">
   <animation>
    <frame tileid="99" duration="150"/>
    <frame tileid="99" duration="150"/>
    <frame tileid="99" duration="150"/>
    <frame tileid="99" duration="150"/>
    <frame tileid="101" duration="150"/>
    <frame tileid="103" duration="150"/>
    <frame tileid="105" duration="150"/>
    <frame tileid="105" duration="150"/>
    <frame tileid="105" duration="150"/>
    <frame tileid="107" duration="150"/>
    <frame tileid="109" duration="150"/>
    <frame tileid="111" duration="150"/>
   </animation>
  </tile>
 </tileset>
 <tileset firstgid="1888" name="Happy_character1" tilewidth="16" tileheight="16" tilecount="96" columns="24">
  <image source="Happy_character1_without_shadow.png" width="384" height="64"/>
  <tile id="0">
   <animation>
    <frame tileid="0" duration="150"/>
    <frame tileid="4" duration="150"/>
    <frame tileid="8" duration="150"/>
    <frame tileid="12" duration="150"/>
    <frame tileid="16" duration="150"/>
    <frame tileid="20" duration="150"/>
   </animation>
  </tile>
  <tile id="1">
   <animation>
    <frame tileid="1" duration="150"/>
    <frame tileid="5" duration="150"/>
    <frame tileid="9" duration="150"/>
    <frame tileid="13" duration="150"/>
    <frame tileid="17" duration="150"/>
    <frame tileid="21" duration="150"/>
   </animation>
  </tile>
  <tile id="2">
   <animation>
    <frame tileid="2" duration="150"/>
    <frame tileid="6" duration="150"/>
    <frame tileid="10" duration="150"/>
    <frame tileid="14" duration="150"/>
    <frame tileid="18" duration="150"/>
    <frame tileid="22" duration="150"/>
   </animation>
  </tile>
  <tile id="3">
   <animation>
    <frame tileid="3" duration="150"/>
    <frame tileid="7" duration="150"/>
    <frame tileid="11" duration="150"/>
    <frame tileid="15" duration="150"/>
    <frame tileid="19" duration="150"/>
    <frame tileid="23" duration="150"/>
   </animation>
  </tile>
  <tile id="24">
   <animation>
    <frame tileid="24" duration="150"/>
    <frame tileid="28" duration="150"/>
    <frame tileid="32" duration="150"/>
    <frame tileid="36" duration="150"/>
    <frame tileid="40" duration="150"/>
    <frame tileid="44" duration="150"/>
   </animation>
  </tile>
  <tile id="25">
   <animation>
    <frame tileid="25" duration="150"/>
    <frame tileid="29" duration="150"/>
    <frame tileid="33" duration="150"/>
    <frame tileid="37" duration="150"/>
    <frame tileid="41" duration="150"/>
    <frame tileid="45" duration="150"/>
   </animation>
  </tile>
  <tile id="26">
   <animation>
    <frame tileid="26" duration="150"/>
    <frame tileid="30" duration="150"/>
    <frame tileid="34" duration="150"/>
    <frame tileid="38" duration="150"/>
    <frame tileid="42" duration="150"/>
    <frame tileid="46" duration="150"/>
   </animation>
  </tile>
  <tile id="27">
   <animation>
    <frame tileid="27" duration="150"/>
    <frame tileid="31" duration="150"/>
    <frame tileid="35" duration="150"/>
    <frame tileid="39" duration="150"/>
    <frame tileid="43" duration="150"/>
    <frame tileid="47" duration="150"/>
   </animation>
  </tile>
  <tile id="48">
   <animation>
    <frame tileid="48" duration="150"/>
    <frame tileid="52" duration="150"/>
    <frame tileid="56" duration="150"/>
    <frame tileid="60" duration="150"/>
    <frame tileid="64" duration="150"/>
    <frame tileid="68" duration="150"/>
   </animation>
  </tile>
  <tile id="49">
   <animation>
    <frame tileid="49" duration="150"/>
    <frame tileid="53" duration="150"/>
    <frame tileid="57" duration="150"/>
    <frame tileid="61" duration="150"/>
    <frame tileid="65" duration="150"/>
    <frame tileid="69" duration="150"/>
   </animation>
  </tile>
  <tile id="50">
   <animation>
    <frame tileid="50" duration="150"/>
    <frame tileid="54" duration="150"/>
    <frame tileid="58" duration="150"/>
    <frame tileid="62" duration="150"/>
    <frame tileid="66" duration="150"/>
    <frame tileid="70" duration="150"/>
   </animation>
  </tile>
  <tile id="51">
   <animation>
    <frame tileid="51" duration="150"/>
    <frame tileid="55" duration="150"/>
    <frame tileid="59" duration="150"/>
    <frame tileid="63" duration="150"/>
    <frame tileid="67" duration="150"/>
    <frame tileid="71" duration="150"/>
   </animation>
  </tile>
  <tile id="72">
   <animation>
    <frame tileid="72" duration="150"/>
    <frame tileid="76" duration="150"/>
    <frame tileid="80" duration="150"/>
    <frame tileid="84" duration="150"/>
    <frame tileid="88" duration="150"/>
    <frame tileid="92" duration="150"/>
   </animation>
  </tile>
  <tile id="73">
   <animation>
    <frame tileid="73" duration="150"/>
    <frame tileid="77" duration="150"/>
    <frame tileid="81" duration="150"/>
    <frame tileid="85" duration="150"/>
    <frame tileid="89" duration="150"/>
    <frame tileid="93" duration="150"/>
   </animation>
  </tile>
 </tileset>
 <tileset firstgid="1984" name="Sleeping_character2" tilewidth="16" tileheight="16" tilecount="20" columns="4">
  <image source="Sleeping_character2_without_shadow.png" width="64" height="80"/>
  <tile id="0">
   <animation>
    <frame tileid="0" duration="150"/>
    <frame tileid="0" duration="150"/>
    <frame tileid="0" duration="150"/>
    <frame tileid="0" duration="150"/>
    <frame tileid="0" duration="150"/>
    <frame tileid="0" duration="150"/>
    <frame tileid="2" duration="150"/>
    <frame tileid="2" duration="150"/>
    <frame tileid="2" duration="150"/>
    <frame tileid="2" duration="150"/>
    <frame tileid="2" duration="150"/>
    <frame tileid="2" duration="150"/>
   </animation>
  </tile>
  <tile id="1">
   <animation>
    <frame tileid="1" duration="150"/>
    <frame tileid="1" duration="150"/>
    <frame tileid="1" duration="150"/>
    <frame tileid="1" duration="150"/>
    <frame tileid="1" duration="150"/>
    <frame tileid="1" duration="150"/>
    <frame tileid="3" duration="150"/>
    <frame tileid="3" duration="150"/>
    <frame tileid="3" duration="150"/>
    <frame tileid="3" duration="150"/>
    <frame tileid="3" duration="150"/>
    <frame tileid="3" duration="150"/>
   </animation>
  </tile>
  <tile id="4">
   <animation>
    <frame tileid="4" duration="150"/>
    <frame tileid="4" duration="150"/>
    <frame tileid="4" duration="150"/>
    <frame tileid="4" duration="150"/>
    <frame tileid="4" duration="150"/>
    <frame tileid="4" duration="150"/>
    <frame tileid="6" duration="150"/>
    <frame tileid="6" duration="150"/>
    <frame tileid="6" duration="150"/>
    <frame tileid="6" duration="150"/>
    <frame tileid="6" duration="150"/>
    <frame tileid="6" duration="150"/>
   </animation>
  </tile>
  <tile id="5">
   <animation>
    <frame tileid="5" duration="150"/>
    <frame tileid="5" duration="150"/>
    <frame tileid="5" duration="150"/>
    <frame tileid="5" duration="150"/>
    <frame tileid="5" duration="150"/>
    <frame tileid="5" duration="150"/>
    <frame tileid="7" duration="150"/>
    <frame tileid="7" duration="150"/>
    <frame tileid="7" duration="150"/>
    <frame tileid="7" duration="150"/>
    <frame tileid="7" duration="150"/>
    <frame tileid="7" duration="150"/>
   </animation>
  </tile>
  <tile id="8">
   <animation>
    <frame tileid="8" duration="150"/>
    <frame tileid="8" duration="150"/>
    <frame tileid="8" duration="150"/>
    <frame tileid="8" duration="150"/>
    <frame tileid="8" duration="150"/>
    <frame tileid="8" duration="150"/>
    <frame tileid="10" duration="150"/>
    <frame tileid="10" duration="150"/>
    <frame tileid="10" duration="150"/>
    <frame tileid="10" duration="150"/>
    <frame tileid="10" duration="150"/>
    <frame tileid="10" duration="150"/>
   </animation>
  </tile>
  <tile id="9">
   <animation>
    <frame tileid="9" duration="150"/>
    <frame tileid="9" duration="150"/>
    <frame tileid="9" duration="150"/>
    <frame tileid="9" duration="150"/>
    <frame tileid="9" duration="150"/>
    <frame tileid="9" duration="150"/>
    <frame tileid="11" duration="150"/>
    <frame tileid="11" duration="150"/>
    <frame tileid="11" duration="150"/>
    <frame tileid="11" duration="150"/>
    <frame tileid="11" duration="150"/>
    <frame tileid="11" duration="150"/>
   </animation>
  </tile>
  <tile id="12">
   <animation>
    <frame tileid="12" duration="150"/>
    <frame tileid="12" duration="150"/>
    <frame tileid="12" duration="150"/>
    <frame tileid="12" duration="150"/>
    <frame tileid="12" duration="150"/>
    <frame tileid="12" duration="150"/>
    <frame tileid="14" duration="150"/>
    <frame tileid="14" duration="150"/>
    <frame tileid="14" duration="150"/>
    <frame tileid="14" duration="150"/>
    <frame tileid="14" duration="150"/>
    <frame tileid="14" duration="150"/>
   </animation>
  </tile>
  <tile id="13">
   <animation>
    <frame tileid="13" duration="150"/>
    <frame tileid="13" duration="150"/>
    <frame tileid="13" duration="150"/>
    <frame tileid="13" duration="150"/>
    <frame tileid="13" duration="150"/>
    <frame tileid="13" duration="150"/>
    <frame tileid="15" duration="150"/>
    <frame tileid="15" duration="150"/>
    <frame tileid="15" duration="150"/>
    <frame tileid="15" duration="150"/>
    <frame tileid="15" duration="150"/>
    <frame tileid="15" duration="150"/>
   </animation>
  </tile>
  <tile id="16">
   <animation>
    <frame tileid="16" duration="150"/>
    <frame tileid="16" duration="150"/>
    <frame tileid="16" duration="150"/>
    <frame tileid="16" duration="150"/>
    <frame tileid="16" duration="150"/>
    <frame tileid="16" duration="150"/>
    <frame tileid="18" duration="150"/>
    <frame tileid="18" duration="150"/>
    <frame tileid="18" duration="150"/>
    <frame tileid="18" duration="150"/>
    <frame tileid="18" duration="150"/>
    <frame tileid="18" duration="150"/>
   </animation>
  </tile>
  <tile id="17">
   <animation>
    <frame tileid="17" duration="150"/>
    <frame tileid="17" duration="150"/>
    <frame tileid="17" duration="150"/>
    <frame tileid="17" duration="150"/>
    <frame tileid="17" duration="150"/>
    <frame tileid="17" duration="150"/>
    <frame tileid="19" duration="150"/>
    <frame tileid="19" duration="150"/>
    <frame tileid="19" duration="150"/>
    <frame tileid="19" duration="150"/>
    <frame tileid="19" duration="150"/>
    <frame tileid="19" duration="150"/>
   </animation>
  </tile>
 </tileset>
 <tileset firstgid="2004" name="Drinker1" tilewidth="16" tileheight="16" tilecount="144" columns="6">
  <image source="Drinker1_without_shadow.png" width="96" height="384"/>
  <tile id="0">
   <animation>
    <frame tileid="0" duration="150"/>
    <frame tileid="0" duration="150"/>
    <frame tileid="0" duration="150"/>
    <frame tileid="18" duration="150"/>
    <frame tileid="36" duration="150"/>
    <frame tileid="54" duration="150"/>
    <frame tileid="72" duration="150"/>
    <frame tileid="72" duration="150"/>
    <frame tileid="72" duration="150"/>
    <frame tileid="90" duration="150"/>
    <frame tileid="108" duration="150"/>
    <frame tileid="126" duration="150"/>
   </animation>
  </tile>
  <tile id="1">
   <animation>
    <frame tileid="1" duration="150"/>
    <frame tileid="1" duration="150"/>
    <frame tileid="1" duration="150"/>
    <frame tileid="19" duration="150"/>
    <frame tileid="37" duration="150"/>
    <frame tileid="55" duration="150"/>
    <frame tileid="73" duration="150"/>
    <frame tileid="73" duration="150"/>
    <frame tileid="73" duration="150"/>
    <frame tileid="91" duration="150"/>
    <frame tileid="109" duration="150"/>
    <frame tileid="127" duration="150"/>
   </animation>
  </tile>
  <tile id="3">
   <animation>
    <frame tileid="3" duration="150"/>
    <frame tileid="3" duration="150"/>
    <frame tileid="3" duration="150"/>
    <frame tileid="21" duration="150"/>
    <frame tileid="39" duration="150"/>
    <frame tileid="57" duration="150"/>
    <frame tileid="75" duration="150"/>
    <frame tileid="75" duration="150"/>
    <frame tileid="75" duration="150"/>
    <frame tileid="93" duration="150"/>
    <frame tileid="111" duration="150"/>
    <frame tileid="129" duration="150"/>
   </animation>
  </tile>
  <tile id="4">
   <animation>
    <frame tileid="4" duration="150"/>
    <frame tileid="4" duration="150"/>
    <frame tileid="4" duration="150"/>
    <frame tileid="22" duration="150"/>
    <frame tileid="40" duration="150"/>
    <frame tileid="58" duration="150"/>
    <frame tileid="76" duration="150"/>
    <frame tileid="76" duration="150"/>
    <frame tileid="76" duration="150"/>
    <frame tileid="94" duration="150"/>
    <frame tileid="112" duration="150"/>
    <frame tileid="130" duration="150"/>
   </animation>
  </tile>
  <tile id="5">
   <animation>
    <frame tileid="5" duration="150"/>
    <frame tileid="5" duration="150"/>
    <frame tileid="5" duration="150"/>
    <frame tileid="23" duration="150"/>
    <frame tileid="41" duration="150"/>
    <frame tileid="59" duration="150"/>
    <frame tileid="77" duration="150"/>
    <frame tileid="77" duration="150"/>
    <frame tileid="77" duration="150"/>
    <frame tileid="95" duration="150"/>
    <frame tileid="113" duration="150"/>
    <frame tileid="131" duration="150"/>
   </animation>
  </tile>
  <tile id="6">
   <animation>
    <frame tileid="6" duration="150"/>
    <frame tileid="6" duration="150"/>
    <frame tileid="6" duration="150"/>
    <frame tileid="24" duration="150"/>
    <frame tileid="42" duration="150"/>
    <frame tileid="60" duration="150"/>
    <frame tileid="78" duration="150"/>
    <frame tileid="78" duration="150"/>
    <frame tileid="78" duration="150"/>
    <frame tileid="96" duration="150"/>
    <frame tileid="114" duration="150"/>
    <frame tileid="132" duration="150"/>
   </animation>
  </tile>
  <tile id="7">
   <animation>
    <frame tileid="7" duration="150"/>
    <frame tileid="7" duration="150"/>
    <frame tileid="7" duration="150"/>
    <frame tileid="25" duration="150"/>
    <frame tileid="43" duration="150"/>
    <frame tileid="61" duration="150"/>
    <frame tileid="79" duration="150"/>
    <frame tileid="79" duration="150"/>
    <frame tileid="79" duration="150"/>
    <frame tileid="97" duration="150"/>
    <frame tileid="115" duration="150"/>
    <frame tileid="133" duration="150"/>
   </animation>
  </tile>
  <tile id="8">
   <animation>
    <frame tileid="8" duration="150"/>
    <frame tileid="8" duration="150"/>
    <frame tileid="8" duration="150"/>
    <frame tileid="26" duration="150"/>
    <frame tileid="44" duration="150"/>
    <frame tileid="62" duration="150"/>
    <frame tileid="80" duration="150"/>
    <frame tileid="80" duration="150"/>
    <frame tileid="80" duration="150"/>
    <frame tileid="98" duration="150"/>
    <frame tileid="116" duration="150"/>
    <frame tileid="134" duration="150"/>
   </animation>
  </tile>
  <tile id="9">
   <animation>
    <frame tileid="9" duration="150"/>
    <frame tileid="9" duration="150"/>
    <frame tileid="9" duration="150"/>
    <frame tileid="27" duration="150"/>
    <frame tileid="45" duration="150"/>
    <frame tileid="63" duration="150"/>
    <frame tileid="81" duration="150"/>
    <frame tileid="81" duration="150"/>
    <frame tileid="81" duration="150"/>
    <frame tileid="99" duration="150"/>
    <frame tileid="117" duration="150"/>
    <frame tileid="135" duration="150"/>
   </animation>
  </tile>
  <tile id="10">
   <animation>
    <frame tileid="10" duration="150"/>
    <frame tileid="10" duration="150"/>
    <frame tileid="10" duration="150"/>
    <frame tileid="28" duration="150"/>
    <frame tileid="46" duration="150"/>
    <frame tileid="64" duration="150"/>
    <frame tileid="82" duration="150"/>
    <frame tileid="82" duration="150"/>
    <frame tileid="82" duration="150"/>
    <frame tileid="100" duration="150"/>
    <frame tileid="118" duration="150"/>
    <frame tileid="136" duration="150"/>
   </animation>
  </tile>
  <tile id="11">
   <animation>
    <frame tileid="11" duration="150"/>
    <frame tileid="11" duration="150"/>
    <frame tileid="11" duration="150"/>
    <frame tileid="29" duration="150"/>
    <frame tileid="47" duration="150"/>
    <frame tileid="65" duration="150"/>
    <frame tileid="83" duration="150"/>
    <frame tileid="83" duration="150"/>
    <frame tileid="83" duration="150"/>
    <frame tileid="101" duration="150"/>
    <frame tileid="119" duration="150"/>
    <frame tileid="137" duration="150"/>
   </animation>
  </tile>
  <tile id="12">
   <animation>
    <frame tileid="12" duration="150"/>
    <frame tileid="12" duration="150"/>
    <frame tileid="12" duration="150"/>
    <frame tileid="30" duration="150"/>
    <frame tileid="48" duration="150"/>
    <frame tileid="66" duration="150"/>
    <frame tileid="84" duration="150"/>
    <frame tileid="84" duration="150"/>
    <frame tileid="84" duration="150"/>
    <frame tileid="102" duration="150"/>
    <frame tileid="120" duration="150"/>
    <frame tileid="138" duration="150"/>
   </animation>
  </tile>
 </tileset>
 <tileset firstgid="2148" name="Drinker2" tilewidth="16" tileheight="16" tilecount="16" columns="2">
  <image source="Drinker2_without_shadow.png" width="32" height="128"/>
  <tile id="0">
   <animation>
    <frame tileid="0" duration="150"/>
    <frame tileid="0" duration="150"/>
    <frame tileid="0" duration="150"/>
    <frame tileid="4" duration="150"/>
    <frame tileid="8" duration="150"/>
    <frame tileid="12" duration="150"/>
   </animation>
  </tile>
  <tile id="1">
   <animation>
    <frame tileid="1" duration="150"/>
    <frame tileid="1" duration="150"/>
    <frame tileid="1" duration="150"/>
    <frame tileid="5" duration="150"/>
    <frame tileid="9" duration="150"/>
    <frame tileid="13" duration="150"/>
   </animation>
  </tile>
  <tile id="2">
   <animation>
    <frame tileid="2" duration="150"/>
    <frame tileid="2" duration="150"/>
    <frame tileid="2" duration="150"/>
    <frame tileid="6" duration="150"/>
    <frame tileid="10" duration="150"/>
    <frame tileid="14" duration="150"/>
   </animation>
  </tile>
  <tile id="3">
   <animation>
    <frame tileid="3" duration="150"/>
    <frame tileid="3" duration="150"/>
    <frame tileid="3" duration="150"/>
    <frame tileid="7" duration="150"/>
    <frame tileid="11" duration="150"/>
    <frame tileid="15" duration="150"/>
   </animation>
  </tile>
 </tileset>
 <tileset firstgid="2164" name="Resting_character" tilewidth="16" tileheight="16" tilecount="120" columns="5">
  <image source="Resting_character_without_shadow.png" width="80" height="384"/>
  <tile id="1">
   <animation>
    <frame tileid="1" duration="150"/>
    <frame tileid="11" duration="150"/>
    <frame tileid="21" duration="150"/>
    <frame tileid="31" duration="150"/>
    <frame tileid="41" duration="150"/>
    <frame tileid="51" duration="150"/>
    <frame tileid="61" duration="150"/>
    <frame tileid="71" duration="150"/>
    <frame tileid="81" duration="150"/>
    <frame tileid="91" duration="150"/>
    <frame tileid="101" duration="150"/>
    <frame tileid="111" duration="150"/>
   </animation>
  </tile>
  <tile id="2">
   <animation>
    <frame tileid="2" duration="150"/>
    <frame tileid="12" duration="150"/>
    <frame tileid="22" duration="150"/>
    <frame tileid="32" duration="150"/>
    <frame tileid="42" duration="150"/>
    <frame tileid="52" duration="150"/>
    <frame tileid="62" duration="150"/>
    <frame tileid="72" duration="150"/>
    <frame tileid="82" duration="150"/>
    <frame tileid="92" duration="150"/>
    <frame tileid="102" duration="150"/>
    <frame tileid="112" duration="150"/>
   </animation>
  </tile>
  <tile id="4">
   <animation>
    <frame tileid="4" duration="150"/>
    <frame tileid="14" duration="150"/>
    <frame tileid="24" duration="150"/>
    <frame tileid="34" duration="150"/>
    <frame tileid="44" duration="150"/>
    <frame tileid="54" duration="150"/>
    <frame tileid="64" duration="150"/>
    <frame tileid="74" duration="150"/>
    <frame tileid="84" duration="150"/>
    <frame tileid="94" duration="150"/>
    <frame tileid="104" duration="150"/>
    <frame tileid="114" duration="150"/>
   </animation>
  </tile>
  <tile id="6">
   <animation>
    <frame tileid="6" duration="150"/>
    <frame tileid="16" duration="150"/>
    <frame tileid="26" duration="150"/>
    <frame tileid="36" duration="150"/>
    <frame tileid="46" duration="150"/>
    <frame tileid="56" duration="150"/>
    <frame tileid="66" duration="150"/>
    <frame tileid="76" duration="150"/>
    <frame tileid="86" duration="150"/>
    <frame tileid="96" duration="150"/>
    <frame tileid="106" duration="150"/>
    <frame tileid="116" duration="150"/>
   </animation>
  </tile>
  <tile id="7">
   <animation>
    <frame tileid="7" duration="150"/>
    <frame tileid="17" duration="150"/>
    <frame tileid="27" duration="150"/>
    <frame tileid="37" duration="150"/>
    <frame tileid="47" duration="150"/>
    <frame tileid="57" duration="150"/>
    <frame tileid="67" duration="150"/>
    <frame tileid="77" duration="150"/>
    <frame tileid="87" duration="150"/>
    <frame tileid="97" duration="150"/>
    <frame tileid="107" duration="150"/>
    <frame tileid="117" duration="150"/>
   </animation>
  </tile>
  <tile id="8">
   <animation>
    <frame tileid="8" duration="150"/>
    <frame tileid="18" duration="150"/>
    <frame tileid="28" duration="150"/>
    <frame tileid="38" duration="150"/>
    <frame tileid="48" duration="150"/>
    <frame tileid="58" duration="150"/>
    <frame tileid="68" duration="150"/>
    <frame tileid="78" duration="150"/>
    <frame tileid="88" duration="150"/>
    <frame tileid="98" duration="150"/>
    <frame tileid="108" duration="150"/>
    <frame tileid="118" duration="150"/>
   </animation>
  </tile>
  <tile id="9">
   <animation>
    <frame tileid="9" duration="150"/>
    <frame tileid="19" duration="150"/>
    <frame tileid="29" duration="150"/>
    <frame tileid="39" duration="150"/>
    <frame tileid="49" duration="150"/>
    <frame tileid="59" duration="150"/>
    <frame tileid="69" duration="150"/>
    <frame tileid="79" duration="150"/>
    <frame tileid="89" duration="150"/>
    <frame tileid="99" duration="150"/>
    <frame tileid="109" duration="150"/>
    <frame tileid="119" duration="150"/>
   </animation>
  </tile>
 </tileset>
 <tileset firstgid="2284" name="Char_sharpens_weapons" tilewidth="16" tileheight="16" tilecount="144" columns="18">
  <image source="Char_sharpens_weapons.png" width="288" height="128"/>
  <tile id="1">
   <animation>
    <frame tileid="1" duration="150"/>
    <frame tileid="4" duration="150"/>
    <frame tileid="7" duration="150"/>
    <frame tileid="10" duration="150"/>
    <frame tileid="13" duration="150"/>
    <frame tileid="16" duration="150"/>
    <frame tileid="73" duration="150"/>
    <frame tileid="76" duration="150"/>
    <frame tileid="79" duration="150"/>
    <frame tileid="82" duration="150"/>
    <frame tileid="85" duration="150"/>
    <frame tileid="88" duration="150"/>
   </animation>
  </tile>
  <tile id="2">
   <animation>
    <frame tileid="2" duration="150"/>
    <frame tileid="5" duration="150"/>
    <frame tileid="8" duration="150"/>
    <frame tileid="11" duration="150"/>
    <frame tileid="14" duration="150"/>
    <frame tileid="17" duration="150"/>
    <frame tileid="74" duration="150"/>
    <frame tileid="77" duration="150"/>
    <frame tileid="80" duration="150"/>
    <frame tileid="83" duration="150"/>
    <frame tileid="86" duration="150"/>
    <frame tileid="89" duration="150"/>
   </animation>
  </tile>
  <tile id="18">
   <animation>
    <frame tileid="18" duration="150"/>
    <frame tileid="21" duration="150"/>
    <frame tileid="24" duration="150"/>
    <frame tileid="27" duration="150"/>
    <frame tileid="30" duration="150"/>
    <frame tileid="33" duration="150"/>
    <frame tileid="90" duration="150"/>
    <frame tileid="93" duration="150"/>
    <frame tileid="96" duration="150"/>
    <frame tileid="99" duration="150"/>
    <frame tileid="102" duration="150"/>
    <frame tileid="105" duration="150"/>
   </animation>
  </tile>
  <tile id="19">
   <animation>
    <frame tileid="19" duration="150"/>
    <frame tileid="22" duration="150"/>
    <frame tileid="25" duration="150"/>
    <frame tileid="28" duration="150"/>
    <frame tileid="31" duration="150"/>
    <frame tileid="34" duration="150"/>
    <frame tileid="91" duration="150"/>
    <frame tileid="94" duration="150"/>
    <frame tileid="97" duration="150"/>
    <frame tileid="100" duration="150"/>
    <frame tileid="103" duration="150"/>
    <frame tileid="106" duration="150"/>
   </animation>
  </tile>
  <tile id="20">
   <animation>
    <frame tileid="20" duration="150"/>
    <frame tileid="23" duration="150"/>
    <frame tileid="26" duration="150"/>
    <frame tileid="29" duration="150"/>
    <frame tileid="32" duration="150"/>
    <frame tileid="35" duration="150"/>
    <frame tileid="92" duration="150"/>
    <frame tileid="95" duration="150"/>
    <frame tileid="98" duration="150"/>
    <frame tileid="101" duration="150"/>
    <frame tileid="104" duration="150"/>
    <frame tileid="107" duration="150"/>
   </animation>
  </tile>
  <tile id="36">
   <animation>
    <frame tileid="36" duration="150"/>
    <frame tileid="39" duration="150"/>
    <frame tileid="42" duration="150"/>
    <frame tileid="45" duration="150"/>
    <frame tileid="48" duration="150"/>
    <frame tileid="51" duration="150"/>
    <frame tileid="108" duration="150"/>
    <frame tileid="111" duration="150"/>
    <frame tileid="114" duration="150"/>
    <frame tileid="117" duration="150"/>
    <frame tileid="120" duration="150"/>
    <frame tileid="123" duration="150"/>
   </animation>
  </tile>
  <tile id="37">
   <animation>
    <frame tileid="37" duration="150"/>
    <frame tileid="40" duration="150"/>
    <frame tileid="43" duration="150"/>
    <frame tileid="46" duration="150"/>
    <frame tileid="49" duration="150"/>
    <frame tileid="52" duration="150"/>
    <frame tileid="109" duration="150"/>
    <frame tileid="112" duration="150"/>
    <frame tileid="115" duration="150"/>
    <frame tileid="118" duration="150"/>
    <frame tileid="121" duration="150"/>
    <frame tileid="124" duration="150"/>
   </animation>
  </tile>
  <tile id="38">
   <animation>
    <frame tileid="38" duration="150"/>
    <frame tileid="41" duration="150"/>
    <frame tileid="44" duration="150"/>
    <frame tileid="47" duration="150"/>
    <frame tileid="50" duration="150"/>
    <frame tileid="53" duration="150"/>
    <frame tileid="110" duration="150"/>
    <frame tileid="113" duration="150"/>
    <frame tileid="116" duration="150"/>
    <frame tileid="119" duration="150"/>
    <frame tileid="122" duration="150"/>
    <frame tileid="125" duration="150"/>
   </animation>
  </tile>
  <tile id="54">
   <animation>
    <frame tileid="54" duration="150"/>
    <frame tileid="57" duration="150"/>
    <frame tileid="60" duration="150"/>
    <frame tileid="63" duration="150"/>
    <frame tileid="66" duration="150"/>
    <frame tileid="69" duration="150"/>
    <frame tileid="126" duration="150"/>
    <frame tileid="129" duration="150"/>
    <frame tileid="132" duration="150"/>
    <frame tileid="135" duration="150"/>
    <frame tileid="138" duration="150"/>
    <frame tileid="141" duration="150"/>
   </animation>
  </tile>
  <tile id="55">
   <animation>
    <frame tileid="55" duration="150"/>
    <frame tileid="58" duration="150"/>
    <frame tileid="61" duration="150"/>
    <frame tileid="64" duration="150"/>
    <frame tileid="67" duration="150"/>
    <frame tileid="70" duration="150"/>
    <frame tileid="127" duration="150"/>
    <frame tileid="130" duration="150"/>
    <frame tileid="133" duration="150"/>
    <frame tileid="136" duration="150"/>
    <frame tileid="139" duration="150"/>
    <frame tileid="142" duration="150"/>
   </animation>
  </tile>
  <tile id="56">
   <animation>
    <frame tileid="56" duration="150"/>
    <frame tileid="59" duration="150"/>
    <frame tileid="62" duration="150"/>
    <frame tileid="65" duration="150"/>
    <frame tileid="68" duration="150"/>
    <frame tileid="71" duration="150"/>
    <frame tileid="128" duration="150"/>
    <frame tileid="131" duration="150"/>
    <frame tileid="134" duration="150"/>
    <frame tileid="137" duration="150"/>
    <frame tileid="140" duration="150"/>
    <frame tileid="143" duration="150"/>
   </animation>
  </tile>
 </tileset>
 <tileset firstgid="2428" name="Char_sharpens_weapons" tilewidth="16" tileheight="16" tilecount="144" columns="18">
  <image source="Char_sharpens_weapons_without_shadow.png" width="288" height="128"/>
  <tile id="1">
   <animation>
    <frame tileid="1" duration="150"/>
    <frame tileid="4" duration="150"/>
    <frame tileid="7" duration="150"/>
    <frame tileid="10" duration="150"/>
    <frame tileid="13" duration="150"/>
    <frame tileid="16" duration="150"/>
    <frame tileid="73" duration="150"/>
    <frame tileid="76" duration="150"/>
    <frame tileid="79" duration="150"/>
    <frame tileid="82" duration="150"/>
    <frame tileid="85" duration="150"/>
    <frame tileid="88" duration="150"/>
   </animation>
  </tile>
  <tile id="2">
   <animation>
    <frame tileid="2" duration="150"/>
    <frame tileid="5" duration="150"/>
    <frame tileid="8" duration="150"/>
    <frame tileid="11" duration="150"/>
    <frame tileid="14" duration="150"/>
    <frame tileid="17" duration="150"/>
    <frame tileid="74" duration="150"/>
    <frame tileid="77" duration="150"/>
    <frame tileid="80" duration="150"/>
    <frame tileid="83" duration="150"/>
    <frame tileid="86" duration="150"/>
    <frame tileid="89" duration="150"/>
   </animation>
  </tile>
  <tile id="18">
   <animation>
    <frame tileid="18" duration="150"/>
    <frame tileid="21" duration="150"/>
    <frame tileid="24" duration="150"/>
    <frame tileid="27" duration="150"/>
    <frame tileid="30" duration="150"/>
    <frame tileid="33" duration="150"/>
    <frame tileid="90" duration="150"/>
    <frame tileid="93" duration="150"/>
    <frame tileid="96" duration="150"/>
    <frame tileid="99" duration="150"/>
    <frame tileid="102" duration="150"/>
    <frame tileid="105" duration="150"/>
   </animation>
  </tile>
  <tile id="19">
   <animation>
    <frame tileid="19" duration="150"/>
    <frame tileid="22" duration="150"/>
    <frame tileid="25" duration="150"/>
    <frame tileid="28" duration="150"/>
    <frame tileid="31" duration="150"/>
    <frame tileid="34" duration="150"/>
    <frame tileid="91" duration="150"/>
    <frame tileid="94" duration="150"/>
    <frame tileid="97" duration="150"/>
    <frame tileid="100" duration="150"/>
    <frame tileid="103" duration="150"/>
    <frame tileid="106" duration="150"/>
   </animation>
  </tile>
  <tile id="20">
   <animation>
    <frame tileid="20" duration="150"/>
    <frame tileid="23" duration="150"/>
    <frame tileid="26" duration="150"/>
    <frame tileid="29" duration="150"/>
    <frame tileid="32" duration="150"/>
    <frame tileid="35" duration="150"/>
    <frame tileid="92" duration="150"/>
    <frame tileid="95" duration="150"/>
    <frame tileid="98" duration="150"/>
    <frame tileid="101" duration="150"/>
    <frame tileid="104" duration="150"/>
    <frame tileid="107" duration="150"/>
   </animation>
  </tile>
  <tile id="36">
   <animation>
    <frame tileid="36" duration="150"/>
    <frame tileid="39" duration="150"/>
    <frame tileid="42" duration="150"/>
    <frame tileid="45" duration="150"/>
    <frame tileid="48" duration="150"/>
    <frame tileid="51" duration="150"/>
    <frame tileid="108" duration="150"/>
    <frame tileid="111" duration="150"/>
    <frame tileid="114" duration="150"/>
    <frame tileid="117" duration="150"/>
    <frame tileid="120" duration="150"/>
    <frame tileid="123" duration="150"/>
   </animation>
  </tile>
  <tile id="37">
   <animation>
    <frame tileid="37" duration="150"/>
    <frame tileid="40" duration="150"/>
    <frame tileid="43" duration="150"/>
    <frame tileid="46" duration="150"/>
    <frame tileid="49" duration="150"/>
    <frame tileid="52" duration="150"/>
    <frame tileid="109" duration="150"/>
    <frame tileid="112" duration="150"/>
    <frame tileid="115" duration="150"/>
    <frame tileid="118" duration="150"/>
    <frame tileid="121" duration="150"/>
    <frame tileid="124" duration="150"/>
   </animation>
  </tile>
  <tile id="38">
   <animation>
    <frame tileid="38" duration="150"/>
    <frame tileid="41" duration="150"/>
    <frame tileid="44" duration="150"/>
    <frame tileid="47" duration="150"/>
    <frame tileid="50" duration="150"/>
    <frame tileid="53" duration="150"/>
    <frame tileid="110" duration="150"/>
    <frame tileid="113" duration="150"/>
    <frame tileid="116" duration="150"/>
    <frame tileid="119" duration="150"/>
    <frame tileid="122" duration="150"/>
    <frame tileid="125" duration="150"/>
   </animation>
  </tile>
  <tile id="54">
   <animation>
    <frame tileid="54" duration="150"/>
    <frame tileid="57" duration="150"/>
    <frame tileid="60" duration="150"/>
    <frame tileid="63" duration="150"/>
    <frame tileid="66" duration="150"/>
    <frame tileid="69" duration="150"/>
    <frame tileid="126" duration="150"/>
    <frame tileid="129" duration="150"/>
    <frame tileid="132" duration="150"/>
    <frame tileid="135" duration="150"/>
    <frame tileid="138" duration="150"/>
    <frame tileid="141" duration="150"/>
   </animation>
  </tile>
  <tile id="55">
   <animation>
    <frame tileid="55" duration="150"/>
    <frame tileid="58" duration="150"/>
    <frame tileid="61" duration="150"/>
    <frame tileid="64" duration="150"/>
    <frame tileid="67" duration="150"/>
    <frame tileid="70" duration="150"/>
    <frame tileid="127" duration="150"/>
    <frame tileid="130" duration="150"/>
    <frame tileid="133" duration="150"/>
    <frame tileid="136" duration="150"/>
    <frame tileid="139" duration="150"/>
    <frame tileid="142" duration="150"/>
   </animation>
  </tile>
  <tile id="56">
   <animation>
    <frame tileid="56" duration="150"/>
    <frame tileid="59" duration="150"/>
    <frame tileid="62" duration="150"/>
    <frame tileid="65" duration="150"/>
    <frame tileid="68" duration="150"/>
    <frame tileid="71" duration="150"/>
    <frame tileid="128" duration="150"/>
    <frame tileid="131" duration="150"/>
    <frame tileid="134" duration="150"/>
    <frame tileid="137" duration="150"/>
    <frame tileid="140" duration="150"/>
    <frame tileid="143" duration="150"/>
   </animation>
  </tile>
 </tileset>
 <tileset firstgid="2572" name="Char_sharpens_weapons_shadow" tilewidth="16" tileheight="16" tilecount="6" columns="3">
  <image source="Char_sharpens_weapons_shadow.png" width="48" height="32"/>
 </tileset>
 <tileset firstgid="2578" name="Bonfire_boiler_lizardman" tilewidth="16" tileheight="16" tilecount="588" columns="21">
  <image source="Bonfire_boiler_lizardman_without_shadow.png" width="336" height="448"/>
  <tile id="2">
   <animation>
    <frame tileid="2" duration="150"/>
    <frame tileid="149" duration="150"/>
    <frame tileid="296" duration="150"/>
    <frame tileid="443" duration="150"/>
    <frame tileid="9" duration="150"/>
    <frame tileid="156" duration="150"/>
    <frame tileid="303" duration="150"/>
    <frame tileid="450" duration="150"/>
    <frame tileid="16" duration="150"/>
    <frame tileid="163" duration="150"/>
    <frame tileid="310" duration="150"/>
    <frame tileid="457" duration="150"/>
   </animation>
  </tile>
  <tile id="3">
   <animation>
    <frame tileid="3" duration="150"/>
    <frame tileid="150" duration="150"/>
    <frame tileid="297" duration="150"/>
    <frame tileid="444" duration="150"/>
    <frame tileid="10" duration="150"/>
    <frame tileid="157" duration="150"/>
    <frame tileid="304" duration="150"/>
    <frame tileid="451" duration="150"/>
    <frame tileid="17" duration="150"/>
    <frame tileid="164" duration="150"/>
    <frame tileid="311" duration="150"/>
    <frame tileid="458" duration="150"/>
   </animation>
  </tile>
  <tile id="22">
   <animation>
    <frame tileid="22" duration="150"/>
    <frame tileid="169" duration="150"/>
    <frame tileid="316" duration="150"/>
    <frame tileid="463" duration="150"/>
    <frame tileid="29" duration="150"/>
    <frame tileid="176" duration="150"/>
    <frame tileid="323" duration="150"/>
    <frame tileid="470" duration="150"/>
    <frame tileid="36" duration="150"/>
    <frame tileid="183" duration="150"/>
    <frame tileid="330" duration="150"/>
    <frame tileid="477" duration="150"/>
   </animation>
  </tile>
  <tile id="23">
   <animation>
    <frame tileid="23" duration="150"/>
    <frame tileid="170" duration="150"/>
    <frame tileid="317" duration="150"/>
    <frame tileid="464" duration="150"/>
    <frame tileid="30" duration="150"/>
    <frame tileid="177" duration="150"/>
    <frame tileid="324" duration="150"/>
    <frame tileid="471" duration="150"/>
    <frame tileid="37" duration="150"/>
    <frame tileid="184" duration="150"/>
    <frame tileid="331" duration="150"/>
    <frame tileid="478" duration="150"/>
   </animation>
  </tile>
  <tile id="24">
   <animation>
    <frame tileid="24" duration="150"/>
    <frame tileid="171" duration="150"/>
    <frame tileid="318" duration="150"/>
    <frame tileid="465" duration="150"/>
    <frame tileid="31" duration="150"/>
    <frame tileid="178" duration="150"/>
    <frame tileid="325" duration="150"/>
    <frame tileid="472" duration="150"/>
    <frame tileid="38" duration="150"/>
    <frame tileid="185" duration="150"/>
    <frame tileid="332" duration="150"/>
    <frame tileid="479" duration="150"/>
   </animation>
  </tile>
  <tile id="25">
   <animation>
    <frame tileid="25" duration="150"/>
    <frame tileid="172" duration="150"/>
    <frame tileid="319" duration="150"/>
    <frame tileid="466" duration="150"/>
    <frame tileid="32" duration="150"/>
    <frame tileid="179" duration="150"/>
    <frame tileid="326" duration="150"/>
    <frame tileid="473" duration="150"/>
    <frame tileid="39" duration="150"/>
    <frame tileid="186" duration="150"/>
    <frame tileid="333" duration="150"/>
    <frame tileid="480" duration="150"/>
   </animation>
  </tile>
  <tile id="26">
   <animation>
    <frame tileid="26" duration="150"/>
    <frame tileid="173" duration="150"/>
    <frame tileid="320" duration="150"/>
    <frame tileid="467" duration="150"/>
    <frame tileid="33" duration="150"/>
    <frame tileid="180" duration="150"/>
    <frame tileid="327" duration="150"/>
    <frame tileid="474" duration="150"/>
    <frame tileid="40" duration="150"/>
    <frame tileid="187" duration="150"/>
    <frame tileid="334" duration="150"/>
    <frame tileid="481" duration="150"/>
   </animation>
  </tile>
  <tile id="27">
   <animation>
    <frame tileid="27" duration="150"/>
    <frame tileid="174" duration="150"/>
    <frame tileid="321" duration="150"/>
    <frame tileid="468" duration="150"/>
    <frame tileid="34" duration="150"/>
    <frame tileid="181" duration="150"/>
    <frame tileid="328" duration="150"/>
    <frame tileid="475" duration="150"/>
    <frame tileid="41" duration="150"/>
    <frame tileid="188" duration="150"/>
    <frame tileid="335" duration="150"/>
    <frame tileid="482" duration="150"/>
   </animation>
  </tile>
  <tile id="43">
   <animation>
    <frame tileid="43" duration="150"/>
    <frame tileid="190" duration="150"/>
    <frame tileid="337" duration="150"/>
    <frame tileid="484" duration="150"/>
    <frame tileid="50" duration="150"/>
    <frame tileid="197" duration="150"/>
    <frame tileid="344" duration="150"/>
    <frame tileid="491" duration="150"/>
    <frame tileid="57" duration="150"/>
    <frame tileid="204" duration="150"/>
    <frame tileid="351" duration="150"/>
    <frame tileid="498" duration="150"/>
   </animation>
  </tile>
  <tile id="44">
   <animation>
    <frame tileid="44" duration="150"/>
    <frame tileid="191" duration="150"/>
    <frame tileid="338" duration="150"/>
    <frame tileid="485" duration="150"/>
    <frame tileid="51" duration="150"/>
    <frame tileid="198" duration="150"/>
    <frame tileid="345" duration="150"/>
    <frame tileid="492" duration="150"/>
    <frame tileid="58" duration="150"/>
    <frame tileid="205" duration="150"/>
    <frame tileid="352" duration="150"/>
    <frame tileid="499" duration="150"/>
   </animation>
  </tile>
  <tile id="45">
   <animation>
    <frame tileid="45" duration="150"/>
    <frame tileid="192" duration="150"/>
    <frame tileid="339" duration="150"/>
    <frame tileid="486" duration="150"/>
    <frame tileid="52" duration="150"/>
    <frame tileid="199" duration="150"/>
    <frame tileid="346" duration="150"/>
    <frame tileid="493" duration="150"/>
    <frame tileid="59" duration="150"/>
    <frame tileid="206" duration="150"/>
    <frame tileid="353" duration="150"/>
    <frame tileid="500" duration="150"/>
   </animation>
  </tile>
  <tile id="46">
   <animation>
    <frame tileid="46" duration="150"/>
    <frame tileid="193" duration="150"/>
    <frame tileid="340" duration="150"/>
    <frame tileid="487" duration="150"/>
    <frame tileid="53" duration="150"/>
    <frame tileid="200" duration="150"/>
    <frame tileid="347" duration="150"/>
    <frame tileid="494" duration="150"/>
    <frame tileid="60" duration="150"/>
    <frame tileid="207" duration="150"/>
    <frame tileid="354" duration="150"/>
    <frame tileid="501" duration="150"/>
   </animation>
  </tile>
  <tile id="47">
   <animation>
    <frame tileid="47" duration="150"/>
    <frame tileid="194" duration="150"/>
    <frame tileid="341" duration="150"/>
    <frame tileid="488" duration="150"/>
    <frame tileid="54" duration="150"/>
    <frame tileid="201" duration="150"/>
    <frame tileid="348" duration="150"/>
    <frame tileid="495" duration="150"/>
    <frame tileid="61" duration="150"/>
    <frame tileid="208" duration="150"/>
    <frame tileid="355" duration="150"/>
    <frame tileid="502" duration="150"/>
   </animation>
  </tile>
  <tile id="48">
   <animation>
    <frame tileid="48" duration="150"/>
    <frame tileid="195" duration="150"/>
    <frame tileid="342" duration="150"/>
    <frame tileid="489" duration="150"/>
    <frame tileid="55" duration="150"/>
    <frame tileid="202" duration="150"/>
    <frame tileid="349" duration="150"/>
    <frame tileid="496" duration="150"/>
    <frame tileid="62" duration="150"/>
    <frame tileid="209" duration="150"/>
    <frame tileid="356" duration="150"/>
    <frame tileid="503" duration="150"/>
   </animation>
  </tile>
  <tile id="85">
   <animation>
    <frame tileid="85" duration="150"/>
    <frame tileid="232" duration="150"/>
    <frame tileid="379" duration="150"/>
    <frame tileid="526" duration="150"/>
    <frame tileid="92" duration="150"/>
    <frame tileid="239" duration="150"/>
    <frame tileid="386" duration="150"/>
    <frame tileid="533" duration="150"/>
    <frame tileid="99" duration="150"/>
    <frame tileid="246" duration="150"/>
    <frame tileid="393" duration="150"/>
    <frame tileid="540" duration="150"/>
   </animation>
  </tile>
  <tile id="86">
   <animation>
    <frame tileid="86" duration="150"/>
    <frame tileid="233" duration="150"/>
    <frame tileid="380" duration="150"/>
    <frame tileid="527" duration="150"/>
    <frame tileid="93" duration="150"/>
    <frame tileid="240" duration="150"/>
    <frame tileid="387" duration="150"/>
    <frame tileid="534" duration="150"/>
    <frame tileid="100" duration="150"/>
    <frame tileid="247" duration="150"/>
    <frame tileid="394" duration="150"/>
    <frame tileid="541" duration="150"/>
   </animation>
  </tile>
  <tile id="88">
   <animation>
    <frame tileid="88" duration="150"/>
    <frame tileid="235" duration="150"/>
    <frame tileid="382" duration="150"/>
    <frame tileid="529" duration="150"/>
    <frame tileid="95" duration="150"/>
    <frame tileid="242" duration="150"/>
    <frame tileid="389" duration="150"/>
    <frame tileid="536" duration="150"/>
    <frame tileid="102" duration="150"/>
    <frame tileid="249" duration="150"/>
    <frame tileid="396" duration="150"/>
    <frame tileid="543" duration="150"/>
   </animation>
  </tile>
  <tile id="89">
   <animation>
    <frame tileid="89" duration="150"/>
    <frame tileid="236" duration="150"/>
    <frame tileid="383" duration="150"/>
    <frame tileid="530" duration="150"/>
    <frame tileid="96" duration="150"/>
    <frame tileid="243" duration="150"/>
    <frame tileid="390" duration="150"/>
    <frame tileid="537" duration="150"/>
    <frame tileid="103" duration="150"/>
    <frame tileid="250" duration="150"/>
    <frame tileid="397" duration="150"/>
    <frame tileid="544" duration="150"/>
   </animation>
  </tile>
  <tile id="105">
   <animation>
    <frame tileid="105" duration="150"/>
    <frame tileid="252" duration="150"/>
    <frame tileid="399" duration="150"/>
    <frame tileid="546" duration="150"/>
    <frame tileid="112" duration="150"/>
    <frame tileid="259" duration="150"/>
    <frame tileid="406" duration="150"/>
    <frame tileid="553" duration="150"/>
    <frame tileid="119" duration="150"/>
    <frame tileid="266" duration="150"/>
    <frame tileid="413" duration="150"/>
    <frame tileid="560" duration="150"/>
   </animation>
  </tile>
  <tile id="106">
   <animation>
    <frame tileid="106" duration="150"/>
    <frame tileid="253" duration="150"/>
    <frame tileid="400" duration="150"/>
    <frame tileid="547" duration="150"/>
    <frame tileid="113" duration="150"/>
    <frame tileid="260" duration="150"/>
    <frame tileid="407" duration="150"/>
    <frame tileid="554" duration="150"/>
    <frame tileid="120" duration="150"/>
    <frame tileid="267" duration="150"/>
    <frame tileid="414" duration="150"/>
    <frame tileid="561" duration="150"/>
   </animation>
  </tile>
  <tile id="107">
   <animation>
    <frame tileid="107" duration="150"/>
    <frame tileid="254" duration="150"/>
    <frame tileid="401" duration="150"/>
    <frame tileid="548" duration="150"/>
    <frame tileid="114" duration="150"/>
    <frame tileid="261" duration="150"/>
    <frame tileid="408" duration="150"/>
    <frame tileid="555" duration="150"/>
    <frame tileid="121" duration="150"/>
    <frame tileid="268" duration="150"/>
    <frame tileid="415" duration="150"/>
    <frame tileid="562" duration="150"/>
   </animation>
  </tile>
  <tile id="109">
   <animation>
    <frame tileid="109" duration="150"/>
    <frame tileid="256" duration="150"/>
    <frame tileid="403" duration="150"/>
    <frame tileid="550" duration="150"/>
    <frame tileid="116" duration="150"/>
    <frame tileid="263" duration="150"/>
    <frame tileid="410" duration="150"/>
    <frame tileid="557" duration="150"/>
    <frame tileid="123" duration="150"/>
    <frame tileid="270" duration="150"/>
    <frame tileid="417" duration="150"/>
    <frame tileid="564" duration="150"/>
   </animation>
  </tile>
  <tile id="110">
   <animation>
    <frame tileid="110" duration="150"/>
    <frame tileid="257" duration="150"/>
    <frame tileid="404" duration="150"/>
    <frame tileid="551" duration="150"/>
    <frame tileid="117" duration="150"/>
    <frame tileid="264" duration="150"/>
    <frame tileid="411" duration="150"/>
    <frame tileid="558" duration="150"/>
    <frame tileid="124" duration="150"/>
    <frame tileid="271" duration="150"/>
    <frame tileid="418" duration="150"/>
    <frame tileid="565" duration="150"/>
   </animation>
  </tile>
  <tile id="126">
   <animation>
    <frame tileid="126" duration="150"/>
    <frame tileid="273" duration="150"/>
    <frame tileid="420" duration="150"/>
    <frame tileid="567" duration="150"/>
    <frame tileid="133" duration="150"/>
    <frame tileid="280" duration="150"/>
    <frame tileid="427" duration="150"/>
    <frame tileid="574" duration="150"/>
    <frame tileid="140" duration="150"/>
    <frame tileid="287" duration="150"/>
    <frame tileid="434" duration="150"/>
    <frame tileid="581" duration="150"/>
   </animation>
  </tile>
  <tile id="127">
   <animation>
    <frame tileid="127" duration="150"/>
    <frame tileid="274" duration="150"/>
    <frame tileid="421" duration="150"/>
    <frame tileid="568" duration="150"/>
    <frame tileid="134" duration="150"/>
    <frame tileid="281" duration="150"/>
    <frame tileid="428" duration="150"/>
    <frame tileid="575" duration="150"/>
    <frame tileid="141" duration="150"/>
    <frame tileid="288" duration="150"/>
    <frame tileid="435" duration="150"/>
    <frame tileid="582" duration="150"/>
   </animation>
  </tile>
 </tileset>
 <tileset firstgid="3166" name="Bonfire_boiler_lizardman_shadow" tilewidth="16" tileheight="16" tilecount="35" columns="7">
  <image source="Bonfire_boiler_lizardman_shadow.png" width="112" height="80"/>
 </tileset>
 <layer id="3" name="Character_full" width="16" height="24" visible="0">
  <data encoding="csv">
   <chunk x="-16" y="-16" width="16" height="16">
0,0,0,0,0,0,0,0,0,0,0,0,0,0,0,0,
0,0,0,0,0,0,0,0,0,0,0,0,0,0,0,0,
0,0,0,0,0,0,0,0,0,0,0,0,0,0,0,0,
0,0,0,0,0,0,0,0,0,0,0,0,0,0,0,0,
0,0,0,0,0,0,0,0,0,0,0,0,0,0,0,0,
0,0,0,0,0,0,0,0,0,0,0,0,0,0,0,0,
0,0,0,0,0,0,0,0,0,0,0,0,0,0,0,0,
0,0,0,0,0,0,0,0,0,0,0,0,0,0,0,0,
0,0,0,0,0,0,0,0,0,0,0,0,0,0,0,0,
0,0,0,0,0,0,0,0,0,0,0,0,0,0,0,0,
0,0,0,0,0,0,0,0,0,0,0,0,0,0,0,0,
0,0,0,0,0,0,0,0,0,0,0,0,0,0,0,0,
0,0,0,0,0,0,0,0,0,0,0,0,0,0,0,0,
0,0,0,0,0,0,0,0,0,0,0,0,0,1,2,3,
0,0,0,0,0,0,0,0,0,0,0,0,0,22,23,24,
0,0,0,0,0,0,0,0,0,0,0,0,0,43,44,45
</chunk>
   <chunk x="0" y="-16" width="16" height="16">
0,0,0,0,0,0,0,0,0,0,0,0,0,0,0,0,
0,0,0,0,0,0,0,0,0,0,0,0,0,0,0,0,
0,0,0,0,0,0,0,0,0,0,0,0,0,0,0,0,
0,0,0,0,0,0,0,0,0,0,0,0,0,0,0,0,
0,0,0,0,0,0,0,0,0,0,0,0,0,0,0,0,
0,0,0,0,0,0,0,0,0,0,0,0,0,0,0,0,
0,0,0,0,0,0,0,0,0,0,0,0,0,0,0,0,
0,0,0,0,0,0,0,0,0,0,0,0,0,0,0,0,
0,0,0,0,0,0,0,0,0,0,0,0,0,0,0,0,
0,0,0,0,0,0,0,0,0,0,0,0,0,0,0,0,
0,0,0,0,0,0,0,0,0,0,0,0,0,0,0,0,
0,0,0,0,0,0,0,0,0,0,0,0,0,0,0,0,
0,0,0,0,0,0,0,0,0,0,0,0,0,0,0,0,
4,5,6,7,733,734,735,736,737,738,739,740,1027,1028,1029,1030,
25,26,27,28,741,742,743,744,745,746,747,748,1051,1052,1053,1054,
46,47,48,49,749,750,751,752,753,754,755,756,1075,1076,1077,1078
</chunk>
   <chunk x="16" y="-16" width="16" height="16">
0,0,0,0,0,0,0,0,0,0,0,0,0,0,0,0,
0,0,0,0,0,0,0,0,0,0,0,0,0,0,0,0,
0,0,0,0,0,0,0,0,0,0,0,0,0,0,0,0,
0,0,0,0,0,0,0,0,0,0,0,0,0,0,0,0,
0,0,0,0,0,0,0,0,0,0,0,0,0,0,0,0,
0,0,0,0,0,0,0,0,0,0,0,0,0,0,0,0,
0,0,0,0,0,0,0,0,0,0,0,0,0,0,0,0,
0,0,0,0,0,0,0,0,0,0,0,0,0,0,0,0,
0,0,0,0,0,0,0,0,0,0,0,0,0,0,0,0,
0,0,0,0,0,0,0,0,0,0,0,0,0,0,0,0,
0,0,0,0,0,0,0,0,0,0,0,0,0,0,0,0,
0,0,0,0,0,0,0,0,0,0,0,0,0,0,0,0,
0,0,0,0,0,0,0,0,0,0,0,0,0,0,0,0,
1123,1124,1207,1208,1235,1236,1237,1238,1239,0,1419,1420,0,0,1531,1532,
1137,1138,1221,1222,1240,1241,1242,1243,1244,0,1421,1422,0,0,1535,1536,
1151,1152,0,0,0,0,0,0,0,0,0,0,0,0,1539,1540
</chunk>
   <chunk x="32" y="-16" width="16" height="16">
0,0,0,0,0,0,0,0,0,0,0,0,0,0,0,0,
0,0,0,0,0,0,0,0,0,0,0,0,0,0,0,0,
0,0,0,0,0,0,0,0,0,0,0,0,0,0,0,0,
0,0,0,0,0,0,0,0,0,0,0,0,0,0,0,0,
0,0,0,0,0,0,0,0,0,0,0,0,0,0,0,0,
0,0,0,0,0,0,0,0,0,0,0,0,0,0,0,0,
0,0,0,0,0,0,0,0,0,0,0,0,0,0,0,0,
0,0,0,0,0,0,0,0,0,0,0,0,0,0,0,0,
0,0,0,0,0,0,0,0,0,0,0,0,0,0,0,0,
0,0,0,0,0,0,0,0,0,0,0,0,0,0,0,0,
0,0,0,0,0,0,0,0,0,0,0,0,0,0,0,0,
0,0,0,0,0,0,0,0,0,0,0,0,0,0,0,0,
0,0,0,0,0,0,0,0,0,0,0,0,0,0,0,0,
0,2284,2285,2286,0,0,0,0,0,0,0,0,0,0,0,0,
0,2302,2303,2304,0,0,0,0,0,0,0,0,0,0,0,0,
0,2320,2321,2322,0,0,0,0,0,0,0,0,0,0,0,0
</chunk>
   <chunk x="-16" y="0" width="16" height="16">
0,0,0,0,0,0,0,0,0,0,0,0,0,64,65,66,
0,0,0,0,0,0,0,0,0,0,0,0,0,85,86,87,
0,0,0,0,0,0,0,0,0,0,0,0,0,106,107,108,
0,0,0,0,0,0,0,0,0,0,0,0,0,127,128,129,
0,0,0,0,0,0,0,0,0,0,0,0,0,0,0,0,
0,0,0,0,0,0,0,0,0,0,0,0,0,0,0,0,
0,0,0,0,0,0,0,0,0,0,0,0,0,0,0,0,
0,0,0,0,0,0,0,0,0,0,0,0,0,0,0,0,
0,0,0,0,0,0,0,0,0,0,0,0,0,0,0,0,
0,0,0,0,0,0,0,0,0,0,0,0,0,0,0,0,
0,0,0,0,0,0,0,0,0,0,0,0,0,0,0,0,
0,0,0,0,0,0,0,0,0,0,0,0,0,0,0,0,
0,0,0,0,0,0,0,0,0,0,0,0,0,0,0,0,
0,0,0,0,0,0,0,0,0,0,0,0,0,0,0,0,
0,0,0,0,0,0,0,0,0,0,0,0,0,0,0,0,
0,0,0,0,0,0,0,0,0,0,0,0,0,0,0,0
</chunk>
   <chunk x="0" y="0" width="16" height="16">
67,68,69,70,0,883,884,885,886,887,888,0,1099,1100,1101,1102,
88,89,90,91,0,889,890,891,892,893,894,0,0,0,0,0,
109,110,111,112,0,895,896,897,898,899,900,0,0,0,0,0,
130,131,132,133,0,0,0,0,0,0,0,0,0,0,0,0,
0,0,0,0,0,0,0,0,0,0,0,0,0,0,0,0,
0,0,0,0,0,0,0,0,0,0,0,0,0,0,0,0,
0,0,0,0,0,0,0,0,0,0,0,0,0,0,0,0,
0,0,0,0,0,0,0,0,0,0,0,0,0,0,0,0,
0,0,0,0,0,0,0,0,0,0,0,0,0,0,0,0,
0,0,0,0,0,0,0,0,0,0,0,0,0,0,0,0,
0,0,0,0,0,0,0,0,0,0,0,0,0,0,0,0,
0,0,0,0,0,0,0,0,0,0,0,0,0,0,0,0,
0,0,0,0,0,0,0,0,0,0,0,0,0,0,0,0,
0,0,0,0,0,0,0,0,0,0,0,0,0,0,0,0,
0,0,0,0,0,0,0,0,0,0,0,0,0,0,0,0,
0,0,0,0,0,0,0,0,0,0,0,0,0,0,0,0
</chunk>
   <chunk x="16" y="0" width="16" height="16">
1165,1166,0,1355,1356,1358,1359,1360,1361,1362,1435,1436,1437,1438,1543,1544,
1179,1180,0,1363,1364,1366,1367,1368,1369,1370,1439,1440,1441,1442,1547,1548,
1193,1194,0,0,0,0,0,0,0,0,0,0,0,0,0,0,
0,0,0,0,0,0,0,0,0,0,0,0,0,0,0,0,
0,0,0,0,0,0,0,0,0,0,0,0,0,0,0,0,
0,0,0,0,0,0,0,0,0,0,0,0,0,0,0,0,
0,0,0,0,0,0,0,0,0,0,0,0,0,0,0,0,
0,0,0,0,0,0,0,0,0,0,0,0,0,0,0,0,
0,0,0,0,0,0,0,0,0,0,0,0,0,0,0,0,
0,0,0,0,0,0,0,0,0,0,0,0,0,0,0,0,
0,0,0,0,0,0,0,0,0,0,0,0,0,0,0,0,
0,0,0,0,0,0,0,0,0,0,0,0,0,0,0,0,
0,0,0,0,0,0,0,0,0,0,0,0,0,0,0,0,
0,0,0,0,0,0,0,0,0,0,0,0,0,0,0,0,
0,0,0,0,0,0,0,0,0,0,0,0,0,0,0,0,
0,0,0,0,0,0,0,0,0,0,0,0,0,0,0,0
</chunk>
   <chunk x="32" y="0" width="16" height="16">
0,2338,2339,2340,0,0,0,0,0,0,0,0,0,0,0,0,
0,0,0,0,0,0,0,0,0,0,0,0,0,0,0,0,
0,0,0,0,0,0,0,0,0,0,0,0,0,0,0,0,
0,0,0,0,0,0,0,0,0,0,0,0,0,0,0,0,
0,0,0,0,0,0,0,0,0,0,0,0,0,0,0,0,
0,0,0,0,0,0,0,0,0,0,0,0,0,0,0,0,
0,0,0,0,0,0,0,0,0,0,0,0,0,0,0,0,
0,0,0,0,0,0,0,0,0,0,0,0,0,0,0,0,
0,0,0,0,0,0,0,0,0,0,0,0,0,0,0,0,
0,0,0,0,0,0,0,0,0,0,0,0,0,0,0,0,
0,0,0,0,0,0,0,0,0,0,0,0,0,0,0,0,
0,0,0,0,0,0,0,0,0,0,0,0,0,0,0,0,
0,0,0,0,0,0,0,0,0,0,0,0,0,0,0,0,
0,0,0,0,0,0,0,0,0,0,0,0,0,0,0,0,
0,0,0,0,0,0,0,0,0,0,0,0,0,0,0,0,
0,0,0,0,0,0,0,0,0,0,0,0,0,0,0,0
</chunk>
  </data>
 </layer>
 <layer id="4" name="Shadow" width="16" height="24">
  <data encoding="csv">
   <chunk x="-16" y="-16" width="16" height="16">
0,0,0,0,0,0,0,0,0,0,0,0,0,0,0,0,
0,0,0,0,0,0,0,0,0,0,0,0,0,0,0,0,
0,0,0,0,0,0,0,0,0,0,0,0,0,0,0,0,
0,0,0,0,0,0,0,0,0,0,0,0,0,0,0,0,
0,0,0,0,0,0,0,0,0,0,0,0,0,0,0,0,
0,0,0,0,0,0,0,0,0,0,0,0,0,0,0,0,
0,0,0,0,0,0,0,0,0,0,0,0,0,0,0,0,
0,0,0,0,0,0,0,0,0,0,0,0,0,0,0,0,
0,0,0,0,0,0,0,0,0,0,0,0,0,0,0,0,
0,0,0,0,0,0,0,0,0,0,0,0,0,0,0,0,
0,0,0,0,0,0,0,0,0,0,0,0,0,0,0,0,
0,0,0,0,0,0,0,0,0,0,0,0,0,0,0,0,
0,0,0,0,0,0,0,0,0,0,0,0,0,0,0,0,
0,0,0,0,0,0,0,0,0,0,0,0,0,0,0,0,
0,0,0,0,0,0,0,0,0,0,0,0,0,3166,3167,3168,
0,0,0,0,0,0,0,0,0,0,0,0,0,3173,3174,3175
</chunk>
   <chunk x="0" y="-16" width="16" height="16">
0,0,0,0,0,0,0,0,0,0,0,0,0,0,0,0,
0,0,0,0,0,0,0,0,0,0,0,0,0,0,0,0,
0,0,0,0,0,0,0,0,0,0,0,0,0,0,0,0,
0,0,0,0,0,0,0,0,0,0,0,0,0,0,0,0,
0,0,0,0,0,0,0,0,0,0,0,0,0,0,0,0,
0,0,0,0,0,0,0,0,0,0,0,0,0,0,0,0,
0,0,0,0,0,0,0,0,0,0,0,0,0,0,0,0,
0,0,0,0,0,0,0,0,0,0,0,0,0,0,0,0,
0,0,0,0,0,0,0,0,0,0,0,0,0,0,0,0,
0,0,0,0,0,0,0,0,0,0,0,0,0,0,0,0,
0,0,0,0,0,0,0,0,0,0,0,0,0,0,0,0,
0,0,0,0,0,0,0,0,0,0,0,0,0,0,0,0,
0,0,0,0,0,0,0,0,0,0,0,0,0,0,0,0,
0,0,0,0,0,0,0,0,0,0,0,0,0,0,0,0,
3169,3170,3171,3172,0,877,0,0,0,0,878,879,1569,1570,1565,1566,
3176,3177,3178,3179,0,880,0,0,881,882,0,0,0,0,1567,1568
</chunk>
   <chunk x="16" y="-16" width="16" height="16">
0,0,0,0,0,0,0,0,0,0,0,0,0,0,0,0,
0,0,0,0,0,0,0,0,0,0,0,0,0,0,0,0,
0,0,0,0,0,0,0,0,0,0,0,0,0,0,0,0,
0,0,0,0,0,0,0,0,0,0,0,0,0,0,0,0,
0,0,0,0,0,0,0,0,0,0,0,0,0,0,0,0,
0,0,0,0,0,0,0,0,0,0,0,0,0,0,0,0,
0,0,0,0,0,0,0,0,0,0,0,0,0,0,0,0,
0,0,0,0,0,0,0,0,0,0,0,0,0,0,0,0,
0,0,0,0,0,0,0,0,0,0,0,0,0,0,0,0,
0,0,0,0,0,0,0,0,0,0,0,0,0,0,0,0,
0,0,0,0,0,0,0,0,0,0,0,0,0,0,0,0,
0,0,0,0,0,0,0,0,0,0,0,0,0,0,0,0,
0,0,0,0,0,0,0,0,0,0,0,0,0,0,0,0,
0,0,0,0,0,0,0,1584,1585,1586,1561,1562,0,0,1606,1607,
0,0,1579,1580,1581,1582,1583,1587,1588,1589,1563,1564,0,0,1608,1609,
1573,1574,0,0,0,0,0,0,0,0,0,0,0,0,1610,1611
</chunk>
   <chunk x="32" y="-16" width="16" height="16">
0,0,0,0,0,0,0,0,0,0,0,0,0,0,0,0,
0,0,0,0,0,0,0,0,0,0,0,0,0,0,0,0,
0,0,0,0,0,0,0,0,0,0,0,0,0,0,0,0,
0,0,0,0,0,0,0,0,0,0,0,0,0,0,0,0,
0,0,0,0,0,0,0,0,0,0,0,0,0,0,0,0,
0,0,0,0,0,0,0,0,0,0,0,0,0,0,0,0,
0,0,0,0,0,0,0,0,0,0,0,0,0,0,0,0,
0,0,0,0,0,0,0,0,0,0,0,0,0,0,0,0,
0,0,0,0,0,0,0,0,0,0,0,0,0,0,0,0,
0,0,0,0,0,0,0,0,0,0,0,0,0,0,0,0,
0,0,0,0,0,0,0,0,0,0,0,0,0,0,0,0,
0,0,0,0,0,0,0,0,0,0,0,0,0,0,0,0,
0,0,0,0,0,0,0,0,0,0,0,0,0,0,0,0,
0,0,0,0,0,0,0,0,0,0,0,0,0,0,0,0,
0,2572,2573,2574,0,0,0,0,0,0,0,0,0,0,0,0,
0,0,0,0,0,0,0,0,0,0,0,0,0,0,0,0
</chunk>
   <chunk x="-16" y="0" width="16" height="16">
0,0,0,0,0,0,0,0,0,0,0,0,0,3180,3181,3182,
0,0,0,0,0,0,0,0,0,0,0,0,0,0,0,0,
0,0,0,0,0,0,0,0,0,0,0,0,0,3187,3188,3189,
0,0,0,0,0,0,0,0,0,0,0,0,0,3194,3195,3196,
0,0,0,0,0,0,0,0,0,0,0,0,0,0,0,0,
0,0,0,0,0,0,0,0,0,0,0,0,0,0,0,0,
0,0,0,0,0,0,0,0,0,0,0,0,0,0,0,0,
0,0,0,0,0,0,0,0,0,0,0,0,0,0,0,0,
0,0,0,0,0,0,0,0,0,0,0,0,0,0,0,0,
0,0,0,0,0,0,0,0,0,0,0,0,0,0,0,0,
0,0,0,0,0,0,0,0,0,0,0,0,0,0,0,0,
0,0,0,0,0,0,0,0,0,0,0,0,0,0,0,0,
0,0,0,0,0,0,0,0,0,0,0,0,0,0,0,0,
0,0,0,0,0,0,0,0,0,0,0,0,0,0,0,0,
0,0,0,0,0,0,0,0,0,0,0,0,0,0,0,0,
0,0,0,0,0,0,0,0,0,0,0,0,0,0,0,0
</chunk>
   <chunk x="0" y="0" width="16" height="16">
3183,0,0,0,0,0,0,0,0,0,0,0,1571,1572,0,0,
0,0,0,0,0,1551,1552,1555,1556,1559,1560,0,0,0,0,0,
3190,3191,3192,3193,0,1553,1554,1557,1558,0,0,0,0,0,0,0,
3197,3198,3199,3200,0,0,0,0,0,0,0,0,0,0,0,0,
0,0,0,0,0,0,0,0,0,0,0,0,0,0,0,0,
0,0,0,0,0,0,0,0,0,0,0,0,0,0,0,0,
0,0,0,0,0,0,0,0,0,0,0,0,0,0,0,0,
0,0,0,0,0,0,0,0,0,0,0,0,0,0,0,0,
0,0,0,0,0,0,0,0,0,0,0,0,0,0,0,0,
0,0,0,0,0,0,0,0,0,0,0,0,0,0,0,0,
0,0,0,0,0,0,0,0,0,0,0,0,0,0,0,0,
0,0,0,0,0,0,0,0,0,0,0,0,0,0,0,0,
0,0,0,0,0,0,0,0,0,0,0,0,0,0,0,0,
0,0,0,0,0,0,0,0,0,0,0,0,0,0,0,0,
0,0,0,0,0,0,0,0,0,0,0,0,0,0,0,0,
0,0,0,0,0,0,0,0,0,0,0,0,0,0,0,0
</chunk>
   <chunk x="16" y="0" width="16" height="16">
0,0,0,1590,1591,0,0,0,0,0,0,0,0,0,1612,1613,
0,1576,0,1596,1597,1593,1594,1595,1599,1600,1602,1603,1604,1605,1614,1615,
0,1578,0,0,0,0,0,0,0,0,0,0,0,0,0,0,
0,0,0,0,0,0,0,0,0,0,0,0,0,0,0,0,
0,0,0,0,0,0,0,0,0,0,0,0,0,0,0,0,
0,0,0,0,0,0,0,0,0,0,0,0,0,0,0,0,
0,0,0,0,0,0,0,0,0,0,0,0,0,0,0,0,
0,0,0,0,0,0,0,0,0,0,0,0,0,0,0,0,
0,0,0,0,0,0,0,0,0,0,0,0,0,0,0,0,
0,0,0,0,0,0,0,0,0,0,0,0,0,0,0,0,
0,0,0,0,0,0,0,0,0,0,0,0,0,0,0,0,
0,0,0,0,0,0,0,0,0,0,0,0,0,0,0,0,
0,0,0,0,0,0,0,0,0,0,0,0,0,0,0,0,
0,0,0,0,0,0,0,0,0,0,0,0,0,0,0,0,
0,0,0,0,0,0,0,0,0,0,0,0,0,0,0,0,
0,0,0,0,0,0,0,0,0,0,0,0,0,0,0,0
</chunk>
   <chunk x="32" y="0" width="16" height="16">
0,2575,2576,2577,0,0,0,0,0,0,0,0,0,0,0,0,
0,0,0,0,0,0,0,0,0,0,0,0,0,0,0,0,
0,0,0,0,0,0,0,0,0,0,0,0,0,0,0,0,
0,0,0,0,0,0,0,0,0,0,0,0,0,0,0,0,
0,0,0,0,0,0,0,0,0,0,0,0,0,0,0,0,
0,0,0,0,0,0,0,0,0,0,0,0,0,0,0,0,
0,0,0,0,0,0,0,0,0,0,0,0,0,0,0,0,
0,0,0,0,0,0,0,0,0,0,0,0,0,0,0,0,
0,0,0,0,0,0,0,0,0,0,0,0,0,0,0,0,
0,0,0,0,0,0,0,0,0,0,0,0,0,0,0,0,
0,0,0,0,0,0,0,0,0,0,0,0,0,0,0,0,
0,0,0,0,0,0,0,0,0,0,0,0,0,0,0,0,
0,0,0,0,0,0,0,0,0,0,0,0,0,0,0,0,
0,0,0,0,0,0,0,0,0,0,0,0,0,0,0,0,
0,0,0,0,0,0,0,0,0,0,0,0,0,0,0,0,
0,0,0,0,0,0,0,0,0,0,0,0,0,0,0,0
</chunk>
  </data>
 </layer>
 <layer id="2" name="Characters" width="16" height="24">
  <data encoding="csv">
   <chunk x="-16" y="-16" width="16" height="16">
0,0,0,0,0,0,0,0,0,0,0,0,0,0,0,0,
0,0,0,0,0,0,0,0,0,0,0,0,0,0,0,0,
0,0,0,0,0,0,0,0,0,0,0,0,0,0,0,0,
0,0,0,0,0,0,0,0,0,0,0,0,0,0,0,0,
0,0,0,0,0,0,0,0,0,0,0,0,0,0,0,0,
0,0,0,0,0,0,0,0,0,0,0,0,0,0,0,0,
0,0,0,0,0,0,0,0,0,0,0,0,0,0,0,0,
0,0,0,0,0,0,0,0,0,0,0,0,0,0,0,0,
0,0,0,0,0,0,0,0,0,0,0,0,0,0,0,0,
0,0,0,0,0,0,0,0,0,0,0,0,0,0,0,0,
0,0,0,0,0,0,0,0,0,0,0,0,0,0,0,0,
0,0,0,0,0,0,0,0,0,0,0,0,0,0,0,0,
0,0,0,0,0,0,0,0,0,0,0,0,0,0,0,0,
0,0,0,0,0,0,0,0,0,0,0,0,0,2578,2579,2580,
0,0,0,0,0,0,0,0,0,0,0,0,0,2599,2600,2601,
0,0,0,0,0,0,0,0,0,0,0,0,0,2620,2621,2622
</chunk>
   <chunk x="0" y="-16" width="16" height="16">
0,0,0,0,0,0,0,0,0,0,0,0,0,0,0,0,
0,0,0,0,0,0,0,0,0,0,0,0,0,0,0,0,
0,0,0,0,0,0,0,0,0,0,0,0,0,0,0,0,
0,0,0,0,0,0,0,0,0,0,0,0,0,0,0,0,
0,0,0,0,0,0,0,0,0,0,0,0,0,0,0,0,
0,0,0,0,0,0,0,0,0,0,0,0,0,0,0,0,
0,0,0,0,0,0,0,0,0,0,0,0,0,0,0,0,
0,0,0,0,0,0,0,0,0,0,0,0,0,0,0,0,
0,0,0,0,0,0,0,0,0,0,0,0,0,0,0,0,
0,0,0,0,0,0,0,0,0,0,0,0,0,0,0,0,
0,0,0,0,0,0,0,0,0,0,0,0,0,0,0,0,
0,0,0,0,0,0,0,0,0,0,0,0,0,0,0,0,
0,0,0,0,0,0,0,0,0,0,0,0,0,0,0,0,
2581,2582,2583,2584,589,590,591,592,593,594,595,596,1888,1889,1890,1891,
2602,2603,2604,2605,597,598,599,600,601,602,603,604,1912,1913,1914,1915,
2623,2624,2625,2626,605,606,607,608,609,610,611,612,1936,1937,1938,1939
</chunk>
   <chunk x="16" y="-16" width="16" height="16">
0,0,0,0,0,0,0,0,0,0,0,0,0,0,0,0,
0,0,0,0,0,0,0,0,0,0,0,0,0,0,0,0,
0,0,0,0,0,0,0,0,0,0,0,0,0,0,0,0,
0,0,0,0,0,0,0,0,0,0,0,0,0,0,0,0,
0,0,0,0,0,0,0,0,0,0,0,0,0,0,0,0,
0,0,0,0,0,0,0,0,0,0,0,0,0,0,0,0,
0,0,0,0,0,0,0,0,0,0,0,0,0,0,0,0,
0,0,0,0,0,0,0,0,0,0,0,0,0,0,0,0,
0,0,0,0,0,0,0,0,0,0,0,0,0,0,0,0,
0,0,0,0,0,0,0,0,0,0,0,0,0,0,0,0,
0,0,0,0,0,0,0,0,0,0,0,0,0,0,0,0,
0,0,0,0,0,0,0,0,0,0,0,0,0,0,0,0,
0,0,0,0,0,0,0,0,0,0,0,0,0,0,0,0,
1776,1777,1860,1861,2164,2165,2166,2167,2168,0,2148,2149,0,0,1984,1985,
1790,1791,1874,1875,2169,2170,2171,2172,2173,0,2150,2151,0,0,1988,1989,
1804,1805,0,0,0,0,0,0,0,0,0,0,0,0,1992,1993
</chunk>
   <chunk x="32" y="-16" width="16" height="16">
0,0,0,0,0,0,0,0,0,0,0,0,0,0,0,0,
0,0,0,0,0,0,0,0,0,0,0,0,0,0,0,0,
0,0,0,0,0,0,0,0,0,0,0,0,0,0,0,0,
0,0,0,0,0,0,0,0,0,0,0,0,0,0,0,0,
0,0,0,0,0,0,0,0,0,0,0,0,0,0,0,0,
0,0,0,0,0,0,0,0,0,0,0,0,0,0,0,0,
0,0,0,0,0,0,0,0,0,0,0,0,0,0,0,0,
0,0,0,0,0,0,0,0,0,0,0,0,0,0,0,0,
0,0,0,0,0,0,0,0,0,0,0,0,0,0,0,0,
0,0,0,0,0,0,0,0,0,0,0,0,0,0,0,0,
0,0,0,0,0,0,0,0,0,0,0,0,0,0,0,0,
0,0,0,0,0,0,0,0,0,0,0,0,0,0,0,0,
0,0,0,0,0,0,0,0,0,0,0,0,0,0,0,0,
0,2428,2429,2430,0,0,0,0,0,0,0,0,0,0,0,0,
0,2446,2447,2448,0,0,0,0,0,0,0,0,0,0,0,0,
0,2464,2465,2466,0,0,0,0,0,0,0,0,0,0,0,0
</chunk>
   <chunk x="-16" y="0" width="16" height="16">
0,0,0,0,0,0,0,0,0,0,0,0,0,2641,2642,2643,
0,0,0,0,0,0,0,0,0,0,0,0,0,2662,2663,2664,
0,0,0,0,0,0,0,0,0,0,0,0,0,2683,2684,2685,
0,0,0,0,0,0,0,0,0,0,0,0,0,2704,2705,2706,
0,0,0,0,0,0,0,0,0,0,0,0,0,0,0,0,
0,0,0,0,0,0,0,0,0,0,0,0,0,0,0,0,
0,0,0,0,0,0,0,0,0,0,0,0,0,0,0,0,
0,0,0,0,0,0,0,0,0,0,0,0,0,0,0,0,
0,0,0,0,0,0,0,0,0,0,0,0,0,0,0,0,
0,0,0,0,0,0,0,0,0,0,0,0,0,0,0,0,
0,0,0,0,0,0,0,0,0,0,0,0,0,0,0,0,
0,0,0,0,0,0,0,0,0,0,0,0,0,0,0,0,
0,0,0,0,0,0,0,0,0,0,0,0,0,0,0,0,
0,0,0,0,0,0,0,0,0,0,0,0,0,0,0,0,
0,0,0,0,0,0,0,0,0,0,0,0,0,0,0,0,
0,0,0,0,0,0,0,0,0,0,0,0,0,0,0,0
</chunk>
   <chunk x="0" y="0" width="16" height="16">
2644,2645,2646,2647,0,2004,2005,2006,2007,2008,2009,0,1960,1961,1962,1963,
2665,2666,2667,2668,0,2010,2011,2012,2013,2014,2015,0,0,0,0,0,
2686,2687,2688,2689,0,2016,2017,2018,2019,2020,2021,0,0,0,0,0,
2707,2708,2709,2710,0,0,0,0,0,0,0,0,0,0,0,0,
0,0,0,0,0,0,0,0,0,0,0,0,0,0,0,0,
0,0,0,0,0,0,0,0,0,0,0,0,0,0,0,0,
0,0,0,0,0,0,0,0,0,0,0,0,0,0,0,0,
0,0,0,0,0,0,0,0,0,0,0,0,0,0,0,0,
0,0,0,0,0,0,0,0,0,0,0,0,0,0,0,0,
0,0,0,0,0,0,0,0,0,0,0,0,0,0,0,0,
0,0,0,0,0,0,0,0,0,0,0,0,0,0,0,0,
0,0,0,0,0,0,0,0,0,0,0,0,0,0,0,0,
0,0,0,0,0,0,0,0,0,0,0,0,0,0,0,0,
0,0,0,0,0,0,0,0,0,0,0,0,0,0,0,0,
0,0,0,0,0,0,0,0,0,0,0,0,0,0,0,0,
0,0,0,0,0,0,0,0,0,0,0,0,0,0,0,0
</chunk>
   <chunk x="16" y="0" width="16" height="16">
1818,1819,0,1712,1713,1715,1716,1717,1718,1719,1616,1617,1618,1619,1996,1997,
1832,1833,0,1720,1721,1723,1724,1725,1726,1727,1620,1621,1622,1623,2000,2001,
1846,1847,0,0,0,0,0,0,0,0,0,0,0,0,0,0,
0,0,0,0,0,0,0,0,0,0,0,0,0,0,0,0,
0,0,0,0,0,0,0,0,0,0,0,0,0,0,0,0,
0,0,0,0,0,0,0,0,0,0,0,0,0,0,0,0,
0,0,0,0,0,0,0,0,0,0,0,0,0,0,0,0,
0,0,0,0,0,0,0,0,0,0,0,0,0,0,0,0,
0,0,0,0,0,0,0,0,0,0,0,0,0,0,0,0,
0,0,0,0,0,0,0,0,0,0,0,0,0,0,0,0,
0,0,0,0,0,0,0,0,0,0,0,0,0,0,0,0,
0,0,0,0,0,0,0,0,0,0,0,0,0,0,0,0,
0,0,0,0,0,0,0,0,0,0,0,0,0,0,0,0,
0,0,0,0,0,0,0,0,0,0,0,0,0,0,0,0,
0,0,0,0,0,0,0,0,0,0,0,0,0,0,0,0,
0,0,0,0,0,0,0,0,0,0,0,0,0,0,0,0
</chunk>
   <chunk x="32" y="0" width="16" height="16">
0,2482,2483,2484,0,0,0,0,0,0,0,0,0,0,0,0,
0,0,0,0,0,0,0,0,0,0,0,0,0,0,0,0,
0,0,0,0,0,0,0,0,0,0,0,0,0,0,0,0,
0,0,0,0,0,0,0,0,0,0,0,0,0,0,0,0,
0,0,0,0,0,0,0,0,0,0,0,0,0,0,0,0,
0,0,0,0,0,0,0,0,0,0,0,0,0,0,0,0,
0,0,0,0,0,0,0,0,0,0,0,0,0,0,0,0,
0,0,0,0,0,0,0,0,0,0,0,0,0,0,0,0,
0,0,0,0,0,0,0,0,0,0,0,0,0,0,0,0,
0,0,0,0,0,0,0,0,0,0,0,0,0,0,0,0,
0,0,0,0,0,0,0,0,0,0,0,0,0,0,0,0,
0,0,0,0,0,0,0,0,0,0,0,0,0,0,0,0,
0,0,0,0,0,0,0,0,0,0,0,0,0,0,0,0,
0,0,0,0,0,0,0,0,0,0,0,0,0,0,0,0,
0,0,0,0,0,0,0,0,0,0,0,0,0,0,0,0,
0,0,0,0,0,0,0,0,0,0,0,0,0,0,0,0
</chunk>
  </data>
 </layer>
</map>
