<?xml version="1.0" encoding="UTF-8"?>
<map version="1.10" tiledversion="1.10.2" orientation="orthogonal" renderorder="right-down" width="16" height="24" tilewidth="16" tileheight="16" infinite="1" nextlayerid="9" nextobjectid="1">
 <tileset firstgid="1" name="Interior_walls_floor" tilewidth="16" tileheight="16" tilecount="180" columns="10">
  <image source="Interior_walls_floor.png" width="160" height="288"/>
 </tileset>
 <tileset firstgid="181" name="house_windows" tilewidth="16" tileheight="16" tilecount="88" columns="11">
  <image source="house_windows.png" width="176" height="128"/>
  <tile id="0">
   <animation>
    <frame tileid="0" duration="150"/>
    <frame tileid="0" duration="150"/>
    <frame tileid="0" duration="150"/>
    <frame tileid="0" duration="150"/>
    <frame tileid="22" duration="150"/>
    <frame tileid="44" duration="150"/>
    <frame tileid="66" duration="150"/>
    <frame tileid="66" duration="150"/>
    <frame tileid="66" duration="150"/>
    <frame tileid="66" duration="150"/>
    <frame tileid="44" duration="150"/>
    <frame tileid="22" duration="150"/>
   </animation>
  </tile>
  <tile id="1">
   <animation>
    <frame tileid="1" duration="150"/>
    <frame tileid="1" duration="150"/>
    <frame tileid="1" duration="150"/>
    <frame tileid="1" duration="150"/>
    <frame tileid="23" duration="150"/>
    <frame tileid="45" duration="150"/>
    <frame tileid="67" duration="150"/>
    <frame tileid="67" duration="150"/>
    <frame tileid="67" duration="150"/>
    <frame tileid="67" duration="150"/>
    <frame tileid="45" duration="150"/>
    <frame tileid="23" duration="150"/>
   </animation>
  </tile>
  <tile id="2">
   <animation>
    <frame tileid="2" duration="150"/>
    <frame tileid="2" duration="150"/>
    <frame tileid="2" duration="150"/>
    <frame tileid="2" duration="150"/>
    <frame tileid="24" duration="150"/>
    <frame tileid="46" duration="150"/>
    <frame tileid="68" duration="150"/>
    <frame tileid="68" duration="150"/>
    <frame tileid="68" duration="150"/>
    <frame tileid="68" duration="150"/>
    <frame tileid="46" duration="150"/>
    <frame tileid="24" duration="150"/>
   </animation>
  </tile>
  <tile id="3">
   <animation>
    <frame tileid="3" duration="150"/>
    <frame tileid="3" duration="150"/>
    <frame tileid="3" duration="150"/>
    <frame tileid="3" duration="150"/>
    <frame tileid="25" duration="150"/>
    <frame tileid="47" duration="150"/>
    <frame tileid="69" duration="150"/>
    <frame tileid="69" duration="150"/>
    <frame tileid="69" duration="150"/>
    <frame tileid="69" duration="150"/>
    <frame tileid="47" duration="150"/>
    <frame tileid="25" duration="150"/>
   </animation>
  </tile>
  <tile id="4">
   <animation>
    <frame tileid="4" duration="150"/>
    <frame tileid="4" duration="150"/>
    <frame tileid="4" duration="150"/>
    <frame tileid="4" duration="150"/>
    <frame tileid="26" duration="150"/>
    <frame tileid="48" duration="150"/>
    <frame tileid="70" duration="150"/>
    <frame tileid="70" duration="150"/>
    <frame tileid="70" duration="150"/>
    <frame tileid="70" duration="150"/>
    <frame tileid="48" duration="150"/>
    <frame tileid="26" duration="150"/>
   </animation>
  </tile>
  <tile id="5">
   <animation>
    <frame tileid="5" duration="150"/>
    <frame tileid="5" duration="150"/>
    <frame tileid="5" duration="150"/>
    <frame tileid="5" duration="150"/>
    <frame tileid="27" duration="150"/>
    <frame tileid="49" duration="150"/>
    <frame tileid="71" duration="150"/>
    <frame tileid="71" duration="150"/>
    <frame tileid="71" duration="150"/>
    <frame tileid="71" duration="150"/>
    <frame tileid="49" duration="150"/>
    <frame tileid="27" duration="150"/>
   </animation>
  </tile>
  <tile id="6">
   <animation>
    <frame tileid="6" duration="150"/>
    <frame tileid="6" duration="150"/>
    <frame tileid="6" duration="150"/>
    <frame tileid="6" duration="150"/>
    <frame tileid="28" duration="150"/>
    <frame tileid="50" duration="150"/>
    <frame tileid="72" duration="150"/>
    <frame tileid="72" duration="150"/>
    <frame tileid="72" duration="150"/>
    <frame tileid="72" duration="150"/>
    <frame tileid="50" duration="150"/>
    <frame tileid="28" duration="150"/>
   </animation>
  </tile>
  <tile id="7">
   <animation>
    <frame tileid="7" duration="150"/>
    <frame tileid="7" duration="150"/>
    <frame tileid="7" duration="150"/>
    <frame tileid="7" duration="150"/>
    <frame tileid="29" duration="150"/>
    <frame tileid="51" duration="150"/>
    <frame tileid="73" duration="150"/>
    <frame tileid="73" duration="150"/>
    <frame tileid="73" duration="150"/>
    <frame tileid="73" duration="150"/>
    <frame tileid="51" duration="150"/>
    <frame tileid="29" duration="150"/>
   </animation>
  </tile>
  <tile id="8">
   <animation>
    <frame tileid="8" duration="150"/>
    <frame tileid="8" duration="150"/>
    <frame tileid="8" duration="150"/>
    <frame tileid="8" duration="150"/>
    <frame tileid="30" duration="150"/>
    <frame tileid="52" duration="150"/>
    <frame tileid="74" duration="150"/>
    <frame tileid="74" duration="150"/>
    <frame tileid="74" duration="150"/>
    <frame tileid="74" duration="150"/>
    <frame tileid="52" duration="150"/>
    <frame tileid="30" duration="150"/>
   </animation>
  </tile>
  <tile id="9">
   <animation>
    <frame tileid="9" duration="150"/>
    <frame tileid="9" duration="150"/>
    <frame tileid="9" duration="150"/>
    <frame tileid="9" duration="150"/>
    <frame tileid="31" duration="150"/>
    <frame tileid="53" duration="150"/>
    <frame tileid="75" duration="150"/>
    <frame tileid="75" duration="150"/>
    <frame tileid="75" duration="150"/>
    <frame tileid="75" duration="150"/>
    <frame tileid="53" duration="150"/>
    <frame tileid="31" duration="150"/>
   </animation>
  </tile>
  <tile id="10">
   <animation>
    <frame tileid="10" duration="150"/>
    <frame tileid="10" duration="150"/>
    <frame tileid="10" duration="150"/>
    <frame tileid="10" duration="150"/>
    <frame tileid="32" duration="150"/>
    <frame tileid="54" duration="150"/>
    <frame tileid="76" duration="150"/>
    <frame tileid="76" duration="150"/>
    <frame tileid="76" duration="150"/>
    <frame tileid="76" duration="150"/>
    <frame tileid="54" duration="150"/>
    <frame tileid="32" duration="150"/>
   </animation>
  </tile>
  <tile id="11">
   <animation>
    <frame tileid="11" duration="150"/>
    <frame tileid="11" duration="150"/>
    <frame tileid="11" duration="150"/>
    <frame tileid="11" duration="150"/>
    <frame tileid="33" duration="150"/>
    <frame tileid="55" duration="150"/>
    <frame tileid="77" duration="150"/>
    <frame tileid="77" duration="150"/>
    <frame tileid="77" duration="150"/>
    <frame tileid="77" duration="150"/>
    <frame tileid="55" duration="150"/>
    <frame tileid="33" duration="150"/>
   </animation>
  </tile>
  <tile id="12">
   <animation>
    <frame tileid="12" duration="150"/>
    <frame tileid="12" duration="150"/>
    <frame tileid="12" duration="150"/>
    <frame tileid="12" duration="150"/>
    <frame tileid="34" duration="150"/>
    <frame tileid="56" duration="150"/>
    <frame tileid="78" duration="150"/>
    <frame tileid="78" duration="150"/>
    <frame tileid="78" duration="150"/>
    <frame tileid="78" duration="150"/>
    <frame tileid="56" duration="150"/>
    <frame tileid="34" duration="150"/>
   </animation>
  </tile>
  <tile id="13">
   <animation>
    <frame tileid="13" duration="150"/>
    <frame tileid="13" duration="150"/>
    <frame tileid="13" duration="150"/>
    <frame tileid="13" duration="150"/>
    <frame tileid="35" duration="150"/>
    <frame tileid="57" duration="150"/>
    <frame tileid="79" duration="150"/>
    <frame tileid="79" duration="150"/>
    <frame tileid="79" duration="150"/>
    <frame tileid="79" duration="150"/>
    <frame tileid="57" duration="150"/>
    <frame tileid="35" duration="150"/>
   </animation>
  </tile>
  <tile id="14">
   <animation>
    <frame tileid="14" duration="150"/>
    <frame tileid="14" duration="150"/>
    <frame tileid="14" duration="150"/>
    <frame tileid="14" duration="150"/>
    <frame tileid="36" duration="150"/>
    <frame tileid="58" duration="150"/>
    <frame tileid="80" duration="150"/>
    <frame tileid="80" duration="150"/>
    <frame tileid="80" duration="150"/>
    <frame tileid="80" duration="150"/>
    <frame tileid="58" duration="150"/>
    <frame tileid="36" duration="150"/>
   </animation>
  </tile>
  <tile id="15">
   <animation>
    <frame tileid="15" duration="150"/>
    <frame tileid="15" duration="150"/>
    <frame tileid="15" duration="150"/>
    <frame tileid="15" duration="150"/>
    <frame tileid="37" duration="150"/>
    <frame tileid="59" duration="150"/>
    <frame tileid="81" duration="150"/>
    <frame tileid="81" duration="150"/>
    <frame tileid="81" duration="150"/>
    <frame tileid="81" duration="150"/>
    <frame tileid="59" duration="150"/>
    <frame tileid="37" duration="150"/>
   </animation>
  </tile>
  <tile id="16">
   <animation>
    <frame tileid="16" duration="150"/>
    <frame tileid="16" duration="150"/>
    <frame tileid="16" duration="150"/>
    <frame tileid="16" duration="150"/>
    <frame tileid="38" duration="150"/>
    <frame tileid="60" duration="150"/>
    <frame tileid="82" duration="150"/>
    <frame tileid="82" duration="150"/>
    <frame tileid="82" duration="150"/>
    <frame tileid="82" duration="150"/>
    <frame tileid="60" duration="150"/>
    <frame tileid="38" duration="150"/>
   </animation>
  </tile>
  <tile id="17">
   <animation>
    <frame tileid="17" duration="150"/>
    <frame tileid="17" duration="150"/>
    <frame tileid="17" duration="150"/>
    <frame tileid="17" duration="150"/>
    <frame tileid="39" duration="150"/>
    <frame tileid="61" duration="150"/>
    <frame tileid="83" duration="150"/>
    <frame tileid="83" duration="150"/>
    <frame tileid="83" duration="150"/>
    <frame tileid="83" duration="150"/>
    <frame tileid="61" duration="150"/>
    <frame tileid="39" duration="150"/>
   </animation>
  </tile>
  <tile id="18">
   <animation>
    <frame tileid="18" duration="150"/>
    <frame tileid="18" duration="150"/>
    <frame tileid="18" duration="150"/>
    <frame tileid="18" duration="150"/>
    <frame tileid="40" duration="150"/>
    <frame tileid="62" duration="150"/>
    <frame tileid="84" duration="150"/>
    <frame tileid="84" duration="150"/>
    <frame tileid="84" duration="150"/>
    <frame tileid="84" duration="150"/>
    <frame tileid="62" duration="150"/>
    <frame tileid="40" duration="150"/>
   </animation>
  </tile>
  <tile id="19">
   <animation>
    <frame tileid="19" duration="150"/>
    <frame tileid="19" duration="150"/>
    <frame tileid="19" duration="150"/>
    <frame tileid="19" duration="150"/>
    <frame tileid="41" duration="150"/>
    <frame tileid="63" duration="150"/>
    <frame tileid="85" duration="150"/>
    <frame tileid="85" duration="150"/>
    <frame tileid="85" duration="150"/>
    <frame tileid="85" duration="150"/>
    <frame tileid="63" duration="150"/>
    <frame tileid="41" duration="150"/>
   </animation>
  </tile>
  <tile id="20">
   <animation>
    <frame tileid="20" duration="150"/>
    <frame tileid="20" duration="150"/>
    <frame tileid="20" duration="150"/>
    <frame tileid="20" duration="150"/>
    <frame tileid="42" duration="150"/>
    <frame tileid="64" duration="150"/>
    <frame tileid="86" duration="150"/>
    <frame tileid="86" duration="150"/>
    <frame tileid="86" duration="150"/>
    <frame tileid="86" duration="150"/>
    <frame tileid="64" duration="150"/>
    <frame tileid="42" duration="150"/>
   </animation>
  </tile>
  <tile id="21">
   <animation>
    <frame tileid="21" duration="150"/>
    <frame tileid="21" duration="150"/>
    <frame tileid="21" duration="150"/>
    <frame tileid="21" duration="150"/>
    <frame tileid="43" duration="150"/>
    <frame tileid="65" duration="150"/>
    <frame tileid="87" duration="150"/>
    <frame tileid="87" duration="150"/>
    <frame tileid="87" duration="150"/>
    <frame tileid="87" duration="150"/>
    <frame tileid="65" duration="150"/>
    <frame tileid="43" duration="150"/>
   </animation>
  </tile>
 </tileset>
 <tileset firstgid="269" name="Doors" tilewidth="16" tileheight="16" tilecount="96" columns="12">
  <image source="Doors.png" width="192" height="128"/>
  <tile id="0">
   <animation>
    <frame tileid="0" duration="150"/>
    <frame tileid="0" duration="150"/>
    <frame tileid="0" duration="150"/>
    <frame tileid="0" duration="150"/>
    <frame tileid="24" duration="150"/>
    <frame tileid="48" duration="150"/>
    <frame tileid="72" duration="150"/>
    <frame tileid="72" duration="150"/>
    <frame tileid="72" duration="150"/>
    <frame tileid="72" duration="150"/>
    <frame tileid="48" duration="150"/>
    <frame tileid="24" duration="150"/>
   </animation>
  </tile>
  <tile id="1">
   <animation>
    <frame tileid="1" duration="150"/>
    <frame tileid="1" duration="150"/>
    <frame tileid="1" duration="150"/>
    <frame tileid="1" duration="150"/>
    <frame tileid="25" duration="150"/>
    <frame tileid="49" duration="150"/>
    <frame tileid="73" duration="150"/>
    <frame tileid="73" duration="150"/>
    <frame tileid="73" duration="150"/>
    <frame tileid="73" duration="150"/>
    <frame tileid="49" duration="150"/>
    <frame tileid="25" duration="150"/>
   </animation>
  </tile>
  <tile id="2">
   <animation>
    <frame tileid="2" duration="150"/>
    <frame tileid="2" duration="150"/>
    <frame tileid="2" duration="150"/>
    <frame tileid="2" duration="150"/>
    <frame tileid="26" duration="150"/>
    <frame tileid="50" duration="150"/>
    <frame tileid="74" duration="150"/>
    <frame tileid="74" duration="150"/>
    <frame tileid="74" duration="150"/>
    <frame tileid="74" duration="150"/>
    <frame tileid="50" duration="150"/>
    <frame tileid="26" duration="150"/>
   </animation>
  </tile>
  <tile id="3">
   <animation>
    <frame tileid="3" duration="150"/>
    <frame tileid="3" duration="150"/>
    <frame tileid="3" duration="150"/>
    <frame tileid="3" duration="150"/>
    <frame tileid="27" duration="150"/>
    <frame tileid="51" duration="150"/>
    <frame tileid="75" duration="150"/>
    <frame tileid="75" duration="150"/>
    <frame tileid="75" duration="150"/>
    <frame tileid="75" duration="150"/>
    <frame tileid="51" duration="150"/>
    <frame tileid="27" duration="150"/>
   </animation>
  </tile>
  <tile id="4">
   <animation>
    <frame tileid="4" duration="150"/>
    <frame tileid="4" duration="150"/>
    <frame tileid="4" duration="150"/>
    <frame tileid="4" duration="150"/>
    <frame tileid="28" duration="150"/>
    <frame tileid="52" duration="150"/>
    <frame tileid="76" duration="150"/>
    <frame tileid="76" duration="150"/>
    <frame tileid="76" duration="150"/>
    <frame tileid="76" duration="150"/>
    <frame tileid="52" duration="150"/>
    <frame tileid="28" duration="150"/>
   </animation>
  </tile>
  <tile id="5">
   <animation>
    <frame tileid="5" duration="150"/>
    <frame tileid="5" duration="150"/>
    <frame tileid="5" duration="150"/>
    <frame tileid="5" duration="150"/>
    <frame tileid="29" duration="150"/>
    <frame tileid="53" duration="150"/>
    <frame tileid="77" duration="150"/>
    <frame tileid="77" duration="150"/>
    <frame tileid="77" duration="150"/>
    <frame tileid="77" duration="150"/>
    <frame tileid="53" duration="150"/>
    <frame tileid="29" duration="150"/>
   </animation>
  </tile>
  <tile id="6">
   <animation>
    <frame tileid="6" duration="150"/>
    <frame tileid="6" duration="150"/>
    <frame tileid="6" duration="150"/>
    <frame tileid="6" duration="150"/>
    <frame tileid="30" duration="150"/>
    <frame tileid="54" duration="150"/>
    <frame tileid="78" duration="150"/>
    <frame tileid="78" duration="150"/>
    <frame tileid="78" duration="150"/>
    <frame tileid="78" duration="150"/>
    <frame tileid="54" duration="150"/>
    <frame tileid="30" duration="150"/>
   </animation>
  </tile>
  <tile id="7">
   <animation>
    <frame tileid="7" duration="150"/>
    <frame tileid="7" duration="150"/>
    <frame tileid="7" duration="150"/>
    <frame tileid="7" duration="150"/>
    <frame tileid="31" duration="150"/>
    <frame tileid="55" duration="150"/>
    <frame tileid="79" duration="150"/>
    <frame tileid="79" duration="150"/>
    <frame tileid="79" duration="150"/>
    <frame tileid="79" duration="150"/>
    <frame tileid="55" duration="150"/>
    <frame tileid="31" duration="150"/>
   </animation>
  </tile>
  <tile id="8">
   <animation>
    <frame tileid="8" duration="150"/>
    <frame tileid="8" duration="150"/>
    <frame tileid="8" duration="150"/>
    <frame tileid="8" duration="150"/>
    <frame tileid="32" duration="150"/>
    <frame tileid="56" duration="150"/>
    <frame tileid="80" duration="150"/>
    <frame tileid="80" duration="150"/>
    <frame tileid="80" duration="150"/>
    <frame tileid="80" duration="150"/>
    <frame tileid="56" duration="150"/>
    <frame tileid="32" duration="150"/>
   </animation>
  </tile>
  <tile id="9">
   <animation>
    <frame tileid="9" duration="150"/>
    <frame tileid="9" duration="150"/>
    <frame tileid="9" duration="150"/>
    <frame tileid="9" duration="150"/>
    <frame tileid="33" duration="150"/>
    <frame tileid="57" duration="150"/>
    <frame tileid="81" duration="150"/>
    <frame tileid="81" duration="150"/>
    <frame tileid="81" duration="150"/>
    <frame tileid="81" duration="150"/>
    <frame tileid="57" duration="150"/>
    <frame tileid="33" duration="150"/>
   </animation>
  </tile>
  <tile id="10">
   <animation>
    <frame tileid="10" duration="150"/>
    <frame tileid="10" duration="150"/>
    <frame tileid="10" duration="150"/>
    <frame tileid="10" duration="150"/>
    <frame tileid="34" duration="150"/>
    <frame tileid="58" duration="150"/>
    <frame tileid="82" duration="150"/>
    <frame tileid="82" duration="150"/>
    <frame tileid="82" duration="150"/>
    <frame tileid="82" duration="150"/>
    <frame tileid="58" duration="150"/>
    <frame tileid="34" duration="150"/>
   </animation>
  </tile>
  <tile id="11">
   <animation>
    <frame tileid="11" duration="150"/>
    <frame tileid="11" duration="150"/>
    <frame tileid="11" duration="150"/>
    <frame tileid="11" duration="150"/>
    <frame tileid="35" duration="150"/>
    <frame tileid="59" duration="150"/>
    <frame tileid="83" duration="150"/>
    <frame tileid="83" duration="150"/>
    <frame tileid="83" duration="150"/>
    <frame tileid="83" duration="150"/>
    <frame tileid="59" duration="150"/>
    <frame tileid="35" duration="150"/>
   </animation>
  </tile>
  <tile id="12">
   <animation>
    <frame tileid="12" duration="150"/>
    <frame tileid="12" duration="150"/>
    <frame tileid="12" duration="150"/>
    <frame tileid="12" duration="150"/>
    <frame tileid="36" duration="150"/>
    <frame tileid="60" duration="150"/>
    <frame tileid="84" duration="150"/>
    <frame tileid="84" duration="150"/>
    <frame tileid="84" duration="150"/>
    <frame tileid="84" duration="150"/>
    <frame tileid="60" duration="150"/>
    <frame tileid="36" duration="150"/>
   </animation>
  </tile>
  <tile id="13">
   <animation>
    <frame tileid="13" duration="150"/>
    <frame tileid="13" duration="150"/>
    <frame tileid="13" duration="150"/>
    <frame tileid="13" duration="150"/>
    <frame tileid="37" duration="150"/>
    <frame tileid="61" duration="150"/>
    <frame tileid="85" duration="150"/>
    <frame tileid="85" duration="150"/>
    <frame tileid="85" duration="150"/>
    <frame tileid="85" duration="150"/>
    <frame tileid="61" duration="150"/>
    <frame tileid="37" duration="150"/>
   </animation>
  </tile>
  <tile id="14">
   <animation>
    <frame tileid="14" duration="150"/>
    <frame tileid="14" duration="150"/>
    <frame tileid="14" duration="150"/>
    <frame tileid="14" duration="150"/>
    <frame tileid="38" duration="150"/>
    <frame tileid="62" duration="150"/>
    <frame tileid="86" duration="150"/>
    <frame tileid="86" duration="150"/>
    <frame tileid="86" duration="150"/>
    <frame tileid="86" duration="150"/>
    <frame tileid="62" duration="150"/>
    <frame tileid="38" duration="150"/>
   </animation>
  </tile>
  <tile id="15">
   <animation>
    <frame tileid="15" duration="150"/>
    <frame tileid="15" duration="150"/>
    <frame tileid="15" duration="150"/>
    <frame tileid="15" duration="150"/>
    <frame tileid="39" duration="150"/>
    <frame tileid="63" duration="150"/>
    <frame tileid="87" duration="150"/>
    <frame tileid="87" duration="150"/>
    <frame tileid="87" duration="150"/>
    <frame tileid="87" duration="150"/>
    <frame tileid="63" duration="150"/>
    <frame tileid="39" duration="150"/>
   </animation>
  </tile>
  <tile id="16">
   <animation>
    <frame tileid="16" duration="150"/>
    <frame tileid="16" duration="150"/>
    <frame tileid="16" duration="150"/>
    <frame tileid="16" duration="150"/>
    <frame tileid="40" duration="150"/>
    <frame tileid="64" duration="150"/>
    <frame tileid="88" duration="150"/>
    <frame tileid="88" duration="150"/>
    <frame tileid="88" duration="150"/>
    <frame tileid="88" duration="150"/>
    <frame tileid="64" duration="150"/>
    <frame tileid="40" duration="150"/>
   </animation>
  </tile>
  <tile id="17">
   <animation>
    <frame tileid="17" duration="150"/>
    <frame tileid="17" duration="150"/>
    <frame tileid="17" duration="150"/>
    <frame tileid="17" duration="150"/>
    <frame tileid="41" duration="150"/>
    <frame tileid="65" duration="150"/>
    <frame tileid="89" duration="150"/>
    <frame tileid="89" duration="150"/>
    <frame tileid="89" duration="150"/>
    <frame tileid="89" duration="150"/>
    <frame tileid="65" duration="150"/>
    <frame tileid="41" duration="150"/>
   </animation>
  </tile>
  <tile id="18">
   <animation>
    <frame tileid="18" duration="150"/>
    <frame tileid="18" duration="150"/>
    <frame tileid="18" duration="150"/>
    <frame tileid="18" duration="150"/>
    <frame tileid="42" duration="150"/>
    <frame tileid="66" duration="150"/>
    <frame tileid="90" duration="150"/>
    <frame tileid="90" duration="150"/>
    <frame tileid="90" duration="150"/>
    <frame tileid="90" duration="150"/>
    <frame tileid="66" duration="150"/>
    <frame tileid="42" duration="150"/>
   </animation>
  </tile>
  <tile id="19">
   <animation>
    <frame tileid="19" duration="150"/>
    <frame tileid="19" duration="150"/>
    <frame tileid="19" duration="150"/>
    <frame tileid="19" duration="150"/>
    <frame tileid="43" duration="150"/>
    <frame tileid="67" duration="150"/>
    <frame tileid="91" duration="150"/>
    <frame tileid="91" duration="150"/>
    <frame tileid="91" duration="150"/>
    <frame tileid="91" duration="150"/>
    <frame tileid="67" duration="150"/>
    <frame tileid="43" duration="150"/>
   </animation>
  </tile>
  <tile id="20">
   <animation>
    <frame tileid="20" duration="150"/>
    <frame tileid="20" duration="150"/>
    <frame tileid="20" duration="150"/>
    <frame tileid="20" duration="150"/>
    <frame tileid="44" duration="150"/>
    <frame tileid="68" duration="150"/>
    <frame tileid="92" duration="150"/>
    <frame tileid="92" duration="150"/>
    <frame tileid="92" duration="150"/>
    <frame tileid="92" duration="150"/>
    <frame tileid="68" duration="150"/>
    <frame tileid="44" duration="150"/>
   </animation>
  </tile>
  <tile id="21">
   <animation>
    <frame tileid="21" duration="150"/>
    <frame tileid="21" duration="150"/>
    <frame tileid="21" duration="150"/>
    <frame tileid="21" duration="150"/>
    <frame tileid="45" duration="150"/>
    <frame tileid="69" duration="150"/>
    <frame tileid="93" duration="150"/>
    <frame tileid="93" duration="150"/>
    <frame tileid="93" duration="150"/>
    <frame tileid="93" duration="150"/>
    <frame tileid="69" duration="150"/>
    <frame tileid="45" duration="150"/>
   </animation>
  </tile>
  <tile id="22">
   <animation>
    <frame tileid="22" duration="150"/>
    <frame tileid="22" duration="150"/>
    <frame tileid="22" duration="150"/>
    <frame tileid="22" duration="150"/>
    <frame tileid="46" duration="150"/>
    <frame tileid="70" duration="150"/>
    <frame tileid="94" duration="150"/>
    <frame tileid="94" duration="150"/>
    <frame tileid="94" duration="150"/>
    <frame tileid="94" duration="150"/>
    <frame tileid="70" duration="150"/>
    <frame tileid="46" duration="150"/>
   </animation>
  </tile>
  <tile id="23">
   <animation>
    <frame tileid="23" duration="150"/>
    <frame tileid="23" duration="150"/>
    <frame tileid="23" duration="150"/>
    <frame tileid="23" duration="150"/>
    <frame tileid="47" duration="150"/>
    <frame tileid="71" duration="150"/>
    <frame tileid="95" duration="150"/>
    <frame tileid="95" duration="150"/>
    <frame tileid="95" duration="150"/>
    <frame tileid="95" duration="150"/>
    <frame tileid="71" duration="150"/>
    <frame tileid="47" duration="150"/>
   </animation>
  </tile>
 </tileset>
 <tileset firstgid="365" name="House_interior" tilewidth="16" tileheight="16" tilecount="153" columns="17">
  <image source="House_interior.png" width="272" height="144"/>
 </tileset>
 <tileset firstgid="518" name="fire" tilewidth="16" tileheight="16" tilecount="36" columns="12">
  <image source="fire.png" width="192" height="48"/>
  <tile id="0">
   <animation>
    <frame tileid="0" duration="150"/>
    <frame tileid="2" duration="150"/>
    <frame tileid="4" duration="150"/>
    <frame tileid="6" duration="150"/>
    <frame tileid="8" duration="150"/>
    <frame tileid="10" duration="150"/>
   </animation>
  </tile>
  <tile id="1">
   <animation>
    <frame tileid="1" duration="150"/>
    <frame tileid="3" duration="150"/>
    <frame tileid="5" duration="150"/>
    <frame tileid="7" duration="150"/>
    <frame tileid="9" duration="150"/>
    <frame tileid="11" duration="150"/>
   </animation>
  </tile>
  <tile id="12">
   <animation>
    <frame tileid="12" duration="150"/>
    <frame tileid="14" duration="150"/>
    <frame tileid="16" duration="150"/>
    <frame tileid="18" duration="150"/>
    <frame tileid="20" duration="150"/>
    <frame tileid="22" duration="150"/>
   </animation>
  </tile>
  <tile id="13">
   <animation>
    <frame tileid="13" duration="150"/>
    <frame tileid="15" duration="150"/>
    <frame tileid="17" duration="150"/>
    <frame tileid="19" duration="150"/>
    <frame tileid="21" duration="150"/>
    <frame tileid="23" duration="150"/>
   </animation>
  </tile>
  <tile id="24">
   <animation>
    <frame tileid="24" duration="150"/>
    <frame tileid="26" duration="150"/>
    <frame tileid="28" duration="150"/>
    <frame tileid="30" duration="150"/>
    <frame tileid="32" duration="150"/>
    <frame tileid="34" duration="150"/>
   </animation>
  </tile>
  <tile id="25">
   <animation>
    <frame tileid="25" duration="150"/>
    <frame tileid="27" duration="150"/>
    <frame tileid="29" duration="150"/>
    <frame tileid="31" duration="150"/>
    <frame tileid="33" duration="150"/>
    <frame tileid="35" duration="150"/>
   </animation>
  </tile>
 </tileset>
 <layer id="3" name="Floor" width="16" height="24">
  <data encoding="csv">
   <chunk x="-16" y="-16" width="16" height="16">
0,0,0,0,0,0,0,0,0,0,0,0,0,0,0,0,
0,0,0,0,0,0,0,0,0,0,0,0,0,0,0,0,
0,0,0,0,0,0,0,0,0,0,0,0,0,0,0,0,
0,0,0,0,0,0,0,0,0,0,0,0,0,0,0,0,
0,0,0,0,0,0,0,0,0,0,0,0,0,0,0,0,
0,0,0,0,0,0,0,0,0,0,0,0,0,0,0,0,
0,0,0,0,0,0,0,0,0,0,0,0,0,0,0,0,
0,0,0,0,0,0,0,0,0,0,0,0,0,0,0,0,
0,0,0,0,0,0,0,0,0,0,0,0,0,0,0,0,
0,0,0,0,0,0,0,0,0,0,0,0,0,0,0,0,
0,0,0,0,0,0,0,0,0,0,0,0,0,0,0,0,
0,0,0,0,0,0,0,0,0,0,0,0,0,0,0,0,
0,0,0,0,0,0,0,0,0,0,0,47,16,47,47,26,
0,0,0,0,0,0,0,0,0,0,0,36,26,6,16,6,
0,0,0,0,0,0,0,0,0,0,0,6,36,6,46,46,
0,0,0,0,0,0,0,0,0,0,0,45,6,47,16,36
</chunk>
   <chunk x="0" y="-16" width="16" height="16">
0,0,0,0,0,0,0,0,0,0,0,0,0,0,0,0,
0,0,0,0,0,0,0,0,0,0,0,0,0,0,0,0,
0,0,0,0,0,0,0,0,0,0,0,0,0,0,0,0,
0,0,0,0,0,0,0,0,0,0,0,0,0,0,0,0,
0,0,0,0,0,0,0,0,0,0,0,0,0,0,0,0,
0,0,0,0,0,0,0,0,0,0,0,0,0,0,0,0,
0,0,0,0,0,0,0,0,0,0,0,0,0,0,0,0,
0,0,0,0,0,0,0,0,0,0,0,0,0,0,0,0,
0,0,0,0,0,0,0,0,0,0,0,0,0,0,0,0,
0,0,0,0,0,0,0,0,0,0,0,0,0,0,0,0,
0,0,0,0,0,0,0,0,0,0,0,0,0,0,0,0,
0,0,0,0,0,0,0,0,0,0,0,0,0,0,0,0,
47,16,16,46,6,16,6,46,46,16,0,0,0,0,0,0,
47,45,26,6,16,46,26,47,26,0,0,0,0,0,0,0,
47,16,36,46,26,6,45,16,36,0,0,0,0,0,0,0,
6,47,16,26,36,46,16,36,46,0,0,0,0,0,0,0
</chunk>
   <chunk x="-16" y="0" width="16" height="16">
0,0,0,0,0,0,0,0,0,0,0,26,46,26,36,47,
0,0,0,0,0,0,0,0,0,0,0,47,6,16,45,36,
0,0,0,0,0,0,0,0,0,0,0,6,45,47,26,46,
0,0,0,0,0,0,0,0,0,0,0,46,16,26,46,16,
0,0,0,0,0,0,0,0,0,0,0,0,0,0,0,0,
0,0,0,0,0,0,0,0,0,0,0,0,0,0,0,0,
0,0,0,0,0,0,0,0,0,0,0,0,0,0,0,0,
0,0,0,0,0,0,0,0,0,0,0,0,0,0,0,0,
0,0,0,0,0,0,0,0,0,0,0,0,0,0,0,0,
0,0,0,0,0,0,0,0,0,0,0,0,0,0,0,0,
0,0,0,0,0,0,0,0,0,0,0,0,0,0,0,0,
0,0,0,0,0,0,0,0,0,0,0,0,0,0,0,0,
0,0,0,0,0,0,0,0,0,0,0,0,0,0,0,0,
0,0,0,0,0,0,0,0,0,0,0,0,0,0,0,0,
0,0,0,0,0,0,0,0,0,0,0,0,0,0,0,0,
0,0,0,0,0,0,0,0,0,0,0,0,0,0,0,0
</chunk>
   <chunk x="0" y="0" width="16" height="16">
46,45,46,6,46,6,26,45,6,0,0,0,0,0,0,0,
46,6,47,26,36,36,47,16,47,0,0,0,0,0,0,0,
6,36,6,36,45,6,46,36,6,0,0,0,0,0,0,0,
46,6,26,46,16,36,26,6,46,0,0,0,0,0,0,0,
0,0,0,0,0,0,0,0,0,0,0,0,0,0,0,0,
0,0,0,0,0,0,0,0,0,0,0,0,0,0,0,0,
0,0,0,0,0,0,0,0,0,0,0,0,0,0,0,0,
0,0,0,0,0,0,0,0,0,0,0,0,0,0,0,0,
0,0,0,0,0,0,0,0,0,0,0,0,0,0,0,0,
0,0,0,0,0,0,0,0,0,0,0,0,0,0,0,0,
0,0,0,0,0,0,0,0,0,0,0,0,0,0,0,0,
0,0,0,0,0,0,0,0,0,0,0,0,0,0,0,0,
0,0,0,0,0,0,0,0,0,0,0,0,0,0,0,0,
0,0,0,0,0,0,0,0,0,0,0,0,0,0,0,0,
0,0,0,0,0,0,0,0,0,0,0,0,0,0,0,0,
0,0,0,0,0,0,0,0,0,0,0,0,0,0,0,0
</chunk>
  </data>
 </layer>
 <layer id="1" name="Walls" width="16" height="24">
  <data encoding="csv">
   <chunk x="-16" y="-16" width="16" height="16">
0,0,0,0,0,0,0,0,0,0,0,0,0,0,0,0,
0,0,0,0,0,0,0,0,0,0,0,0,0,0,0,0,
0,0,0,0,0,0,0,0,0,0,0,0,0,0,0,0,
0,0,0,0,0,0,0,0,0,0,0,0,0,0,0,0,
0,0,0,0,0,0,0,0,0,0,0,0,0,0,0,0,
0,0,0,0,0,12,12,12,12,12,12,12,12,12,12,12,
0,0,0,0,0,12,12,12,12,12,12,12,12,12,12,12,
0,0,0,0,0,12,12,12,12,12,12,12,12,12,12,12,
0,0,0,0,0,12,12,12,12,12,12,12,12,12,12,12,
0,0,0,0,0,12,12,12,12,12,12,12,55,56,56,56,
0,0,0,0,0,12,12,12,12,12,55,56,79,7,52,52,
0,0,0,0,0,12,12,12,12,12,65,4,53,17,62,62,
0,0,0,0,0,12,12,12,12,12,65,14,63,27,72,72,
0,0,0,0,0,12,12,12,12,12,65,24,73,37,0,0,
0,0,0,0,0,12,12,12,12,12,65,13,0,0,0,0,
0,0,0,0,0,12,12,12,12,12,65,13,0,0,0,0
</chunk>
   <chunk x="0" y="-16" width="16" height="16">
0,0,0,0,0,0,0,0,0,0,0,0,0,0,0,0,
0,0,0,0,0,0,0,0,0,0,0,0,0,0,0,0,
0,0,0,0,0,0,0,0,0,0,0,0,0,0,0,0,
0,0,0,0,0,0,0,0,0,0,0,0,0,0,0,0,
0,0,0,0,0,0,0,0,0,0,0,0,0,0,0,0,
12,12,12,12,12,12,12,12,12,12,12,12,12,12,12,0,
12,12,12,12,12,12,12,12,12,12,12,12,12,12,12,0,
12,12,12,12,12,12,12,12,12,12,12,12,12,12,12,0,
12,12,12,12,12,12,12,12,12,12,12,12,12,12,12,0,
56,56,56,56,56,56,56,56,56,57,12,12,12,12,12,0,
53,22,22,5,4,54,54,22,5,67,12,12,12,12,12,0,
63,32,32,15,14,64,64,32,15,67,12,12,12,12,12,0,
73,42,42,25,24,74,74,42,25,67,12,12,12,12,12,0,
0,0,0,11,13,0,0,0,11,67,12,12,12,12,12,0,
0,0,0,11,34,2,2,2,35,67,12,12,12,12,12,0,
0,0,0,21,22,51,52,53,5,67,12,12,12,12,12,0
</chunk>
   <chunk x="-16" y="0" width="16" height="16">
0,0,0,0,0,12,12,12,12,12,65,13,0,0,0,0,
0,0,0,0,0,12,12,12,12,12,65,13,0,0,0,0,
0,0,0,0,0,12,12,12,12,12,65,34,2,2,2,2,
0,0,0,0,0,12,12,12,12,12,75,76,76,76,76,76,
0,0,0,0,0,12,12,12,12,12,12,12,12,12,12,12,
0,0,0,0,0,12,12,12,12,12,12,12,12,12,12,12,
0,0,0,0,0,12,12,12,12,12,12,12,12,12,12,12,
0,0,0,0,0,12,12,12,12,12,12,12,12,12,12,12,
0,0,0,0,0,12,12,12,12,12,12,12,12,12,12,12,
0,0,0,0,0,0,0,0,0,0,0,0,0,0,0,0,
0,0,0,0,0,0,0,0,0,0,0,0,0,0,0,0,
0,0,0,0,0,0,0,0,0,0,0,0,0,0,0,0,
0,0,0,0,0,0,0,0,0,0,0,0,0,0,0,0,
0,0,0,0,0,0,0,0,0,0,0,0,0,0,0,0,
0,0,0,0,0,0,0,0,0,0,0,0,0,0,0,0,
0,0,0,0,0,0,0,0,0,0,0,0,0,0,0,0
</chunk>
   <chunk x="0" y="0" width="16" height="16">
0,0,0,31,273,274,62,63,15,67,12,12,12,12,12,0,
0,0,0,41,285,286,72,73,25,67,12,12,12,12,12,0,
48,49,49,50,2,2,2,2,35,67,12,12,12,12,12,0,
58,59,59,60,76,76,76,76,76,77,12,12,12,12,12,0,
12,12,12,12,12,12,12,12,12,12,12,12,12,12,12,0,
12,12,12,12,12,12,12,12,12,12,12,12,12,12,12,0,
12,12,12,12,12,12,12,12,12,12,12,12,12,12,12,0,
12,12,12,12,12,12,12,12,12,12,12,12,12,12,12,0,
12,12,12,12,12,12,12,12,12,12,12,12,12,12,12,0,
0,0,0,0,0,0,0,0,0,0,0,0,0,0,0,0,
0,0,0,0,0,0,0,0,0,0,0,0,0,0,0,0,
0,0,0,0,0,0,0,0,0,0,0,0,0,0,0,0,
0,0,0,0,0,0,0,0,0,0,0,0,0,0,0,0,
0,0,0,0,0,0,0,0,0,0,0,0,0,0,0,0,
0,0,0,0,0,0,0,0,0,0,0,0,0,0,0,0,
0,0,0,0,0,0,0,0,0,0,0,0,0,0,0,0
</chunk>
  </data>
 </layer>
 <layer id="2" name="Windows" width="16" height="24">
  <data encoding="csv">
   <chunk x="-16" y="-16" width="16" height="16">
0,0,0,0,0,0,0,0,0,0,0,0,0,0,0,0,
0,0,0,0,0,0,0,0,0,0,0,0,0,0,0,0,
0,0,0,0,0,0,0,0,0,0,0,0,0,0,0,0,
0,0,0,0,0,0,0,0,0,0,0,0,0,0,0,0,
0,0,0,0,0,0,0,0,0,0,0,0,0,0,0,0,
0,0,0,0,0,0,0,0,0,0,0,0,0,0,0,0,
0,0,0,0,0,0,0,0,0,0,0,0,0,0,0,0,
0,0,0,0,0,0,0,0,0,0,0,0,0,0,0,0,
0,0,0,0,0,0,0,0,0,0,0,0,0,0,0,0,
0,0,0,0,0,0,0,0,0,0,0,0,0,0,0,0,
0,0,0,0,0,0,0,0,0,0,0,0,0,0,0,0,
0,0,0,0,0,0,0,0,0,0,0,0,0,0,191,0,
0,0,0,0,0,0,0,0,0,0,0,0,0,0,202,0,
0,0,0,0,0,0,0,0,0,0,0,0,0,0,0,0,
0,0,0,0,0,0,0,0,0,0,0,0,0,0,0,0,
0,0,0,0,0,0,0,0,0,0,0,0,0,0,0,0
</chunk>
   <chunk x="0" y="-16" width="16" height="16">
0,0,0,0,0,0,0,0,0,0,0,0,0,0,0,0,
0,0,0,0,0,0,0,0,0,0,0,0,0,0,0,0,
0,0,0,0,0,0,0,0,0,0,0,0,0,0,0,0,
0,0,0,0,0,0,0,0,0,0,0,0,0,0,0,0,
0,0,0,0,0,0,0,0,0,0,0,0,0,0,0,0,
0,0,0,0,0,0,0,0,0,0,0,0,0,0,0,0,
0,0,0,0,0,0,0,0,0,0,0,0,0,0,0,0,
0,0,0,0,0,0,0,0,0,0,0,0,0,0,0,0,
0,0,0,0,0,0,0,0,0,0,0,0,0,0,0,0,
0,0,0,0,0,0,0,0,0,0,0,0,0,0,0,0,
0,0,0,0,0,0,0,0,0,0,0,0,0,0,0,0,
191,0,0,0,0,0,0,0,0,0,0,0,0,0,0,0,
202,0,0,0,0,0,0,0,0,0,0,0,0,0,0,0,
0,0,0,0,0,0,0,0,0,0,0,0,0,0,0,0,
0,0,0,0,0,0,0,0,0,0,0,0,0,0,0,0,
0,0,0,0,0,0,0,0,0,0,0,0,0,0,0,0
</chunk>
  </data>
 </layer>
 <layer id="5" name="carpet" width="16" height="24">
  <data encoding="csv">
   <chunk x="-16" y="-16" width="16" height="16">
0,0,0,0,0,0,0,0,0,0,0,0,0,0,0,0,
0,0,0,0,0,0,0,0,0,0,0,0,0,0,0,0,
0,0,0,0,0,0,0,0,0,0,0,0,0,0,0,0,
0,0,0,0,0,0,0,0,0,0,0,0,0,0,0,0,
0,0,0,0,0,0,0,0,0,0,0,0,0,0,0,0,
0,0,0,0,0,0,0,0,0,0,0,0,0,0,0,0,
0,0,0,0,0,0,0,0,0,0,0,0,0,0,0,0,
0,0,0,0,0,0,0,0,0,0,0,0,0,0,0,0,
0,0,0,0,0,0,0,0,0,0,0,0,0,0,0,0,
0,0,0,0,0,0,0,0,0,0,0,0,0,0,0,0,
0,0,0,0,0,0,0,0,0,0,0,0,0,0,0,0,
0,0,0,0,0,0,0,0,0,0,0,0,0,0,0,0,
0,0,0,0,0,0,0,0,0,0,0,0,0,0,0,0,
0,0,0,0,0,0,0,0,0,0,0,0,365,366,486,452,
0,0,0,0,0,0,0,0,0,0,0,0,382,383,503,469,
0,0,0,0,0,0,0,0,0,0,0,0,399,400,431,400
</chunk>
   <chunk x="0" y="-16" width="16" height="16">
0,0,0,0,0,0,0,0,0,0,0,0,0,0,0,0,
0,0,0,0,0,0,0,0,0,0,0,0,0,0,0,0,
0,0,0,0,0,0,0,0,0,0,0,0,0,0,0,0,
0,0,0,0,0,0,0,0,0,0,0,0,0,0,0,0,
0,0,0,0,0,0,0,0,0,0,0,0,0,0,0,0,
0,0,0,0,0,0,0,0,0,0,0,0,0,0,0,0,
0,0,0,0,0,0,0,0,0,0,0,0,0,0,0,0,
0,0,0,0,0,0,0,0,0,0,0,0,0,0,0,0,
0,0,0,0,0,0,0,0,0,0,0,0,0,0,0,0,
0,0,0,0,0,0,0,0,0,0,0,0,0,0,0,0,
0,0,0,0,0,0,0,0,0,0,0,0,0,0,0,0,
0,0,0,0,0,0,0,0,0,0,0,0,0,0,0,0,
0,0,0,0,0,0,0,0,0,0,0,0,0,0,0,0,
366,366,0,0,0,0,0,0,0,0,0,0,0,0,0,0,
503,383,384,0,0,0,0,0,0,0,0,0,0,0,0,0,
471,400,401,0,0,0,0,0,0,0,0,0,0,0,0,0
</chunk>
   <chunk x="-16" y="0" width="16" height="16">
0,0,0,0,0,0,0,0,0,0,0,0,416,417,379,400,
0,0,0,0,0,0,0,0,0,0,0,0,433,434,434,434,
0,0,0,0,0,0,0,0,0,0,0,0,0,0,0,0,
0,0,0,0,0,0,0,0,0,0,0,0,0,0,0,0,
0,0,0,0,0,0,0,0,0,0,0,0,0,0,0,0,
0,0,0,0,0,0,0,0,0,0,0,0,0,0,0,0,
0,0,0,0,0,0,0,0,0,0,0,0,0,0,0,0,
0,0,0,0,0,0,0,0,0,0,0,0,0,0,0,0,
0,0,0,0,0,0,0,0,0,0,0,0,0,0,0,0,
0,0,0,0,0,0,0,0,0,0,0,0,0,0,0,0,
0,0,0,0,0,0,0,0,0,0,0,0,0,0,0,0,
0,0,0,0,0,0,0,0,0,0,0,0,0,0,0,0,
0,0,0,0,0,0,0,0,0,0,0,0,0,0,0,0,
0,0,0,0,0,0,0,0,0,0,0,0,0,0,0,0,
0,0,0,0,0,0,0,0,0,0,0,0,0,0,0,0,
0,0,0,0,0,0,0,0,0,0,0,0,0,0,0,0
</chunk>
   <chunk x="0" y="0" width="16" height="16">
431,480,418,0,0,0,0,0,0,0,0,0,0,0,0,0,
434,434,435,0,0,0,0,0,0,0,0,0,0,0,0,0,
0,0,0,0,0,0,0,0,0,0,0,0,0,0,0,0,
0,0,0,0,0,0,0,0,0,0,0,0,0,0,0,0,
0,0,0,0,0,0,0,0,0,0,0,0,0,0,0,0,
0,0,0,0,0,0,0,0,0,0,0,0,0,0,0,0,
0,0,0,0,0,0,0,0,0,0,0,0,0,0,0,0,
0,0,0,0,0,0,0,0,0,0,0,0,0,0,0,0,
0,0,0,0,0,0,0,0,0,0,0,0,0,0,0,0,
0,0,0,0,0,0,0,0,0,0,0,0,0,0,0,0,
0,0,0,0,0,0,0,0,0,0,0,0,0,0,0,0,
0,0,0,0,0,0,0,0,0,0,0,0,0,0,0,0,
0,0,0,0,0,0,0,0,0,0,0,0,0,0,0,0,
0,0,0,0,0,0,0,0,0,0,0,0,0,0,0,0,
0,0,0,0,0,0,0,0,0,0,0,0,0,0,0,0,
0,0,0,0,0,0,0,0,0,0,0,0,0,0,0,0
</chunk>
  </data>
 </layer>
 <layer id="6" name="furniture1" width="16" height="24">
  <data encoding="csv">
   <chunk x="-16" y="-16" width="16" height="16">
0,0,0,0,0,0,0,0,0,0,0,0,0,0,0,0,
0,0,0,0,0,0,0,0,0,0,0,0,0,0,0,0,
0,0,0,0,0,0,0,0,0,0,0,0,0,0,0,0,
0,0,0,0,0,0,0,0,0,0,0,0,0,0,0,0,
0,0,0,0,0,0,0,0,0,0,0,0,0,0,0,0,
0,0,0,0,0,0,0,0,0,0,0,0,0,0,0,0,
0,0,0,0,0,0,0,0,0,0,0,0,0,0,0,0,
0,0,0,0,0,0,0,0,0,0,0,0,0,0,0,0,
0,0,0,0,0,0,0,0,0,0,0,0,0,0,0,0,
0,0,0,0,0,0,0,0,0,0,0,0,0,0,0,0,
0,0,0,0,0,0,0,0,0,0,0,0,0,0,0,0,
0,0,0,0,0,0,0,0,0,0,0,0,0,0,0,0,
0,0,0,0,0,0,0,0,0,0,0,0,0,0,0,487,
0,0,0,0,0,0,0,0,0,0,0,0,0,0,0,504,
0,0,0,0,0,0,0,0,0,0,0,0,0,0,0,0,
0,0,0,0,0,0,0,0,0,0,0,0,380,381,0,0
</chunk>
   <chunk x="0" y="-16" width="16" height="16">
0,0,0,0,0,0,0,0,0,0,0,0,0,0,0,0,
0,0,0,0,0,0,0,0,0,0,0,0,0,0,0,0,
0,0,0,0,0,0,0,0,0,0,0,0,0,0,0,0,
0,0,0,0,0,0,0,0,0,0,0,0,0,0,0,0,
0,0,0,0,0,0,0,0,0,0,0,0,0,0,0,0,
0,0,0,0,0,0,0,0,0,0,0,0,0,0,0,0,
0,0,0,0,0,0,0,0,0,0,0,0,0,0,0,0,
0,0,0,0,0,0,0,0,0,0,0,0,0,0,0,0,
0,0,0,0,0,0,0,0,0,0,0,0,0,0,0,0,
0,0,0,0,0,0,0,0,0,0,0,0,0,0,0,0,
0,0,374,375,0,0,0,0,0,0,0,0,0,0,0,0,
0,0,391,392,0,371,372,373,0,0,0,0,0,0,0,0,
488,489,408,409,2147484144,388,389,390,496,0,0,0,0,0,0,0,
505,506,425,426,2147484161,405,406,407,513,0,0,0,0,0,0,0,
0,0,0,0,0,422,423,424,0,0,0,0,0,0,0,0,
0,0,0,0,0,0,0,0,0,0,0,0,0,0,0,0
</chunk>
   <chunk x="-16" y="0" width="16" height="16">
0,0,0,0,0,0,0,0,0,0,0,396,397,398,0,0,
0,0,0,0,0,0,0,0,0,0,0,413,414,415,0,0,
0,0,0,0,0,0,0,0,0,0,0,430,0,432,0,0,
0,0,0,0,0,0,0,0,0,0,0,0,0,0,0,0,
0,0,0,0,0,0,0,0,0,0,0,0,0,0,0,0,
0,0,0,0,0,0,0,0,0,0,0,0,0,0,0,0,
0,0,0,0,0,0,0,0,0,0,0,0,0,0,0,0,
0,0,0,0,0,0,0,0,0,0,0,0,0,0,0,0,
0,0,0,0,0,0,0,0,0,0,0,0,0,0,0,0,
0,0,0,0,0,0,0,0,0,0,0,0,0,0,0,0,
0,0,0,0,0,0,0,0,0,0,0,0,0,0,0,0,
0,0,0,0,0,0,0,0,0,0,0,0,0,0,0,0,
0,0,0,0,0,0,0,0,0,0,0,0,0,0,0,0,
0,0,0,0,0,0,0,0,0,0,0,0,0,0,0,0,
0,0,0,0,0,0,0,0,0,0,0,0,0,0,0,0,
0,0,0,0,0,0,0,0,0,0,0,0,0,0,0,0
</chunk>
  </data>
 </layer>
 <layer id="8" name="furniture2" width="16" height="24">
  <data encoding="csv">
   <chunk x="-16" y="-16" width="16" height="16">
0,0,0,0,0,0,0,0,0,0,0,0,0,0,0,0,
0,0,0,0,0,0,0,0,0,0,0,0,0,0,0,0,
0,0,0,0,0,0,0,0,0,0,0,0,0,0,0,0,
0,0,0,0,0,0,0,0,0,0,0,0,0,0,0,0,
0,0,0,0,0,0,0,0,0,0,0,0,0,0,0,0,
0,0,0,0,0,0,0,0,0,0,0,0,0,0,0,0,
0,0,0,0,0,0,0,0,0,0,0,0,0,0,0,0,
0,0,0,0,0,0,0,0,0,0,0,0,0,0,0,0,
0,0,0,0,0,0,0,0,0,0,0,0,0,0,0,0,
0,0,0,0,0,0,0,0,0,0,0,0,0,0,0,0,
0,0,0,0,0,0,0,0,0,0,0,0,0,0,0,0,
0,0,0,0,0,0,0,0,0,0,0,0,0,0,0,0,
0,0,0,0,0,0,0,0,0,0,0,518,519,0,0,0,
0,0,0,0,0,0,0,0,0,0,0,530,531,0,0,0,
0,0,0,0,0,0,0,0,0,0,0,542,543,442,443,444,
0,0,0,0,0,0,0,0,0,0,0,0,0,459,460,461
</chunk>
   <chunk x="0" y="-16" width="16" height="16">
0,0,0,0,0,0,0,0,0,0,0,0,0,0,0,0,
0,0,0,0,0,0,0,0,0,0,0,0,0,0,0,0,
0,0,0,0,0,0,0,0,0,0,0,0,0,0,0,0,
0,0,0,0,0,0,0,0,0,0,0,0,0,0,0,0,
0,0,0,0,0,0,0,0,0,0,0,0,0,0,0,0,
0,0,0,0,0,0,0,0,0,0,0,0,0,0,0,0,
0,0,0,0,0,0,0,0,0,0,0,0,0,0,0,0,
0,0,0,0,0,0,0,0,0,0,0,0,0,0,0,0,
0,0,0,0,0,0,0,0,0,0,0,0,0,0,0,0,
0,0,0,0,0,0,0,0,0,0,0,0,0,0,0,0,
0,448,449,0,0,0,0,0,0,0,0,0,0,0,0,0,
0,465,466,0,0,0,0,0,0,0,0,0,0,0,0,0,
0,482,483,0,0,0,0,0,0,0,0,0,0,0,0,0,
0,0,0,0,0,0,0,0,0,0,0,0,0,0,0,0,
445,446,0,0,0,0,0,0,0,0,0,0,0,0,0,0,
462,463,0,0,0,0,0,450,451,0,0,0,0,0,0,0
</chunk>
   <chunk x="-16" y="0" width="16" height="16">
0,0,0,0,0,0,0,0,0,0,0,0,0,0,477,478,
0,0,0,0,0,0,0,0,0,0,0,0,378,0,0,0,
0,0,0,0,0,0,0,0,0,0,0,0,395,0,0,0,
0,0,0,0,0,0,0,0,0,0,0,0,0,0,0,0,
0,0,0,0,0,0,0,0,0,0,0,0,0,0,0,0,
0,0,0,0,0,0,0,0,0,0,0,0,0,0,0,0,
0,0,0,0,0,0,0,0,0,0,0,0,0,0,0,0,
0,0,0,0,0,0,0,0,0,0,0,0,0,0,0,0,
0,0,0,0,0,0,0,0,0,0,0,0,0,0,0,0,
0,0,0,0,0,0,0,0,0,0,0,0,0,0,0,0,
0,0,0,0,0,0,0,0,0,0,0,0,0,0,0,0,
0,0,0,0,0,0,0,0,0,0,0,0,0,0,0,0,
0,0,0,0,0,0,0,0,0,0,0,0,0,0,0,0,
0,0,0,0,0,0,0,0,0,0,0,0,0,0,0,0,
0,0,0,0,0,0,0,0,0,0,0,0,0,0,0,0,
0,0,0,0,0,0,0,0,0,0,0,0,0,0,0,0
</chunk>
   <chunk x="0" y="0" width="16" height="16">
479,480,0,0,0,0,0,467,468,0,0,0,0,0,0,0,
0,0,0,0,0,0,0,484,485,0,0,0,0,0,0,0,
0,0,0,0,0,0,0,501,502,0,0,0,0,0,0,0,
0,0,0,0,0,0,0,0,0,0,0,0,0,0,0,0,
0,0,0,0,0,0,0,0,0,0,0,0,0,0,0,0,
0,0,0,0,0,0,0,0,0,0,0,0,0,0,0,0,
0,0,0,0,0,0,0,0,0,0,0,0,0,0,0,0,
0,0,0,0,0,0,0,0,0,0,0,0,0,0,0,0,
0,0,0,0,0,0,0,0,0,0,0,0,0,0,0,0,
0,0,0,0,0,0,0,0,0,0,0,0,0,0,0,0,
0,0,0,0,0,0,0,0,0,0,0,0,0,0,0,0,
0,0,0,0,0,0,0,0,0,0,0,0,0,0,0,0,
0,0,0,0,0,0,0,0,0,0,0,0,0,0,0,0,
0,0,0,0,0,0,0,0,0,0,0,0,0,0,0,0,
0,0,0,0,0,0,0,0,0,0,0,0,0,0,0,0,
0,0,0,0,0,0,0,0,0,0,0,0,0,0,0,0
</chunk>
  </data>
 </layer>
</map>
