<?xml version="1.0" encoding="UTF-8"?>
<map version="1.10" tiledversion="1.10.2" orientation="orthogonal" renderorder="right-down" width="16" height="24" tilewidth="16" tileheight="16" infinite="1" nextlayerid="2" nextobjectid="1">
 <tileset firstgid="1" name="Chicken_animation" tilewidth="16" tileheight="16" tilecount="192" columns="16">
  <image source="Chicken_animation.png" width="256" height="192"/>
  <tile id="0">
   <animation>
    <frame tileid="0" duration="150"/>
    <frame tileid="32" duration="150"/>
    <frame tileid="64" duration="150"/>
    <frame tileid="96" duration="150"/>
    <frame tileid="128" duration="150"/>
    <frame tileid="160" duration="150"/>
   </animation>
  </tile>
  <tile id="1">
   <animation>
    <frame tileid="1" duration="150"/>
    <frame tileid="33" duration="150"/>
    <frame tileid="65" duration="150"/>
    <frame tileid="97" duration="150"/>
    <frame tileid="129" duration="150"/>
    <frame tileid="161" duration="150"/>
   </animation>
  </tile>
  <tile id="2">
   <animation>
    <frame tileid="2" duration="150"/>
    <frame tileid="34" duration="150"/>
    <frame tileid="66" duration="150"/>
    <frame tileid="98" duration="150"/>
    <frame tileid="130" duration="150"/>
    <frame tileid="162" duration="150"/>
   </animation>
  </tile>
  <tile id="3">
   <animation>
    <frame tileid="3" duration="150"/>
    <frame tileid="35" duration="150"/>
    <frame tileid="67" duration="150"/>
    <frame tileid="99" duration="150"/>
    <frame tileid="131" duration="150"/>
    <frame tileid="163" duration="150"/>
   </animation>
  </tile>
  <tile id="4">
   <animation>
    <frame tileid="4" duration="150"/>
    <frame tileid="36" duration="150"/>
    <frame tileid="68" duration="150"/>
    <frame tileid="100" duration="150"/>
    <frame tileid="132" duration="150"/>
    <frame tileid="164" duration="150"/>
   </animation>
  </tile>
  <tile id="5">
   <animation>
    <frame tileid="5" duration="150"/>
    <frame tileid="37" duration="150"/>
    <frame tileid="69" duration="150"/>
    <frame tileid="101" duration="150"/>
    <frame tileid="133" duration="150"/>
    <frame tileid="165" duration="150"/>
   </animation>
  </tile>
  <tile id="6">
   <animation>
    <frame tileid="6" duration="150"/>
    <frame tileid="38" duration="150"/>
    <frame tileid="70" duration="150"/>
    <frame tileid="102" duration="150"/>
    <frame tileid="134" duration="150"/>
    <frame tileid="166" duration="150"/>
   </animation>
  </tile>
  <tile id="7">
   <animation>
    <frame tileid="7" duration="150"/>
    <frame tileid="39" duration="150"/>
    <frame tileid="71" duration="150"/>
    <frame tileid="103" duration="150"/>
    <frame tileid="135" duration="150"/>
    <frame tileid="167" duration="150"/>
   </animation>
  </tile>
  <tile id="8">
   <animation>
    <frame tileid="8" duration="150"/>
    <frame tileid="40" duration="150"/>
    <frame tileid="72" duration="150"/>
    <frame tileid="104" duration="150"/>
    <frame tileid="136" duration="150"/>
    <frame tileid="168" duration="150"/>
   </animation>
  </tile>
  <tile id="9">
   <animation>
    <frame tileid="9" duration="150"/>
    <frame tileid="41" duration="150"/>
    <frame tileid="73" duration="150"/>
    <frame tileid="105" duration="150"/>
    <frame tileid="137" duration="150"/>
    <frame tileid="169" duration="150"/>
   </animation>
  </tile>
  <tile id="10">
   <animation>
    <frame tileid="10" duration="150"/>
    <frame tileid="42" duration="150"/>
    <frame tileid="74" duration="150"/>
    <frame tileid="106" duration="150"/>
    <frame tileid="138" duration="150"/>
    <frame tileid="170" duration="150"/>
   </animation>
  </tile>
  <tile id="11">
   <animation>
    <frame tileid="11" duration="150"/>
    <frame tileid="43" duration="150"/>
    <frame tileid="75" duration="150"/>
    <frame tileid="107" duration="150"/>
    <frame tileid="139" duration="150"/>
    <frame tileid="171" duration="150"/>
   </animation>
  </tile>
  <tile id="12">
   <animation>
    <frame tileid="12" duration="150"/>
    <frame tileid="44" duration="150"/>
    <frame tileid="76" duration="150"/>
    <frame tileid="108" duration="150"/>
    <frame tileid="140" duration="150"/>
    <frame tileid="172" duration="150"/>
   </animation>
  </tile>
  <tile id="13">
   <animation>
    <frame tileid="13" duration="150"/>
    <frame tileid="45" duration="150"/>
    <frame tileid="77" duration="150"/>
    <frame tileid="109" duration="150"/>
    <frame tileid="141" duration="150"/>
    <frame tileid="173" duration="150"/>
   </animation>
  </tile>
  <tile id="14">
   <animation>
    <frame tileid="14" duration="150"/>
    <frame tileid="46" duration="150"/>
    <frame tileid="78" duration="150"/>
    <frame tileid="110" duration="150"/>
    <frame tileid="142" duration="150"/>
    <frame tileid="174" duration="150"/>
   </animation>
  </tile>
  <tile id="15">
   <animation>
    <frame tileid="15" duration="150"/>
    <frame tileid="47" duration="150"/>
    <frame tileid="79" duration="150"/>
    <frame tileid="111" duration="150"/>
    <frame tileid="143" duration="150"/>
    <frame tileid="175" duration="150"/>
   </animation>
  </tile>
  <tile id="16">
   <animation>
    <frame tileid="16" duration="150"/>
    <frame tileid="48" duration="150"/>
    <frame tileid="80" duration="150"/>
    <frame tileid="112" duration="150"/>
    <frame tileid="144" duration="150"/>
    <frame tileid="176" duration="150"/>
   </animation>
  </tile>
  <tile id="17">
   <animation>
    <frame tileid="17" duration="150"/>
    <frame tileid="49" duration="150"/>
    <frame tileid="81" duration="150"/>
    <frame tileid="113" duration="150"/>
    <frame tileid="145" duration="150"/>
    <frame tileid="177" duration="150"/>
   </animation>
  </tile>
  <tile id="18">
   <animation>
    <frame tileid="18" duration="150"/>
    <frame tileid="50" duration="150"/>
    <frame tileid="82" duration="150"/>
    <frame tileid="114" duration="150"/>
    <frame tileid="146" duration="150"/>
    <frame tileid="178" duration="150"/>
   </animation>
  </tile>
  <tile id="19">
   <animation>
    <frame tileid="19" duration="150"/>
    <frame tileid="51" duration="150"/>
    <frame tileid="83" duration="150"/>
    <frame tileid="115" duration="150"/>
    <frame tileid="147" duration="150"/>
    <frame tileid="179" duration="150"/>
   </animation>
  </tile>
  <tile id="20">
   <animation>
    <frame tileid="20" duration="150"/>
    <frame tileid="52" duration="150"/>
    <frame tileid="84" duration="150"/>
    <frame tileid="116" duration="150"/>
    <frame tileid="148" duration="150"/>
    <frame tileid="180" duration="150"/>
   </animation>
  </tile>
  <tile id="21">
   <animation>
    <frame tileid="21" duration="150"/>
    <frame tileid="53" duration="150"/>
    <frame tileid="85" duration="150"/>
    <frame tileid="117" duration="150"/>
    <frame tileid="149" duration="150"/>
    <frame tileid="181" duration="150"/>
   </animation>
  </tile>
  <tile id="22">
   <animation>
    <frame tileid="22" duration="150"/>
    <frame tileid="54" duration="150"/>
    <frame tileid="86" duration="150"/>
    <frame tileid="118" duration="150"/>
    <frame tileid="150" duration="150"/>
    <frame tileid="182" duration="150"/>
   </animation>
  </tile>
  <tile id="23">
   <animation>
    <frame tileid="23" duration="150"/>
    <frame tileid="55" duration="150"/>
    <frame tileid="87" duration="150"/>
    <frame tileid="119" duration="150"/>
    <frame tileid="151" duration="150"/>
    <frame tileid="183" duration="150"/>
   </animation>
  </tile>
  <tile id="24">
   <animation>
    <frame tileid="24" duration="150"/>
    <frame tileid="56" duration="150"/>
    <frame tileid="88" duration="150"/>
    <frame tileid="120" duration="150"/>
    <frame tileid="152" duration="150"/>
    <frame tileid="184" duration="150"/>
   </animation>
  </tile>
  <tile id="25">
   <animation>
    <frame tileid="25" duration="150"/>
    <frame tileid="57" duration="150"/>
    <frame tileid="89" duration="150"/>
    <frame tileid="121" duration="150"/>
    <frame tileid="153" duration="150"/>
    <frame tileid="185" duration="150"/>
   </animation>
  </tile>
  <tile id="26">
   <animation>
    <frame tileid="26" duration="150"/>
    <frame tileid="58" duration="150"/>
    <frame tileid="90" duration="150"/>
    <frame tileid="122" duration="150"/>
    <frame tileid="154" duration="150"/>
    <frame tileid="186" duration="150"/>
   </animation>
  </tile>
  <tile id="27">
   <animation>
    <frame tileid="27" duration="150"/>
    <frame tileid="59" duration="150"/>
    <frame tileid="91" duration="150"/>
    <frame tileid="123" duration="150"/>
    <frame tileid="155" duration="150"/>
    <frame tileid="187" duration="150"/>
   </animation>
  </tile>
  <tile id="28">
   <animation>
    <frame tileid="28" duration="150"/>
    <frame tileid="60" duration="150"/>
    <frame tileid="92" duration="150"/>
    <frame tileid="124" duration="150"/>
    <frame tileid="156" duration="150"/>
    <frame tileid="188" duration="150"/>
   </animation>
  </tile>
  <tile id="29">
   <animation>
    <frame tileid="29" duration="150"/>
    <frame tileid="61" duration="150"/>
    <frame tileid="93" duration="150"/>
    <frame tileid="125" duration="150"/>
    <frame tileid="157" duration="150"/>
    <frame tileid="189" duration="150"/>
   </animation>
  </tile>
  <tile id="30">
   <animation>
    <frame tileid="30" duration="150"/>
    <frame tileid="62" duration="150"/>
    <frame tileid="94" duration="150"/>
    <frame tileid="126" duration="150"/>
    <frame tileid="158" duration="150"/>
    <frame tileid="190" duration="150"/>
   </animation>
  </tile>
  <tile id="31">
   <animation>
    <frame tileid="31" duration="150"/>
    <frame tileid="63" duration="150"/>
    <frame tileid="95" duration="150"/>
    <frame tileid="127" duration="150"/>
    <frame tileid="159" duration="150"/>
    <frame tileid="191" duration="150"/>
   </animation>
  </tile>
 </tileset>
 <tileset firstgid="193" name="Pig_animation" tilewidth="16" tileheight="16" tilecount="192" columns="16">
  <image source="Pig_animation.png" width="256" height="192"/>
  <tile id="0">
   <animation>
    <frame tileid="0" duration="150"/>
    <frame tileid="32" duration="150"/>
    <frame tileid="64" duration="150"/>
    <frame tileid="96" duration="150"/>
    <frame tileid="128" duration="150"/>
    <frame tileid="160" duration="150"/>
   </animation>
  </tile>
  <tile id="1">
   <animation>
    <frame tileid="1" duration="150"/>
    <frame tileid="33" duration="150"/>
    <frame tileid="65" duration="150"/>
    <frame tileid="97" duration="150"/>
    <frame tileid="129" duration="150"/>
    <frame tileid="161" duration="150"/>
   </animation>
  </tile>
  <tile id="2">
   <animation>
    <frame tileid="2" duration="150"/>
    <frame tileid="34" duration="150"/>
    <frame tileid="66" duration="150"/>
    <frame tileid="98" duration="150"/>
    <frame tileid="130" duration="150"/>
    <frame tileid="162" duration="150"/>
   </animation>
  </tile>
  <tile id="3">
   <animation>
    <frame tileid="3" duration="150"/>
    <frame tileid="35" duration="150"/>
    <frame tileid="67" duration="150"/>
    <frame tileid="99" duration="150"/>
    <frame tileid="131" duration="150"/>
    <frame tileid="163" duration="150"/>
   </animation>
  </tile>
  <tile id="4">
   <animation>
    <frame tileid="4" duration="150"/>
    <frame tileid="36" duration="150"/>
    <frame tileid="68" duration="150"/>
    <frame tileid="100" duration="150"/>
    <frame tileid="132" duration="150"/>
    <frame tileid="164" duration="150"/>
   </animation>
  </tile>
  <tile id="5">
   <animation>
    <frame tileid="5" duration="150"/>
    <frame tileid="37" duration="150"/>
    <frame tileid="69" duration="150"/>
    <frame tileid="101" duration="150"/>
    <frame tileid="133" duration="150"/>
    <frame tileid="165" duration="150"/>
   </animation>
  </tile>
  <tile id="6">
   <animation>
    <frame tileid="6" duration="150"/>
    <frame tileid="38" duration="150"/>
    <frame tileid="70" duration="150"/>
    <frame tileid="102" duration="150"/>
    <frame tileid="134" duration="150"/>
    <frame tileid="166" duration="150"/>
   </animation>
  </tile>
  <tile id="7">
   <animation>
    <frame tileid="7" duration="150"/>
    <frame tileid="39" duration="150"/>
    <frame tileid="71" duration="150"/>
    <frame tileid="103" duration="150"/>
    <frame tileid="135" duration="150"/>
    <frame tileid="167" duration="150"/>
   </animation>
  </tile>
  <tile id="8">
   <animation>
    <frame tileid="8" duration="150"/>
    <frame tileid="40" duration="150"/>
    <frame tileid="72" duration="150"/>
    <frame tileid="104" duration="150"/>
   </animation>
  </tile>
  <tile id="9">
   <animation>
    <frame tileid="9" duration="150"/>
    <frame tileid="41" duration="150"/>
    <frame tileid="73" duration="150"/>
    <frame tileid="105" duration="150"/>
   </animation>
  </tile>
  <tile id="10">
   <animation>
    <frame tileid="10" duration="150"/>
    <frame tileid="42" duration="150"/>
    <frame tileid="74" duration="150"/>
    <frame tileid="106" duration="150"/>
   </animation>
  </tile>
  <tile id="11">
   <animation>
    <frame tileid="11" duration="150"/>
    <frame tileid="43" duration="150"/>
    <frame tileid="75" duration="150"/>
    <frame tileid="107" duration="150"/>
   </animation>
  </tile>
  <tile id="12">
   <animation>
    <frame tileid="12" duration="150"/>
    <frame tileid="44" duration="150"/>
    <frame tileid="76" duration="150"/>
    <frame tileid="108" duration="150"/>
   </animation>
  </tile>
  <tile id="13">
   <animation>
    <frame tileid="13" duration="150"/>
    <frame tileid="45" duration="150"/>
    <frame tileid="77" duration="150"/>
    <frame tileid="109" duration="150"/>
   </animation>
  </tile>
  <tile id="14">
   <animation>
    <frame tileid="14" duration="150"/>
    <frame tileid="46" duration="150"/>
    <frame tileid="78" duration="150"/>
    <frame tileid="110" duration="150"/>
   </animation>
  </tile>
  <tile id="15">
   <animation>
    <frame tileid="15" duration="150"/>
    <frame tileid="47" duration="150"/>
    <frame tileid="79" duration="150"/>
    <frame tileid="111" duration="150"/>
   </animation>
  </tile>
  <tile id="16">
   <animation>
    <frame tileid="16" duration="150"/>
    <frame tileid="48" duration="150"/>
    <frame tileid="80" duration="150"/>
    <frame tileid="112" duration="150"/>
    <frame tileid="144" duration="150"/>
    <frame tileid="176" duration="150"/>
   </animation>
  </tile>
  <tile id="17">
   <animation>
    <frame tileid="17" duration="150"/>
    <frame tileid="49" duration="150"/>
    <frame tileid="81" duration="150"/>
    <frame tileid="113" duration="150"/>
    <frame tileid="145" duration="150"/>
    <frame tileid="177" duration="150"/>
   </animation>
  </tile>
  <tile id="18">
   <animation>
    <frame tileid="18" duration="150"/>
    <frame tileid="50" duration="150"/>
    <frame tileid="82" duration="150"/>
    <frame tileid="114" duration="150"/>
    <frame tileid="146" duration="150"/>
    <frame tileid="178" duration="150"/>
   </animation>
  </tile>
  <tile id="19">
   <animation>
    <frame tileid="19" duration="150"/>
    <frame tileid="51" duration="150"/>
    <frame tileid="83" duration="150"/>
    <frame tileid="115" duration="150"/>
    <frame tileid="147" duration="150"/>
    <frame tileid="179" duration="150"/>
   </animation>
  </tile>
  <tile id="20">
   <animation>
    <frame tileid="20" duration="150"/>
    <frame tileid="52" duration="150"/>
    <frame tileid="84" duration="150"/>
    <frame tileid="116" duration="150"/>
    <frame tileid="148" duration="150"/>
    <frame tileid="180" duration="150"/>
   </animation>
  </tile>
  <tile id="21">
   <animation>
    <frame tileid="21" duration="150"/>
    <frame tileid="53" duration="150"/>
    <frame tileid="85" duration="150"/>
    <frame tileid="117" duration="150"/>
    <frame tileid="149" duration="150"/>
    <frame tileid="181" duration="150"/>
   </animation>
  </tile>
  <tile id="22">
   <animation>
    <frame tileid="22" duration="150"/>
    <frame tileid="54" duration="150"/>
    <frame tileid="86" duration="150"/>
    <frame tileid="118" duration="150"/>
    <frame tileid="150" duration="150"/>
    <frame tileid="182" duration="150"/>
   </animation>
  </tile>
  <tile id="23">
   <animation>
    <frame tileid="23" duration="150"/>
    <frame tileid="55" duration="150"/>
    <frame tileid="87" duration="150"/>
    <frame tileid="119" duration="150"/>
    <frame tileid="151" duration="150"/>
    <frame tileid="183" duration="150"/>
   </animation>
  </tile>
  <tile id="24">
   <animation>
    <frame tileid="24" duration="150"/>
    <frame tileid="56" duration="150"/>
    <frame tileid="88" duration="150"/>
    <frame tileid="120" duration="150"/>
   </animation>
  </tile>
  <tile id="25">
   <animation>
    <frame tileid="25" duration="150"/>
    <frame tileid="57" duration="150"/>
    <frame tileid="89" duration="150"/>
    <frame tileid="121" duration="150"/>
   </animation>
  </tile>
  <tile id="26">
   <animation>
    <frame tileid="26" duration="150"/>
    <frame tileid="58" duration="150"/>
    <frame tileid="90" duration="150"/>
    <frame tileid="122" duration="150"/>
   </animation>
  </tile>
  <tile id="27">
   <animation>
    <frame tileid="27" duration="150"/>
    <frame tileid="59" duration="150"/>
    <frame tileid="91" duration="150"/>
    <frame tileid="123" duration="150"/>
   </animation>
  </tile>
  <tile id="28">
   <animation>
    <frame tileid="28" duration="150"/>
    <frame tileid="60" duration="150"/>
    <frame tileid="92" duration="150"/>
    <frame tileid="124" duration="150"/>
   </animation>
  </tile>
  <tile id="29">
   <animation>
    <frame tileid="29" duration="150"/>
    <frame tileid="61" duration="150"/>
    <frame tileid="93" duration="150"/>
    <frame tileid="125" duration="150"/>
   </animation>
  </tile>
  <tile id="30">
   <animation>
    <frame tileid="30" duration="150"/>
    <frame tileid="62" duration="150"/>
    <frame tileid="94" duration="150"/>
    <frame tileid="126" duration="150"/>
   </animation>
  </tile>
  <tile id="31">
   <animation>
    <frame tileid="31" duration="150"/>
    <frame tileid="63" duration="150"/>
    <frame tileid="95" duration="150"/>
    <frame tileid="127" duration="150"/>
   </animation>
  </tile>
 </tileset>
 <tileset firstgid="385" name="Cow_animation" tilewidth="16" tileheight="16" tilecount="768" columns="32">
  <image source="Cow_animation.png" width="512" height="384"/>
  <tile id="33">
   <animation>
    <frame tileid="33" duration="150"/>
    <frame tileid="161" duration="150"/>
    <frame tileid="289" duration="150"/>
    <frame tileid="417" duration="150"/>
    <frame tileid="545" duration="150"/>
    <frame tileid="673" duration="150"/>
   </animation>
  </tile>
  <tile id="34">
   <animation>
    <frame tileid="34" duration="150"/>
    <frame tileid="162" duration="150"/>
    <frame tileid="290" duration="150"/>
    <frame tileid="418" duration="150"/>
    <frame tileid="546" duration="150"/>
    <frame tileid="674" duration="150"/>
   </animation>
  </tile>
  <tile id="37">
   <animation>
    <frame tileid="37" duration="150"/>
    <frame tileid="165" duration="150"/>
    <frame tileid="293" duration="150"/>
    <frame tileid="421" duration="150"/>
    <frame tileid="549" duration="150"/>
    <frame tileid="677" duration="150"/>
   </animation>
  </tile>
  <tile id="38">
   <animation>
    <frame tileid="38" duration="150"/>
    <frame tileid="166" duration="150"/>
    <frame tileid="294" duration="150"/>
    <frame tileid="422" duration="150"/>
    <frame tileid="550" duration="150"/>
    <frame tileid="678" duration="150"/>
   </animation>
  </tile>
  <tile id="40">
   <animation>
    <frame tileid="40" duration="150"/>
    <frame tileid="168" duration="150"/>
    <frame tileid="296" duration="150"/>
    <frame tileid="424" duration="150"/>
    <frame tileid="552" duration="150"/>
    <frame tileid="680" duration="150"/>
   </animation>
  </tile>
  <tile id="41">
   <animation>
    <frame tileid="41" duration="150"/>
    <frame tileid="169" duration="150"/>
    <frame tileid="297" duration="150"/>
    <frame tileid="425" duration="150"/>
    <frame tileid="553" duration="150"/>
    <frame tileid="681" duration="150"/>
   </animation>
  </tile>
  <tile id="42">
   <animation>
    <frame tileid="42" duration="150"/>
    <frame tileid="170" duration="150"/>
    <frame tileid="298" duration="150"/>
    <frame tileid="426" duration="150"/>
    <frame tileid="554" duration="150"/>
    <frame tileid="682" duration="150"/>
   </animation>
  </tile>
  <tile id="43">
   <animation>
    <frame tileid="43" duration="150"/>
    <frame tileid="171" duration="150"/>
    <frame tileid="299" duration="150"/>
    <frame tileid="427" duration="150"/>
    <frame tileid="555" duration="150"/>
    <frame tileid="683" duration="150"/>
   </animation>
  </tile>
  <tile id="44">
   <animation>
    <frame tileid="44" duration="150"/>
    <frame tileid="172" duration="150"/>
    <frame tileid="300" duration="150"/>
    <frame tileid="428" duration="150"/>
    <frame tileid="556" duration="150"/>
    <frame tileid="684" duration="150"/>
   </animation>
  </tile>
  <tile id="45">
   <animation>
    <frame tileid="45" duration="150"/>
    <frame tileid="173" duration="150"/>
    <frame tileid="301" duration="150"/>
    <frame tileid="429" duration="150"/>
    <frame tileid="557" duration="150"/>
    <frame tileid="685" duration="150"/>
   </animation>
  </tile>
  <tile id="46">
   <animation>
    <frame tileid="46" duration="150"/>
    <frame tileid="174" duration="150"/>
    <frame tileid="302" duration="150"/>
    <frame tileid="430" duration="150"/>
    <frame tileid="558" duration="150"/>
    <frame tileid="686" duration="150"/>
   </animation>
  </tile>
  <tile id="47">
   <animation>
    <frame tileid="47" duration="150"/>
    <frame tileid="175" duration="150"/>
    <frame tileid="303" duration="150"/>
    <frame tileid="431" duration="150"/>
    <frame tileid="559" duration="150"/>
    <frame tileid="687" duration="150"/>
   </animation>
  </tile>
  <tile id="49">
   <animation>
    <frame tileid="49" duration="150"/>
    <frame tileid="177" duration="150"/>
    <frame tileid="305" duration="150"/>
    <frame tileid="433" duration="150"/>
   </animation>
  </tile>
  <tile id="50">
   <animation>
    <frame tileid="50" duration="150"/>
    <frame tileid="178" duration="150"/>
    <frame tileid="306" duration="150"/>
    <frame tileid="434" duration="150"/>
   </animation>
  </tile>
  <tile id="53">
   <animation>
    <frame tileid="53" duration="150"/>
    <frame tileid="181" duration="150"/>
    <frame tileid="309" duration="150"/>
    <frame tileid="437" duration="150"/>
   </animation>
  </tile>
  <tile id="54">
   <animation>
    <frame tileid="54" duration="150"/>
    <frame tileid="182" duration="150"/>
    <frame tileid="310" duration="150"/>
    <frame tileid="438" duration="150"/>
   </animation>
  </tile>
  <tile id="56">
   <animation>
    <frame tileid="56" duration="150"/>
    <frame tileid="184" duration="150"/>
    <frame tileid="312" duration="150"/>
    <frame tileid="440" duration="150"/>
   </animation>
  </tile>
  <tile id="57">
   <animation>
    <frame tileid="57" duration="150"/>
    <frame tileid="185" duration="150"/>
    <frame tileid="313" duration="150"/>
    <frame tileid="441" duration="150"/>
   </animation>
  </tile>
  <tile id="58">
   <animation>
    <frame tileid="58" duration="150"/>
    <frame tileid="186" duration="150"/>
    <frame tileid="314" duration="150"/>
    <frame tileid="442" duration="150"/>
   </animation>
  </tile>
  <tile id="61">
   <animation>
    <frame tileid="61" duration="150"/>
    <frame tileid="189" duration="150"/>
    <frame tileid="317" duration="150"/>
    <frame tileid="445" duration="150"/>
   </animation>
  </tile>
  <tile id="62">
   <animation>
    <frame tileid="62" duration="150"/>
    <frame tileid="190" duration="150"/>
    <frame tileid="318" duration="150"/>
    <frame tileid="446" duration="150"/>
   </animation>
  </tile>
  <tile id="63">
   <animation>
    <frame tileid="63" duration="150"/>
    <frame tileid="191" duration="150"/>
    <frame tileid="319" duration="150"/>
    <frame tileid="447" duration="150"/>
   </animation>
  </tile>
  <tile id="65">
   <animation>
    <frame tileid="65" duration="150"/>
    <frame tileid="193" duration="150"/>
    <frame tileid="321" duration="150"/>
    <frame tileid="449" duration="150"/>
    <frame tileid="577" duration="150"/>
    <frame tileid="705" duration="150"/>
   </animation>
  </tile>
  <tile id="66">
   <animation>
    <frame tileid="66" duration="150"/>
    <frame tileid="194" duration="150"/>
    <frame tileid="322" duration="150"/>
    <frame tileid="450" duration="150"/>
    <frame tileid="578" duration="150"/>
    <frame tileid="706" duration="150"/>
   </animation>
  </tile>
  <tile id="69">
   <animation>
    <frame tileid="69" duration="150"/>
    <frame tileid="197" duration="150"/>
    <frame tileid="325" duration="150"/>
    <frame tileid="453" duration="150"/>
    <frame tileid="581" duration="150"/>
    <frame tileid="709" duration="150"/>
   </animation>
  </tile>
  <tile id="70">
   <animation>
    <frame tileid="70" duration="150"/>
    <frame tileid="198" duration="150"/>
    <frame tileid="326" duration="150"/>
    <frame tileid="454" duration="150"/>
    <frame tileid="582" duration="150"/>
    <frame tileid="710" duration="150"/>
   </animation>
  </tile>
  <tile id="72">
   <animation>
    <frame tileid="72" duration="150"/>
    <frame tileid="200" duration="150"/>
    <frame tileid="328" duration="150"/>
    <frame tileid="456" duration="150"/>
    <frame tileid="584" duration="150"/>
    <frame tileid="712" duration="150"/>
   </animation>
  </tile>
  <tile id="73">
   <animation>
    <frame tileid="73" duration="150"/>
    <frame tileid="201" duration="150"/>
    <frame tileid="329" duration="150"/>
    <frame tileid="457" duration="150"/>
    <frame tileid="585" duration="150"/>
    <frame tileid="713" duration="150"/>
   </animation>
  </tile>
  <tile id="74">
   <animation>
    <frame tileid="74" duration="150"/>
    <frame tileid="202" duration="150"/>
    <frame tileid="330" duration="150"/>
    <frame tileid="458" duration="150"/>
    <frame tileid="586" duration="150"/>
    <frame tileid="714" duration="150"/>
   </animation>
  </tile>
  <tile id="75">
   <animation>
    <frame tileid="75" duration="150"/>
    <frame tileid="203" duration="150"/>
    <frame tileid="331" duration="150"/>
    <frame tileid="459" duration="150"/>
    <frame tileid="587" duration="150"/>
    <frame tileid="715" duration="150"/>
   </animation>
  </tile>
  <tile id="76">
   <animation>
    <frame tileid="76" duration="150"/>
    <frame tileid="204" duration="150"/>
    <frame tileid="332" duration="150"/>
    <frame tileid="460" duration="150"/>
    <frame tileid="588" duration="150"/>
    <frame tileid="716" duration="150"/>
   </animation>
  </tile>
  <tile id="77">
   <animation>
    <frame tileid="77" duration="150"/>
    <frame tileid="205" duration="150"/>
    <frame tileid="333" duration="150"/>
    <frame tileid="461" duration="150"/>
    <frame tileid="589" duration="150"/>
    <frame tileid="717" duration="150"/>
   </animation>
  </tile>
  <tile id="78">
   <animation>
    <frame tileid="78" duration="150"/>
    <frame tileid="206" duration="150"/>
    <frame tileid="334" duration="150"/>
    <frame tileid="462" duration="150"/>
    <frame tileid="590" duration="150"/>
    <frame tileid="718" duration="150"/>
   </animation>
  </tile>
  <tile id="79">
   <animation>
    <frame tileid="79" duration="150"/>
    <frame tileid="207" duration="150"/>
    <frame tileid="335" duration="150"/>
    <frame tileid="463" duration="150"/>
    <frame tileid="591" duration="150"/>
    <frame tileid="719" duration="150"/>
   </animation>
  </tile>
  <tile id="81">
   <animation>
    <frame tileid="81" duration="150"/>
    <frame tileid="209" duration="150"/>
    <frame tileid="337" duration="150"/>
    <frame tileid="465" duration="150"/>
   </animation>
  </tile>
  <tile id="82">
   <animation>
    <frame tileid="82" duration="150"/>
    <frame tileid="210" duration="150"/>
    <frame tileid="338" duration="150"/>
    <frame tileid="466" duration="150"/>
   </animation>
  </tile>
  <tile id="85">
   <animation>
    <frame tileid="85" duration="150"/>
    <frame tileid="213" duration="150"/>
    <frame tileid="341" duration="150"/>
    <frame tileid="469" duration="150"/>
   </animation>
  </tile>
  <tile id="86">
   <animation>
    <frame tileid="86" duration="150"/>
    <frame tileid="214" duration="150"/>
    <frame tileid="342" duration="150"/>
    <frame tileid="470" duration="150"/>
   </animation>
  </tile>
  <tile id="88">
   <animation>
    <frame tileid="88" duration="150"/>
    <frame tileid="216" duration="150"/>
    <frame tileid="344" duration="150"/>
    <frame tileid="472" duration="150"/>
   </animation>
  </tile>
  <tile id="89">
   <animation>
    <frame tileid="89" duration="150"/>
    <frame tileid="217" duration="150"/>
    <frame tileid="345" duration="150"/>
    <frame tileid="473" duration="150"/>
   </animation>
  </tile>
  <tile id="90">
   <animation>
    <frame tileid="90" duration="150"/>
    <frame tileid="218" duration="150"/>
    <frame tileid="346" duration="150"/>
    <frame tileid="474" duration="150"/>
   </animation>
  </tile>
  <tile id="91">
   <animation>
    <frame tileid="91" duration="150"/>
    <frame tileid="219" duration="150"/>
    <frame tileid="347" duration="150"/>
    <frame tileid="475" duration="150"/>
   </animation>
  </tile>
  <tile id="92">
   <animation>
    <frame tileid="92" duration="150"/>
    <frame tileid="220" duration="150"/>
    <frame tileid="348" duration="150"/>
    <frame tileid="476" duration="150"/>
   </animation>
  </tile>
  <tile id="93">
   <animation>
    <frame tileid="93" duration="150"/>
    <frame tileid="221" duration="150"/>
    <frame tileid="349" duration="150"/>
    <frame tileid="477" duration="150"/>
   </animation>
  </tile>
  <tile id="94">
   <animation>
    <frame tileid="94" duration="150"/>
    <frame tileid="222" duration="150"/>
    <frame tileid="350" duration="150"/>
    <frame tileid="478" duration="150"/>
   </animation>
  </tile>
  <tile id="95">
   <animation>
    <frame tileid="95" duration="150"/>
    <frame tileid="223" duration="150"/>
    <frame tileid="351" duration="150"/>
    <frame tileid="479" duration="150"/>
   </animation>
  </tile>
 </tileset>
 <layer id="1" name="Tile Layer 1" width="16" height="24">
  <data encoding="csv">
   <chunk x="-16" y="-16" width="16" height="16">
385,386,387,388,389,390,391,392,393,394,395,396,397,398,399,400,
417,418,419,420,421,422,423,424,425,426,427,428,429,430,431,432,
449,450,451,452,453,454,455,456,457,458,459,460,461,462,463,464,
481,482,483,484,485,486,487,488,489,0,490,491,0,492,493,494,
0,193,194,0,195,196,0,197,198,0,199,200,0,201,202,0,
0,209,210,0,211,212,0,213,214,0,215,216,0,217,218,0,
0,0,0,0,0,0,0,0,0,0,0,0,0,0,0,0,
0,1,2,3,4,5,6,7,8,9,10,11,12,13,14,15,
0,17,18,19,20,21,22,23,24,25,26,27,28,29,30,31,
0,0,0,0,0,0,0,0,0,0,0,0,0,0,0,0,
0,0,0,0,0,0,0,0,0,0,0,0,0,0,0,0,
0,0,0,0,0,0,0,0,0,0,0,0,0,0,0,0,
0,0,0,0,0,0,0,0,0,0,0,0,0,0,0,0,
0,0,0,0,0,0,0,0,0,0,0,0,0,0,0,0,
0,0,0,0,0,0,0,0,0,0,0,0,0,0,0,0,
0,0,0,0,0,0,0,0,0,0,0,0,0,0,0,0
</chunk>
   <chunk x="0" y="-16" width="16" height="16">
401,402,403,404,405,406,407,408,409,410,411,412,413,414,415,416,
433,434,435,436,437,438,439,440,441,442,443,444,445,446,447,448,
465,466,467,468,469,470,471,472,473,474,475,476,477,478,479,480,
495,496,497,498,499,502,503,504,505,506,507,508,509,510,511,512,
203,204,0,205,206,0,207,208,0,0,0,0,0,0,0,0,
219,220,0,221,222,0,223,224,0,0,0,0,0,0,0,0,
0,0,0,0,0,0,0,0,0,0,0,0,0,0,0,0,
16,0,0,0,0,0,0,0,0,0,0,0,0,0,0,0,
32,0,0,0,0,0,0,0,0,0,0,0,0,0,0,0,
0,0,0,0,0,0,0,0,0,0,0,0,0,0,0,0,
0,0,0,0,0,0,0,0,0,0,0,0,0,0,0,0,
0,0,0,0,0,0,0,0,0,0,0,0,0,0,0,0,
0,0,0,0,0,0,0,0,0,0,0,0,0,0,0,0,
0,0,0,0,0,0,0,0,0,0,0,0,0,0,0,0,
0,0,0,0,0,0,0,0,0,0,0,0,0,0,0,0,
0,0,0,0,0,0,0,0,0,0,0,0,0,0,0,0
</chunk>
  </data>
 </layer>
</map>
