<?xml version="1.0" encoding="UTF-8"?>
<map version="1.10" tiledversion="1.10.2" orientation="orthogonal" renderorder="right-down" width="16" height="24" tilewidth="16" tileheight="16" infinite="1" nextlayerid="28" nextobjectid="1">
 <tileset firstgid="1" name="Water_coasts_topside" tilewidth="16" tileheight="16" tilecount="780" columns="13">
  <image source="Water_coasts_topside.png" width="208" height="960"/>
  <tile id="0">
   <animation>
    <frame tileid="0" duration="150"/>
    <frame tileid="130" duration="150"/>
    <frame tileid="260" duration="150"/>
    <frame tileid="390" duration="150"/>
    <frame tileid="520" duration="150"/>
    <frame tileid="650" duration="150"/>
   </animation>
  </tile>
  <tile id="1">
   <animation>
    <frame tileid="1" duration="150"/>
    <frame tileid="131" duration="150"/>
    <frame tileid="261" duration="150"/>
    <frame tileid="391" duration="150"/>
    <frame tileid="521" duration="150"/>
    <frame tileid="651" duration="150"/>
   </animation>
  </tile>
  <tile id="2">
   <animation>
    <frame tileid="2" duration="150"/>
    <frame tileid="132" duration="150"/>
    <frame tileid="262" duration="150"/>
    <frame tileid="392" duration="150"/>
    <frame tileid="522" duration="150"/>
    <frame tileid="652" duration="150"/>
   </animation>
  </tile>
  <tile id="13">
   <animation>
    <frame tileid="13" duration="150"/>
    <frame tileid="143" duration="150"/>
    <frame tileid="273" duration="150"/>
    <frame tileid="403" duration="150"/>
    <frame tileid="533" duration="150"/>
    <frame tileid="663" duration="150"/>
   </animation>
  </tile>
  <tile id="14">
   <animation>
    <frame tileid="14" duration="150"/>
    <frame tileid="144" duration="150"/>
    <frame tileid="274" duration="150"/>
    <frame tileid="404" duration="150"/>
    <frame tileid="534" duration="150"/>
    <frame tileid="664" duration="150"/>
   </animation>
  </tile>
  <tile id="15">
   <animation>
    <frame tileid="15" duration="150"/>
    <frame tileid="145" duration="150"/>
    <frame tileid="275" duration="150"/>
    <frame tileid="405" duration="150"/>
    <frame tileid="535" duration="150"/>
    <frame tileid="665" duration="150"/>
   </animation>
  </tile>
  <tile id="16">
   <animation>
    <frame tileid="16" duration="150"/>
    <frame tileid="146" duration="150"/>
    <frame tileid="276" duration="150"/>
    <frame tileid="406" duration="150"/>
    <frame tileid="536" duration="150"/>
    <frame tileid="666" duration="150"/>
   </animation>
  </tile>
  <tile id="17">
   <animation>
    <frame tileid="17" duration="150"/>
    <frame tileid="147" duration="150"/>
    <frame tileid="277" duration="150"/>
    <frame tileid="407" duration="150"/>
    <frame tileid="537" duration="150"/>
    <frame tileid="667" duration="150"/>
   </animation>
  </tile>
  <tile id="19">
   <animation>
    <frame tileid="19" duration="150"/>
    <frame tileid="149" duration="150"/>
    <frame tileid="279" duration="150"/>
    <frame tileid="409" duration="150"/>
    <frame tileid="539" duration="150"/>
    <frame tileid="669" duration="150"/>
   </animation>
  </tile>
  <tile id="20">
   <animation>
    <frame tileid="20" duration="150"/>
    <frame tileid="150" duration="150"/>
    <frame tileid="280" duration="150"/>
    <frame tileid="410" duration="150"/>
    <frame tileid="540" duration="150"/>
    <frame tileid="670" duration="150"/>
   </animation>
  </tile>
  <tile id="21">
   <animation>
    <frame tileid="21" duration="150"/>
    <frame tileid="151" duration="150"/>
    <frame tileid="281" duration="150"/>
    <frame tileid="411" duration="150"/>
    <frame tileid="541" duration="150"/>
    <frame tileid="671" duration="150"/>
   </animation>
  </tile>
  <tile id="22">
   <animation>
    <frame tileid="22" duration="150"/>
    <frame tileid="152" duration="150"/>
    <frame tileid="282" duration="150"/>
    <frame tileid="412" duration="150"/>
    <frame tileid="542" duration="150"/>
    <frame tileid="672" duration="150"/>
   </animation>
  </tile>
  <tile id="24">
   <animation>
    <frame tileid="24" duration="150"/>
    <frame tileid="154" duration="150"/>
    <frame tileid="284" duration="150"/>
    <frame tileid="414" duration="150"/>
    <frame tileid="544" duration="150"/>
    <frame tileid="674" duration="150"/>
   </animation>
  </tile>
  <tile id="25">
   <animation>
    <frame tileid="25" duration="150"/>
    <frame tileid="155" duration="150"/>
    <frame tileid="285" duration="150"/>
    <frame tileid="415" duration="150"/>
    <frame tileid="545" duration="150"/>
    <frame tileid="675" duration="150"/>
   </animation>
  </tile>
  <tile id="26">
   <animation>
    <frame tileid="26" duration="150"/>
    <frame tileid="156" duration="150"/>
    <frame tileid="286" duration="150"/>
    <frame tileid="416" duration="150"/>
    <frame tileid="546" duration="150"/>
    <frame tileid="676" duration="150"/>
   </animation>
  </tile>
  <tile id="27">
   <animation>
    <frame tileid="27" duration="150"/>
    <frame tileid="157" duration="150"/>
    <frame tileid="287" duration="150"/>
    <frame tileid="417" duration="150"/>
    <frame tileid="547" duration="150"/>
    <frame tileid="677" duration="150"/>
   </animation>
  </tile>
  <tile id="28">
   <animation>
    <frame tileid="28" duration="150"/>
    <frame tileid="158" duration="150"/>
    <frame tileid="288" duration="150"/>
    <frame tileid="418" duration="150"/>
    <frame tileid="548" duration="150"/>
    <frame tileid="678" duration="150"/>
   </animation>
  </tile>
  <tile id="29">
   <animation>
    <frame tileid="29" duration="150"/>
    <frame tileid="159" duration="150"/>
    <frame tileid="289" duration="150"/>
    <frame tileid="419" duration="150"/>
    <frame tileid="549" duration="150"/>
    <frame tileid="679" duration="150"/>
   </animation>
  </tile>
  <tile id="30">
   <animation>
    <frame tileid="30" duration="150"/>
    <frame tileid="160" duration="150"/>
    <frame tileid="290" duration="150"/>
    <frame tileid="420" duration="150"/>
    <frame tileid="550" duration="150"/>
    <frame tileid="680" duration="150"/>
   </animation>
  </tile>
  <tile id="32">
   <animation>
    <frame tileid="32" duration="150"/>
    <frame tileid="162" duration="150"/>
    <frame tileid="292" duration="150"/>
    <frame tileid="422" duration="150"/>
    <frame tileid="552" duration="150"/>
    <frame tileid="682" duration="150"/>
   </animation>
  </tile>
  <tile id="33">
   <animation>
    <frame tileid="33" duration="150"/>
    <frame tileid="163" duration="150"/>
    <frame tileid="293" duration="150"/>
    <frame tileid="423" duration="150"/>
    <frame tileid="553" duration="150"/>
    <frame tileid="683" duration="150"/>
   </animation>
  </tile>
  <tile id="34">
   <animation>
    <frame tileid="34" duration="150"/>
    <frame tileid="164" duration="150"/>
    <frame tileid="294" duration="150"/>
    <frame tileid="424" duration="150"/>
    <frame tileid="554" duration="150"/>
    <frame tileid="684" duration="150"/>
   </animation>
  </tile>
  <tile id="35">
   <animation>
    <frame tileid="35" duration="150"/>
    <frame tileid="165" duration="150"/>
    <frame tileid="295" duration="150"/>
    <frame tileid="425" duration="150"/>
    <frame tileid="555" duration="150"/>
    <frame tileid="685" duration="150"/>
   </animation>
  </tile>
  <tile id="37">
   <animation>
    <frame tileid="37" duration="150"/>
    <frame tileid="167" duration="150"/>
    <frame tileid="297" duration="150"/>
    <frame tileid="427" duration="150"/>
    <frame tileid="557" duration="150"/>
    <frame tileid="687" duration="150"/>
   </animation>
  </tile>
  <tile id="38">
   <animation>
    <frame tileid="38" duration="150"/>
    <frame tileid="168" duration="150"/>
    <frame tileid="298" duration="150"/>
    <frame tileid="428" duration="150"/>
    <frame tileid="558" duration="150"/>
    <frame tileid="688" duration="150"/>
   </animation>
  </tile>
  <tile id="39">
   <animation>
    <frame tileid="39" duration="150"/>
    <frame tileid="169" duration="150"/>
    <frame tileid="299" duration="150"/>
    <frame tileid="429" duration="150"/>
    <frame tileid="559" duration="150"/>
    <frame tileid="689" duration="150"/>
   </animation>
  </tile>
  <tile id="40">
   <animation>
    <frame tileid="40" duration="150"/>
    <frame tileid="170" duration="150"/>
    <frame tileid="300" duration="150"/>
    <frame tileid="430" duration="150"/>
    <frame tileid="560" duration="150"/>
    <frame tileid="690" duration="150"/>
   </animation>
  </tile>
  <tile id="41">
   <animation>
    <frame tileid="41" duration="150"/>
    <frame tileid="171" duration="150"/>
    <frame tileid="301" duration="150"/>
    <frame tileid="431" duration="150"/>
    <frame tileid="561" duration="150"/>
    <frame tileid="691" duration="150"/>
   </animation>
  </tile>
  <tile id="42">
   <animation>
    <frame tileid="42" duration="150"/>
    <frame tileid="172" duration="150"/>
    <frame tileid="302" duration="150"/>
    <frame tileid="432" duration="150"/>
    <frame tileid="562" duration="150"/>
    <frame tileid="692" duration="150"/>
   </animation>
  </tile>
  <tile id="43">
   <animation>
    <frame tileid="43" duration="150"/>
    <frame tileid="173" duration="150"/>
    <frame tileid="303" duration="150"/>
    <frame tileid="433" duration="150"/>
    <frame tileid="563" duration="150"/>
    <frame tileid="693" duration="150"/>
   </animation>
  </tile>
  <tile id="45">
   <animation>
    <frame tileid="45" duration="150"/>
    <frame tileid="175" duration="150"/>
    <frame tileid="305" duration="150"/>
    <frame tileid="435" duration="150"/>
    <frame tileid="565" duration="150"/>
    <frame tileid="695" duration="150"/>
   </animation>
  </tile>
  <tile id="46">
   <animation>
    <frame tileid="46" duration="150"/>
    <frame tileid="176" duration="150"/>
    <frame tileid="306" duration="150"/>
    <frame tileid="436" duration="150"/>
    <frame tileid="566" duration="150"/>
    <frame tileid="696" duration="150"/>
   </animation>
  </tile>
  <tile id="47">
   <animation>
    <frame tileid="47" duration="150"/>
    <frame tileid="177" duration="150"/>
    <frame tileid="307" duration="150"/>
    <frame tileid="437" duration="150"/>
    <frame tileid="567" duration="150"/>
    <frame tileid="697" duration="150"/>
   </animation>
  </tile>
  <tile id="48">
   <animation>
    <frame tileid="48" duration="150"/>
    <frame tileid="178" duration="150"/>
    <frame tileid="308" duration="150"/>
    <frame tileid="438" duration="150"/>
    <frame tileid="568" duration="150"/>
    <frame tileid="698" duration="150"/>
   </animation>
  </tile>
  <tile id="50">
   <animation>
    <frame tileid="50" duration="150"/>
    <frame tileid="180" duration="150"/>
    <frame tileid="310" duration="150"/>
    <frame tileid="440" duration="150"/>
    <frame tileid="570" duration="150"/>
    <frame tileid="700" duration="150"/>
   </animation>
  </tile>
  <tile id="51">
   <animation>
    <frame tileid="51" duration="150"/>
    <frame tileid="181" duration="150"/>
    <frame tileid="311" duration="150"/>
    <frame tileid="441" duration="150"/>
    <frame tileid="571" duration="150"/>
    <frame tileid="701" duration="150"/>
   </animation>
  </tile>
  <tile id="63">
   <animation>
    <frame tileid="63" duration="150"/>
    <frame tileid="193" duration="150"/>
    <frame tileid="323" duration="150"/>
    <frame tileid="453" duration="150"/>
    <frame tileid="583" duration="150"/>
    <frame tileid="713" duration="150"/>
   </animation>
  </tile>
  <tile id="64">
   <animation>
    <frame tileid="64" duration="150"/>
    <frame tileid="194" duration="150"/>
    <frame tileid="324" duration="150"/>
    <frame tileid="454" duration="150"/>
    <frame tileid="584" duration="150"/>
    <frame tileid="714" duration="150"/>
   </animation>
  </tile>
  <tile id="78">
   <animation>
    <frame tileid="78" duration="150"/>
    <frame tileid="208" duration="150"/>
    <frame tileid="338" duration="150"/>
    <frame tileid="468" duration="150"/>
    <frame tileid="598" duration="150"/>
    <frame tileid="728" duration="150"/>
   </animation>
  </tile>
  <tile id="79">
   <animation>
    <frame tileid="79" duration="150"/>
    <frame tileid="209" duration="150"/>
    <frame tileid="339" duration="150"/>
    <frame tileid="469" duration="150"/>
    <frame tileid="599" duration="150"/>
    <frame tileid="729" duration="150"/>
   </animation>
  </tile>
  <tile id="80">
   <animation>
    <frame tileid="80" duration="150"/>
    <frame tileid="210" duration="150"/>
    <frame tileid="340" duration="150"/>
    <frame tileid="470" duration="150"/>
    <frame tileid="600" duration="150"/>
    <frame tileid="730" duration="150"/>
   </animation>
  </tile>
  <tile id="81">
   <animation>
    <frame tileid="81" duration="150"/>
    <frame tileid="211" duration="150"/>
    <frame tileid="341" duration="150"/>
    <frame tileid="471" duration="150"/>
    <frame tileid="601" duration="150"/>
    <frame tileid="731" duration="150"/>
   </animation>
  </tile>
  <tile id="82">
   <animation>
    <frame tileid="82" duration="150"/>
    <frame tileid="212" duration="150"/>
    <frame tileid="342" duration="150"/>
    <frame tileid="472" duration="150"/>
    <frame tileid="602" duration="150"/>
    <frame tileid="732" duration="150"/>
   </animation>
  </tile>
  <tile id="83">
   <animation>
    <frame tileid="83" duration="150"/>
    <frame tileid="213" duration="150"/>
    <frame tileid="343" duration="150"/>
    <frame tileid="473" duration="150"/>
    <frame tileid="603" duration="150"/>
    <frame tileid="733" duration="150"/>
   </animation>
  </tile>
  <tile id="84">
   <animation>
    <frame tileid="84" duration="150"/>
    <frame tileid="214" duration="150"/>
    <frame tileid="344" duration="150"/>
    <frame tileid="474" duration="150"/>
    <frame tileid="604" duration="150"/>
    <frame tileid="734" duration="150"/>
   </animation>
  </tile>
  <tile id="85">
   <animation>
    <frame tileid="85" duration="150"/>
    <frame tileid="215" duration="150"/>
    <frame tileid="345" duration="150"/>
    <frame tileid="475" duration="150"/>
    <frame tileid="605" duration="150"/>
    <frame tileid="735" duration="150"/>
   </animation>
  </tile>
  <tile id="86">
   <animation>
    <frame tileid="86" duration="150"/>
    <frame tileid="216" duration="150"/>
    <frame tileid="346" duration="150"/>
    <frame tileid="476" duration="150"/>
    <frame tileid="606" duration="150"/>
    <frame tileid="736" duration="150"/>
   </animation>
  </tile>
  <tile id="87">
   <animation>
    <frame tileid="87" duration="150"/>
    <frame tileid="217" duration="150"/>
    <frame tileid="347" duration="150"/>
    <frame tileid="477" duration="150"/>
    <frame tileid="607" duration="150"/>
    <frame tileid="737" duration="150"/>
   </animation>
  </tile>
  <tile id="88">
   <animation>
    <frame tileid="88" duration="150"/>
    <frame tileid="218" duration="150"/>
    <frame tileid="348" duration="150"/>
    <frame tileid="478" duration="150"/>
    <frame tileid="608" duration="150"/>
    <frame tileid="738" duration="150"/>
   </animation>
  </tile>
  <tile id="89">
   <animation>
    <frame tileid="89" duration="150"/>
    <frame tileid="219" duration="150"/>
    <frame tileid="349" duration="150"/>
    <frame tileid="479" duration="150"/>
    <frame tileid="609" duration="150"/>
    <frame tileid="739" duration="150"/>
   </animation>
  </tile>
  <tile id="91">
   <animation>
    <frame tileid="91" duration="150"/>
    <frame tileid="221" duration="150"/>
    <frame tileid="351" duration="150"/>
    <frame tileid="481" duration="150"/>
    <frame tileid="611" duration="150"/>
    <frame tileid="741" duration="150"/>
   </animation>
  </tile>
  <tile id="97">
   <animation>
    <frame tileid="97" duration="150"/>
    <frame tileid="227" duration="150"/>
    <frame tileid="357" duration="150"/>
    <frame tileid="487" duration="150"/>
    <frame tileid="617" duration="150"/>
    <frame tileid="747" duration="150"/>
   </animation>
  </tile>
  <tile id="102">
   <animation>
    <frame tileid="102" duration="150"/>
    <frame tileid="232" duration="150"/>
    <frame tileid="362" duration="150"/>
    <frame tileid="492" duration="150"/>
    <frame tileid="622" duration="150"/>
    <frame tileid="752" duration="150"/>
   </animation>
  </tile>
  <tile id="103">
   <animation>
    <frame tileid="103" duration="150"/>
    <frame tileid="233" duration="150"/>
    <frame tileid="363" duration="150"/>
    <frame tileid="493" duration="150"/>
    <frame tileid="623" duration="150"/>
    <frame tileid="753" duration="150"/>
   </animation>
  </tile>
  <tile id="104">
   <animation>
    <frame tileid="104" duration="150"/>
    <frame tileid="234" duration="150"/>
    <frame tileid="364" duration="150"/>
    <frame tileid="494" duration="150"/>
    <frame tileid="624" duration="150"/>
    <frame tileid="754" duration="150"/>
   </animation>
  </tile>
  <tile id="105">
   <animation>
    <frame tileid="105" duration="150"/>
    <frame tileid="235" duration="150"/>
    <frame tileid="365" duration="150"/>
    <frame tileid="495" duration="150"/>
    <frame tileid="625" duration="150"/>
    <frame tileid="755" duration="150"/>
   </animation>
  </tile>
  <tile id="106">
   <animation>
    <frame tileid="106" duration="150"/>
    <frame tileid="236" duration="150"/>
    <frame tileid="366" duration="150"/>
    <frame tileid="496" duration="150"/>
    <frame tileid="626" duration="150"/>
    <frame tileid="756" duration="150"/>
   </animation>
  </tile>
  <tile id="107">
   <animation>
    <frame tileid="107" duration="150"/>
    <frame tileid="237" duration="150"/>
    <frame tileid="367" duration="150"/>
    <frame tileid="497" duration="150"/>
    <frame tileid="627" duration="150"/>
    <frame tileid="757" duration="150"/>
   </animation>
  </tile>
  <tile id="108">
   <animation>
    <frame tileid="108" duration="150"/>
    <frame tileid="238" duration="150"/>
    <frame tileid="368" duration="150"/>
    <frame tileid="498" duration="150"/>
    <frame tileid="628" duration="150"/>
    <frame tileid="758" duration="150"/>
   </animation>
  </tile>
  <tile id="109">
   <animation>
    <frame tileid="109" duration="150"/>
    <frame tileid="239" duration="150"/>
    <frame tileid="369" duration="150"/>
    <frame tileid="499" duration="150"/>
    <frame tileid="629" duration="150"/>
    <frame tileid="759" duration="150"/>
   </animation>
  </tile>
  <tile id="110">
   <animation>
    <frame tileid="110" duration="150"/>
    <frame tileid="240" duration="150"/>
    <frame tileid="370" duration="150"/>
    <frame tileid="500" duration="150"/>
    <frame tileid="630" duration="150"/>
    <frame tileid="760" duration="150"/>
   </animation>
  </tile>
  <tile id="111">
   <animation>
    <frame tileid="111" duration="150"/>
    <frame tileid="241" duration="150"/>
    <frame tileid="371" duration="150"/>
    <frame tileid="501" duration="150"/>
    <frame tileid="631" duration="150"/>
    <frame tileid="761" duration="150"/>
   </animation>
  </tile>
  <tile id="112">
   <animation>
    <frame tileid="112" duration="150"/>
    <frame tileid="242" duration="150"/>
    <frame tileid="372" duration="150"/>
    <frame tileid="502" duration="150"/>
    <frame tileid="632" duration="150"/>
    <frame tileid="762" duration="150"/>
   </animation>
  </tile>
  <tile id="113">
   <animation>
    <frame tileid="113" duration="150"/>
    <frame tileid="243" duration="150"/>
    <frame tileid="373" duration="150"/>
    <frame tileid="503" duration="150"/>
    <frame tileid="633" duration="150"/>
    <frame tileid="763" duration="150"/>
   </animation>
  </tile>
  <tile id="114">
   <animation>
    <frame tileid="114" duration="150"/>
    <frame tileid="244" duration="150"/>
    <frame tileid="374" duration="150"/>
    <frame tileid="504" duration="150"/>
    <frame tileid="634" duration="150"/>
    <frame tileid="764" duration="150"/>
   </animation>
  </tile>
  <tile id="115">
   <animation>
    <frame tileid="115" duration="150"/>
    <frame tileid="245" duration="150"/>
    <frame tileid="375" duration="150"/>
    <frame tileid="505" duration="150"/>
    <frame tileid="635" duration="150"/>
    <frame tileid="765" duration="150"/>
   </animation>
  </tile>
  <tile id="116">
   <animation>
    <frame tileid="116" duration="150"/>
    <frame tileid="246" duration="150"/>
    <frame tileid="376" duration="150"/>
    <frame tileid="506" duration="150"/>
    <frame tileid="636" duration="150"/>
    <frame tileid="766" duration="150"/>
   </animation>
  </tile>
  <tile id="117">
   <animation>
    <frame tileid="117" duration="150"/>
    <frame tileid="247" duration="150"/>
    <frame tileid="377" duration="150"/>
    <frame tileid="507" duration="150"/>
    <frame tileid="637" duration="150"/>
    <frame tileid="767" duration="150"/>
   </animation>
  </tile>
  <tile id="118">
   <animation>
    <frame tileid="118" duration="150"/>
    <frame tileid="248" duration="150"/>
    <frame tileid="378" duration="150"/>
    <frame tileid="508" duration="150"/>
    <frame tileid="638" duration="150"/>
    <frame tileid="768" duration="150"/>
   </animation>
  </tile>
  <tile id="119">
   <animation>
    <frame tileid="119" duration="150"/>
    <frame tileid="249" duration="150"/>
    <frame tileid="379" duration="150"/>
    <frame tileid="509" duration="150"/>
    <frame tileid="639" duration="150"/>
    <frame tileid="769" duration="150"/>
   </animation>
  </tile>
  <tile id="120">
   <animation>
    <frame tileid="120" duration="150"/>
    <frame tileid="250" duration="150"/>
    <frame tileid="380" duration="150"/>
    <frame tileid="510" duration="150"/>
    <frame tileid="640" duration="150"/>
    <frame tileid="770" duration="150"/>
   </animation>
  </tile>
  <tile id="121">
   <animation>
    <frame tileid="121" duration="150"/>
    <frame tileid="251" duration="150"/>
    <frame tileid="381" duration="150"/>
    <frame tileid="511" duration="150"/>
    <frame tileid="641" duration="150"/>
    <frame tileid="771" duration="150"/>
   </animation>
  </tile>
  <tile id="122">
   <animation>
    <frame tileid="122" duration="150"/>
    <frame tileid="252" duration="150"/>
    <frame tileid="382" duration="150"/>
    <frame tileid="512" duration="150"/>
    <frame tileid="642" duration="150"/>
    <frame tileid="772" duration="150"/>
   </animation>
  </tile>
  <tile id="123">
   <animation>
    <frame tileid="123" duration="150"/>
    <frame tileid="253" duration="150"/>
    <frame tileid="383" duration="150"/>
    <frame tileid="513" duration="150"/>
    <frame tileid="643" duration="150"/>
    <frame tileid="773" duration="150"/>
   </animation>
  </tile>
  <tile id="124">
   <animation>
    <frame tileid="124" duration="150"/>
    <frame tileid="254" duration="150"/>
    <frame tileid="384" duration="150"/>
    <frame tileid="514" duration="150"/>
    <frame tileid="644" duration="150"/>
    <frame tileid="774" duration="150"/>
   </animation>
  </tile>
  <tile id="125">
   <animation>
    <frame tileid="125" duration="150"/>
    <frame tileid="255" duration="150"/>
    <frame tileid="385" duration="150"/>
    <frame tileid="515" duration="150"/>
    <frame tileid="645" duration="150"/>
    <frame tileid="775" duration="150"/>
   </animation>
  </tile>
  <tile id="126">
   <animation>
    <frame tileid="126" duration="150"/>
    <frame tileid="256" duration="150"/>
    <frame tileid="386" duration="150"/>
    <frame tileid="516" duration="150"/>
    <frame tileid="646" duration="150"/>
    <frame tileid="776" duration="150"/>
   </animation>
  </tile>
  <tile id="127">
   <animation>
    <frame tileid="127" duration="150"/>
    <frame tileid="257" duration="150"/>
    <frame tileid="387" duration="150"/>
    <frame tileid="517" duration="150"/>
    <frame tileid="647" duration="150"/>
    <frame tileid="777" duration="150"/>
   </animation>
  </tile>
  <tile id="128">
   <animation>
    <frame tileid="128" duration="150"/>
    <frame tileid="258" duration="150"/>
    <frame tileid="388" duration="150"/>
    <frame tileid="518" duration="150"/>
    <frame tileid="648" duration="150"/>
    <frame tileid="778" duration="150"/>
   </animation>
  </tile>
  <tile id="129">
   <animation>
    <frame tileid="129" duration="150"/>
    <frame tileid="259" duration="150"/>
    <frame tileid="389" duration="150"/>
    <frame tileid="519" duration="150"/>
    <frame tileid="649" duration="150"/>
    <frame tileid="779" duration="150"/>
   </animation>
  </tile>
 </tileset>
 <tileset firstgid="781" name="Walls_street_main" tilewidth="16" tileheight="16" tilecount="300" columns="20">
  <image source="Walls_street_topside.png" width="320" height="240"/>
 </tileset>
 <tileset firstgid="1081" name="Spots" tilewidth="16" tileheight="16" tilecount="140" columns="14">
  <image source="Spots.png" width="224" height="160"/>
 </tileset>
 <tileset firstgid="1221" name="Water_detilazation" tilewidth="16" tileheight="16" tilecount="2886" columns="37">
  <image source="water_details_animation.png" width="592" height="1248"/>
  <tile id="40">
   <animation>
    <frame tileid="40" duration="150"/>
    <frame tileid="521" duration="150"/>
    <frame tileid="1002" duration="150"/>
    <frame tileid="1483" duration="150"/>
    <frame tileid="1964" duration="150"/>
    <frame tileid="2445" duration="150"/>
   </animation>
  </tile>
  <tile id="41">
   <animation>
    <frame tileid="41" duration="150"/>
    <frame tileid="522" duration="150"/>
    <frame tileid="1003" duration="150"/>
    <frame tileid="1484" duration="150"/>
    <frame tileid="1965" duration="150"/>
    <frame tileid="2446" duration="150"/>
   </animation>
  </tile>
  <tile id="42">
   <animation>
    <frame tileid="42" duration="150"/>
    <frame tileid="523" duration="150"/>
    <frame tileid="1004" duration="150"/>
    <frame tileid="1485" duration="150"/>
    <frame tileid="1966" duration="150"/>
    <frame tileid="2447" duration="150"/>
   </animation>
  </tile>
  <tile id="43">
   <animation>
    <frame tileid="43" duration="150"/>
    <frame tileid="524" duration="150"/>
    <frame tileid="1005" duration="150"/>
    <frame tileid="1486" duration="150"/>
    <frame tileid="1967" duration="150"/>
    <frame tileid="2448" duration="150"/>
   </animation>
  </tile>
  <tile id="44">
   <animation>
    <frame tileid="44" duration="150"/>
    <frame tileid="525" duration="150"/>
    <frame tileid="1006" duration="150"/>
    <frame tileid="1487" duration="150"/>
    <frame tileid="1968" duration="150"/>
    <frame tileid="2449" duration="150"/>
   </animation>
  </tile>
  <tile id="45">
   <animation>
    <frame tileid="45" duration="150"/>
    <frame tileid="526" duration="150"/>
    <frame tileid="1007" duration="150"/>
    <frame tileid="1488" duration="150"/>
    <frame tileid="1969" duration="150"/>
    <frame tileid="2450" duration="150"/>
   </animation>
  </tile>
  <tile id="46">
   <animation>
    <frame tileid="46" duration="150"/>
    <frame tileid="527" duration="150"/>
    <frame tileid="1008" duration="150"/>
    <frame tileid="1489" duration="150"/>
    <frame tileid="1970" duration="150"/>
    <frame tileid="2451" duration="150"/>
   </animation>
  </tile>
  <tile id="47">
   <animation>
    <frame tileid="47" duration="150"/>
    <frame tileid="528" duration="150"/>
    <frame tileid="1009" duration="150"/>
    <frame tileid="1490" duration="150"/>
    <frame tileid="1971" duration="150"/>
    <frame tileid="2452" duration="150"/>
   </animation>
  </tile>
  <tile id="48">
   <animation>
    <frame tileid="48" duration="150"/>
    <frame tileid="529" duration="150"/>
    <frame tileid="1010" duration="150"/>
    <frame tileid="1491" duration="150"/>
    <frame tileid="1972" duration="150"/>
    <frame tileid="2453" duration="150"/>
   </animation>
  </tile>
  <tile id="49">
   <animation>
    <frame tileid="49" duration="150"/>
    <frame tileid="530" duration="150"/>
    <frame tileid="1011" duration="150"/>
    <frame tileid="1492" duration="150"/>
    <frame tileid="1973" duration="150"/>
    <frame tileid="2454" duration="150"/>
   </animation>
  </tile>
  <tile id="50">
   <animation>
    <frame tileid="50" duration="150"/>
    <frame tileid="531" duration="150"/>
    <frame tileid="1012" duration="150"/>
    <frame tileid="1493" duration="150"/>
    <frame tileid="1974" duration="150"/>
    <frame tileid="2455" duration="150"/>
   </animation>
  </tile>
  <tile id="51">
   <animation>
    <frame tileid="51" duration="150"/>
    <frame tileid="532" duration="150"/>
    <frame tileid="1013" duration="150"/>
    <frame tileid="1494" duration="150"/>
    <frame tileid="1975" duration="150"/>
    <frame tileid="2456" duration="150"/>
   </animation>
  </tile>
  <tile id="52">
   <animation>
    <frame tileid="52" duration="150"/>
    <frame tileid="533" duration="150"/>
    <frame tileid="1014" duration="150"/>
    <frame tileid="1495" duration="150"/>
    <frame tileid="1976" duration="150"/>
    <frame tileid="2457" duration="150"/>
   </animation>
  </tile>
  <tile id="53">
   <animation>
    <frame tileid="53" duration="150"/>
    <frame tileid="534" duration="150"/>
    <frame tileid="1015" duration="150"/>
    <frame tileid="1496" duration="150"/>
    <frame tileid="1977" duration="150"/>
    <frame tileid="2458" duration="150"/>
   </animation>
  </tile>
  <tile id="56">
   <animation>
    <frame tileid="56" duration="150"/>
    <frame tileid="537" duration="150"/>
    <frame tileid="1018" duration="150"/>
    <frame tileid="1499" duration="150"/>
    <frame tileid="1980" duration="150"/>
    <frame tileid="2461" duration="150"/>
   </animation>
  </tile>
  <tile id="57">
   <animation>
    <frame tileid="57" duration="150"/>
    <frame tileid="538" duration="150"/>
    <frame tileid="1019" duration="150"/>
    <frame tileid="1500" duration="150"/>
    <frame tileid="1981" duration="150"/>
    <frame tileid="2462" duration="150"/>
   </animation>
  </tile>
  <tile id="58">
   <animation>
    <frame tileid="58" duration="150"/>
    <frame tileid="539" duration="150"/>
    <frame tileid="1020" duration="150"/>
    <frame tileid="1501" duration="150"/>
    <frame tileid="1982" duration="150"/>
    <frame tileid="2463" duration="150"/>
   </animation>
  </tile>
  <tile id="59">
   <animation>
    <frame tileid="59" duration="150"/>
    <frame tileid="540" duration="150"/>
    <frame tileid="1021" duration="150"/>
    <frame tileid="1502" duration="150"/>
    <frame tileid="1983" duration="150"/>
    <frame tileid="2464" duration="150"/>
   </animation>
  </tile>
  <tile id="60">
   <animation>
    <frame tileid="60" duration="150"/>
    <frame tileid="541" duration="150"/>
    <frame tileid="1022" duration="150"/>
    <frame tileid="1503" duration="150"/>
    <frame tileid="1984" duration="150"/>
    <frame tileid="2465" duration="150"/>
   </animation>
  </tile>
  <tile id="61">
   <animation>
    <frame tileid="61" duration="150"/>
    <frame tileid="542" duration="150"/>
    <frame tileid="1023" duration="150"/>
    <frame tileid="1504" duration="150"/>
    <frame tileid="1985" duration="150"/>
    <frame tileid="2466" duration="150"/>
   </animation>
  </tile>
  <tile id="62">
   <animation>
    <frame tileid="62" duration="150"/>
    <frame tileid="543" duration="150"/>
    <frame tileid="1024" duration="150"/>
    <frame tileid="1505" duration="150"/>
    <frame tileid="1986" duration="150"/>
    <frame tileid="2467" duration="150"/>
   </animation>
  </tile>
  <tile id="63">
   <animation>
    <frame tileid="63" duration="150"/>
    <frame tileid="544" duration="150"/>
    <frame tileid="1025" duration="150"/>
    <frame tileid="1506" duration="150"/>
    <frame tileid="1987" duration="150"/>
    <frame tileid="2468" duration="150"/>
   </animation>
  </tile>
  <tile id="74">
   <animation>
    <frame tileid="74" duration="150"/>
    <frame tileid="555" duration="150"/>
    <frame tileid="1036" duration="150"/>
    <frame tileid="1517" duration="150"/>
    <frame tileid="1998" duration="150"/>
    <frame tileid="2479" duration="150"/>
   </animation>
  </tile>
  <tile id="75">
   <animation>
    <frame tileid="75" duration="150"/>
    <frame tileid="556" duration="150"/>
    <frame tileid="1037" duration="150"/>
    <frame tileid="1518" duration="150"/>
    <frame tileid="1999" duration="150"/>
    <frame tileid="2480" duration="150"/>
   </animation>
  </tile>
  <tile id="76">
   <animation>
    <frame tileid="76" duration="150"/>
    <frame tileid="557" duration="150"/>
    <frame tileid="1038" duration="150"/>
    <frame tileid="1519" duration="150"/>
    <frame tileid="2000" duration="150"/>
    <frame tileid="2481" duration="150"/>
   </animation>
  </tile>
  <tile id="77">
   <animation>
    <frame tileid="77" duration="150"/>
    <frame tileid="558" duration="150"/>
    <frame tileid="1039" duration="150"/>
    <frame tileid="1520" duration="150"/>
    <frame tileid="2001" duration="150"/>
    <frame tileid="2482" duration="150"/>
   </animation>
  </tile>
  <tile id="78">
   <animation>
    <frame tileid="78" duration="150"/>
    <frame tileid="559" duration="150"/>
    <frame tileid="1040" duration="150"/>
    <frame tileid="1521" duration="150"/>
    <frame tileid="2002" duration="150"/>
    <frame tileid="2483" duration="150"/>
   </animation>
  </tile>
  <tile id="79">
   <animation>
    <frame tileid="79" duration="150"/>
    <frame tileid="560" duration="150"/>
    <frame tileid="1041" duration="150"/>
    <frame tileid="1522" duration="150"/>
    <frame tileid="2003" duration="150"/>
    <frame tileid="2484" duration="150"/>
   </animation>
  </tile>
  <tile id="80">
   <animation>
    <frame tileid="80" duration="150"/>
    <frame tileid="561" duration="150"/>
    <frame tileid="1042" duration="150"/>
    <frame tileid="1523" duration="150"/>
    <frame tileid="2004" duration="150"/>
    <frame tileid="2485" duration="150"/>
   </animation>
  </tile>
  <tile id="81">
   <animation>
    <frame tileid="81" duration="150"/>
    <frame tileid="562" duration="150"/>
    <frame tileid="1043" duration="150"/>
    <frame tileid="1524" duration="150"/>
    <frame tileid="2005" duration="150"/>
    <frame tileid="2486" duration="150"/>
   </animation>
  </tile>
  <tile id="82">
   <animation>
    <frame tileid="82" duration="150"/>
    <frame tileid="563" duration="150"/>
    <frame tileid="1044" duration="150"/>
    <frame tileid="1525" duration="150"/>
    <frame tileid="2006" duration="150"/>
    <frame tileid="2487" duration="150"/>
   </animation>
  </tile>
  <tile id="83">
   <animation>
    <frame tileid="83" duration="150"/>
    <frame tileid="564" duration="150"/>
    <frame tileid="1045" duration="150"/>
    <frame tileid="1526" duration="150"/>
    <frame tileid="2007" duration="150"/>
    <frame tileid="2488" duration="150"/>
   </animation>
  </tile>
  <tile id="84">
   <animation>
    <frame tileid="84" duration="150"/>
    <frame tileid="565" duration="150"/>
    <frame tileid="1046" duration="150"/>
    <frame tileid="1527" duration="150"/>
    <frame tileid="2008" duration="150"/>
    <frame tileid="2489" duration="150"/>
   </animation>
  </tile>
  <tile id="85">
   <animation>
    <frame tileid="85" duration="150"/>
    <frame tileid="566" duration="150"/>
    <frame tileid="1047" duration="150"/>
    <frame tileid="1528" duration="150"/>
    <frame tileid="2009" duration="150"/>
    <frame tileid="2490" duration="150"/>
   </animation>
  </tile>
  <tile id="86">
   <animation>
    <frame tileid="86" duration="150"/>
    <frame tileid="567" duration="150"/>
    <frame tileid="1048" duration="150"/>
    <frame tileid="1529" duration="150"/>
    <frame tileid="2010" duration="150"/>
    <frame tileid="2491" duration="150"/>
   </animation>
  </tile>
  <tile id="87">
   <animation>
    <frame tileid="87" duration="150"/>
    <frame tileid="568" duration="150"/>
    <frame tileid="1049" duration="150"/>
    <frame tileid="1530" duration="150"/>
    <frame tileid="2011" duration="150"/>
    <frame tileid="2492" duration="150"/>
   </animation>
  </tile>
  <tile id="88">
   <animation>
    <frame tileid="88" duration="150"/>
    <frame tileid="569" duration="150"/>
    <frame tileid="1050" duration="150"/>
    <frame tileid="1531" duration="150"/>
    <frame tileid="2012" duration="150"/>
    <frame tileid="2493" duration="150"/>
   </animation>
  </tile>
  <tile id="89">
   <animation>
    <frame tileid="89" duration="150"/>
    <frame tileid="570" duration="150"/>
    <frame tileid="1051" duration="150"/>
    <frame tileid="1532" duration="150"/>
    <frame tileid="2013" duration="150"/>
    <frame tileid="2494" duration="150"/>
   </animation>
  </tile>
  <tile id="90">
   <animation>
    <frame tileid="90" duration="150"/>
    <frame tileid="571" duration="150"/>
    <frame tileid="1052" duration="150"/>
    <frame tileid="1533" duration="150"/>
    <frame tileid="2014" duration="150"/>
    <frame tileid="2495" duration="150"/>
   </animation>
  </tile>
  <tile id="92">
   <animation>
    <frame tileid="92" duration="150"/>
    <frame tileid="573" duration="150"/>
    <frame tileid="1054" duration="150"/>
    <frame tileid="1535" duration="150"/>
    <frame tileid="2016" duration="150"/>
    <frame tileid="2497" duration="150"/>
   </animation>
  </tile>
  <tile id="93">
   <animation>
    <frame tileid="93" duration="150"/>
    <frame tileid="574" duration="150"/>
    <frame tileid="1055" duration="150"/>
    <frame tileid="1536" duration="150"/>
    <frame tileid="2017" duration="150"/>
    <frame tileid="2498" duration="150"/>
   </animation>
  </tile>
  <tile id="94">
   <animation>
    <frame tileid="94" duration="150"/>
    <frame tileid="575" duration="150"/>
    <frame tileid="1056" duration="150"/>
    <frame tileid="1537" duration="150"/>
    <frame tileid="2018" duration="150"/>
    <frame tileid="2499" duration="150"/>
   </animation>
  </tile>
  <tile id="95">
   <animation>
    <frame tileid="95" duration="150"/>
    <frame tileid="576" duration="150"/>
    <frame tileid="1057" duration="150"/>
    <frame tileid="1538" duration="150"/>
    <frame tileid="2019" duration="150"/>
    <frame tileid="2500" duration="150"/>
   </animation>
  </tile>
  <tile id="96">
   <animation>
    <frame tileid="96" duration="150"/>
    <frame tileid="577" duration="150"/>
    <frame tileid="1058" duration="150"/>
    <frame tileid="1539" duration="150"/>
    <frame tileid="2020" duration="150"/>
    <frame tileid="2501" duration="150"/>
   </animation>
  </tile>
  <tile id="97">
   <animation>
    <frame tileid="97" duration="150"/>
    <frame tileid="578" duration="150"/>
    <frame tileid="1059" duration="150"/>
    <frame tileid="1540" duration="150"/>
    <frame tileid="2021" duration="150"/>
    <frame tileid="2502" duration="150"/>
   </animation>
  </tile>
  <tile id="98">
   <animation>
    <frame tileid="98" duration="150"/>
    <frame tileid="579" duration="150"/>
    <frame tileid="1060" duration="150"/>
    <frame tileid="1541" duration="150"/>
    <frame tileid="2022" duration="150"/>
    <frame tileid="2503" duration="150"/>
   </animation>
  </tile>
  <tile id="99">
   <animation>
    <frame tileid="99" duration="150"/>
    <frame tileid="580" duration="150"/>
    <frame tileid="1061" duration="150"/>
    <frame tileid="1542" duration="150"/>
    <frame tileid="2023" duration="150"/>
    <frame tileid="2504" duration="150"/>
   </animation>
  </tile>
  <tile id="100">
   <animation>
    <frame tileid="100" duration="150"/>
    <frame tileid="581" duration="150"/>
    <frame tileid="1062" duration="150"/>
    <frame tileid="1543" duration="150"/>
    <frame tileid="2024" duration="150"/>
    <frame tileid="2505" duration="150"/>
   </animation>
  </tile>
  <tile id="101">
   <animation>
    <frame tileid="101" duration="150"/>
    <frame tileid="582" duration="150"/>
    <frame tileid="1063" duration="150"/>
    <frame tileid="1544" duration="150"/>
    <frame tileid="2025" duration="150"/>
    <frame tileid="2506" duration="150"/>
   </animation>
  </tile>
  <tile id="102">
   <animation>
    <frame tileid="102" duration="150"/>
    <frame tileid="583" duration="150"/>
    <frame tileid="1064" duration="150"/>
    <frame tileid="1545" duration="150"/>
    <frame tileid="2026" duration="150"/>
    <frame tileid="2507" duration="150"/>
   </animation>
  </tile>
  <tile id="103">
   <animation>
    <frame tileid="103" duration="150"/>
    <frame tileid="584" duration="150"/>
    <frame tileid="1065" duration="150"/>
    <frame tileid="1546" duration="150"/>
    <frame tileid="2027" duration="150"/>
    <frame tileid="2508" duration="150"/>
   </animation>
  </tile>
  <tile id="105">
   <animation>
    <frame tileid="105" duration="150"/>
    <frame tileid="586" duration="150"/>
    <frame tileid="1067" duration="150"/>
    <frame tileid="1548" duration="150"/>
    <frame tileid="2029" duration="150"/>
    <frame tileid="2510" duration="150"/>
   </animation>
  </tile>
  <tile id="106">
   <animation>
    <frame tileid="106" duration="150"/>
    <frame tileid="587" duration="150"/>
    <frame tileid="1068" duration="150"/>
    <frame tileid="1549" duration="150"/>
    <frame tileid="2030" duration="150"/>
    <frame tileid="2511" duration="150"/>
   </animation>
  </tile>
  <tile id="107">
   <animation>
    <frame tileid="107" duration="150"/>
    <frame tileid="588" duration="150"/>
    <frame tileid="1069" duration="150"/>
    <frame tileid="1550" duration="150"/>
    <frame tileid="2031" duration="150"/>
    <frame tileid="2512" duration="150"/>
   </animation>
  </tile>
  <tile id="108">
   <animation>
    <frame tileid="108" duration="150"/>
    <frame tileid="589" duration="150"/>
    <frame tileid="1070" duration="150"/>
    <frame tileid="1551" duration="150"/>
    <frame tileid="2032" duration="150"/>
    <frame tileid="2513" duration="150"/>
   </animation>
  </tile>
  <tile id="109">
   <animation>
    <frame tileid="109" duration="150"/>
    <frame tileid="590" duration="150"/>
    <frame tileid="1071" duration="150"/>
    <frame tileid="1552" duration="150"/>
    <frame tileid="2033" duration="150"/>
    <frame tileid="2514" duration="150"/>
   </animation>
  </tile>
  <tile id="110">
   <animation>
    <frame tileid="110" duration="150"/>
    <frame tileid="591" duration="150"/>
    <frame tileid="1072" duration="150"/>
    <frame tileid="1553" duration="150"/>
    <frame tileid="2034" duration="150"/>
    <frame tileid="2515" duration="150"/>
   </animation>
  </tile>
  <tile id="112">
   <animation>
    <frame tileid="112" duration="150"/>
    <frame tileid="593" duration="150"/>
    <frame tileid="1074" duration="150"/>
    <frame tileid="1555" duration="150"/>
    <frame tileid="2036" duration="150"/>
    <frame tileid="2517" duration="150"/>
   </animation>
  </tile>
  <tile id="113">
   <animation>
    <frame tileid="113" duration="150"/>
    <frame tileid="594" duration="150"/>
    <frame tileid="1075" duration="150"/>
    <frame tileid="1556" duration="150"/>
    <frame tileid="2037" duration="150"/>
    <frame tileid="2518" duration="150"/>
   </animation>
  </tile>
  <tile id="114">
   <animation>
    <frame tileid="114" duration="150"/>
    <frame tileid="595" duration="150"/>
    <frame tileid="1076" duration="150"/>
    <frame tileid="1557" duration="150"/>
    <frame tileid="2038" duration="150"/>
    <frame tileid="2519" duration="150"/>
   </animation>
  </tile>
  <tile id="115">
   <animation>
    <frame tileid="115" duration="150"/>
    <frame tileid="596" duration="150"/>
    <frame tileid="1077" duration="150"/>
    <frame tileid="1558" duration="150"/>
    <frame tileid="2039" duration="150"/>
    <frame tileid="2520" duration="150"/>
   </animation>
  </tile>
  <tile id="116">
   <animation>
    <frame tileid="116" duration="150"/>
    <frame tileid="597" duration="150"/>
    <frame tileid="1078" duration="150"/>
    <frame tileid="1559" duration="150"/>
    <frame tileid="2040" duration="150"/>
    <frame tileid="2521" duration="150"/>
   </animation>
  </tile>
  <tile id="117">
   <animation>
    <frame tileid="117" duration="150"/>
    <frame tileid="598" duration="150"/>
    <frame tileid="1079" duration="150"/>
    <frame tileid="1560" duration="150"/>
    <frame tileid="2041" duration="150"/>
    <frame tileid="2522" duration="150"/>
   </animation>
  </tile>
  <tile id="118">
   <animation>
    <frame tileid="118" duration="150"/>
    <frame tileid="599" duration="150"/>
    <frame tileid="1080" duration="150"/>
    <frame tileid="1561" duration="150"/>
    <frame tileid="2042" duration="150"/>
    <frame tileid="2523" duration="150"/>
   </animation>
  </tile>
  <tile id="119">
   <animation>
    <frame tileid="119" duration="150"/>
    <frame tileid="600" duration="150"/>
    <frame tileid="1081" duration="150"/>
    <frame tileid="1562" duration="150"/>
    <frame tileid="2043" duration="150"/>
    <frame tileid="2524" duration="150"/>
   </animation>
  </tile>
  <tile id="120">
   <animation>
    <frame tileid="120" duration="150"/>
    <frame tileid="601" duration="150"/>
    <frame tileid="1082" duration="150"/>
    <frame tileid="1563" duration="150"/>
    <frame tileid="2044" duration="150"/>
    <frame tileid="2525" duration="150"/>
   </animation>
  </tile>
  <tile id="121">
   <animation>
    <frame tileid="121" duration="150"/>
    <frame tileid="602" duration="150"/>
    <frame tileid="1083" duration="150"/>
    <frame tileid="1564" duration="150"/>
    <frame tileid="2045" duration="150"/>
    <frame tileid="2526" duration="150"/>
   </animation>
  </tile>
  <tile id="122">
   <animation>
    <frame tileid="122" duration="150"/>
    <frame tileid="603" duration="150"/>
    <frame tileid="1084" duration="150"/>
    <frame tileid="1565" duration="150"/>
    <frame tileid="2046" duration="150"/>
    <frame tileid="2527" duration="150"/>
   </animation>
  </tile>
  <tile id="131">
   <animation>
    <frame tileid="131" duration="150"/>
    <frame tileid="612" duration="150"/>
    <frame tileid="1093" duration="150"/>
    <frame tileid="1574" duration="150"/>
    <frame tileid="2055" duration="150"/>
    <frame tileid="2536" duration="150"/>
   </animation>
  </tile>
  <tile id="132">
   <animation>
    <frame tileid="132" duration="150"/>
    <frame tileid="613" duration="150"/>
    <frame tileid="1094" duration="150"/>
    <frame tileid="1575" duration="150"/>
    <frame tileid="2056" duration="150"/>
    <frame tileid="2537" duration="150"/>
   </animation>
  </tile>
  <tile id="133">
   <animation>
    <frame tileid="133" duration="150"/>
    <frame tileid="614" duration="150"/>
    <frame tileid="1095" duration="150"/>
    <frame tileid="1576" duration="150"/>
    <frame tileid="2057" duration="150"/>
    <frame tileid="2538" duration="150"/>
   </animation>
  </tile>
  <tile id="134">
   <animation>
    <frame tileid="134" duration="150"/>
    <frame tileid="615" duration="150"/>
    <frame tileid="1096" duration="150"/>
    <frame tileid="1577" duration="150"/>
    <frame tileid="2058" duration="150"/>
    <frame tileid="2539" duration="150"/>
   </animation>
  </tile>
  <tile id="135">
   <animation>
    <frame tileid="135" duration="150"/>
    <frame tileid="616" duration="150"/>
    <frame tileid="1097" duration="150"/>
    <frame tileid="1578" duration="150"/>
    <frame tileid="2059" duration="150"/>
    <frame tileid="2540" duration="150"/>
   </animation>
  </tile>
  <tile id="136">
   <animation>
    <frame tileid="136" duration="150"/>
    <frame tileid="617" duration="150"/>
    <frame tileid="1098" duration="150"/>
    <frame tileid="1579" duration="150"/>
    <frame tileid="2060" duration="150"/>
    <frame tileid="2541" duration="150"/>
   </animation>
  </tile>
  <tile id="137">
   <animation>
    <frame tileid="137" duration="150"/>
    <frame tileid="618" duration="150"/>
    <frame tileid="1099" duration="150"/>
    <frame tileid="1580" duration="150"/>
    <frame tileid="2060" duration="150"/>
    <frame tileid="2542" duration="150"/>
   </animation>
  </tile>
  <tile id="138">
   <animation>
    <frame tileid="138" duration="150"/>
    <frame tileid="619" duration="150"/>
    <frame tileid="1100" duration="150"/>
    <frame tileid="1581" duration="150"/>
    <frame tileid="2062" duration="150"/>
    <frame tileid="2543" duration="150"/>
   </animation>
  </tile>
  <tile id="176">
   <animation>
    <frame tileid="176" duration="150"/>
    <frame tileid="657" duration="150"/>
    <frame tileid="1138" duration="150"/>
    <frame tileid="1619" duration="150"/>
    <frame tileid="2100" duration="150"/>
    <frame tileid="2581" duration="150"/>
   </animation>
  </tile>
  <tile id="177">
   <animation>
    <frame tileid="177" duration="150"/>
    <frame tileid="658" duration="150"/>
    <frame tileid="1139" duration="150"/>
    <frame tileid="1620" duration="150"/>
    <frame tileid="2101" duration="150"/>
    <frame tileid="2582" duration="150"/>
   </animation>
  </tile>
  <tile id="178">
   <animation>
    <frame tileid="178" duration="150"/>
    <frame tileid="659" duration="150"/>
    <frame tileid="1140" duration="150"/>
    <frame tileid="1621" duration="150"/>
    <frame tileid="2102" duration="150"/>
    <frame tileid="2583" duration="150"/>
   </animation>
  </tile>
  <tile id="179">
   <animation>
    <frame tileid="179" duration="150"/>
    <frame tileid="660" duration="150"/>
    <frame tileid="1141" duration="150"/>
    <frame tileid="1622" duration="150"/>
    <frame tileid="2103" duration="150"/>
    <frame tileid="2584" duration="150"/>
   </animation>
  </tile>
  <tile id="180">
   <animation>
    <frame tileid="180" duration="150"/>
    <frame tileid="661" duration="150"/>
    <frame tileid="1142" duration="150"/>
    <frame tileid="1623" duration="150"/>
    <frame tileid="2104" duration="150"/>
    <frame tileid="2585" duration="150"/>
   </animation>
  </tile>
  <tile id="188">
   <animation>
    <frame tileid="188" duration="150"/>
    <frame tileid="669" duration="150"/>
    <frame tileid="1150" duration="150"/>
    <frame tileid="1631" duration="150"/>
    <frame tileid="2112" duration="150"/>
    <frame tileid="2593" duration="150"/>
   </animation>
  </tile>
  <tile id="189">
   <animation>
    <frame tileid="189" duration="150"/>
    <frame tileid="670" duration="150"/>
    <frame tileid="1151" duration="150"/>
    <frame tileid="1632" duration="150"/>
    <frame tileid="2113" duration="150"/>
    <frame tileid="2594" duration="150"/>
   </animation>
  </tile>
  <tile id="190">
   <animation>
    <frame tileid="190" duration="150"/>
    <frame tileid="671" duration="150"/>
    <frame tileid="1152" duration="150"/>
    <frame tileid="1633" duration="150"/>
    <frame tileid="2114" duration="150"/>
    <frame tileid="2595" duration="150"/>
   </animation>
  </tile>
  <tile id="191">
   <animation>
    <frame tileid="191" duration="150"/>
    <frame tileid="672" duration="150"/>
    <frame tileid="1153" duration="150"/>
    <frame tileid="1634" duration="150"/>
    <frame tileid="2115" duration="150"/>
    <frame tileid="2596" duration="150"/>
   </animation>
  </tile>
  <tile id="192">
   <animation>
    <frame tileid="192" duration="150"/>
    <frame tileid="673" duration="150"/>
    <frame tileid="1154" duration="150"/>
    <frame tileid="1635" duration="150"/>
    <frame tileid="2116" duration="150"/>
    <frame tileid="2597" duration="150"/>
   </animation>
  </tile>
  <tile id="193">
   <animation>
    <frame tileid="193" duration="150"/>
    <frame tileid="674" duration="150"/>
    <frame tileid="1155" duration="150"/>
    <frame tileid="1636" duration="150"/>
    <frame tileid="2117" duration="150"/>
    <frame tileid="2598" duration="150"/>
   </animation>
  </tile>
  <tile id="194">
   <animation>
    <frame tileid="194" duration="150"/>
    <frame tileid="675" duration="150"/>
    <frame tileid="1156" duration="150"/>
    <frame tileid="1637" duration="150"/>
    <frame tileid="2118" duration="150"/>
    <frame tileid="2599" duration="150"/>
   </animation>
  </tile>
  <tile id="201">
   <animation>
    <frame tileid="201" duration="150"/>
    <frame tileid="682" duration="150"/>
    <frame tileid="1163" duration="150"/>
    <frame tileid="1644" duration="150"/>
    <frame tileid="2125" duration="150"/>
    <frame tileid="2606" duration="150"/>
   </animation>
  </tile>
  <tile id="202">
   <animation>
    <frame tileid="202" duration="150"/>
    <frame tileid="683" duration="150"/>
    <frame tileid="1164" duration="150"/>
    <frame tileid="1645" duration="150"/>
    <frame tileid="2126" duration="150"/>
    <frame tileid="2607" duration="150"/>
   </animation>
  </tile>
  <tile id="203">
   <animation>
    <frame tileid="203" duration="150"/>
    <frame tileid="684" duration="150"/>
    <frame tileid="1165" duration="150"/>
    <frame tileid="1646" duration="150"/>
    <frame tileid="2127" duration="150"/>
    <frame tileid="2608" duration="150"/>
   </animation>
  </tile>
  <tile id="204">
   <animation>
    <frame tileid="204" duration="150"/>
    <frame tileid="685" duration="150"/>
    <frame tileid="1166" duration="150"/>
    <frame tileid="1647" duration="150"/>
    <frame tileid="2128" duration="150"/>
    <frame tileid="2609" duration="150"/>
   </animation>
  </tile>
  <tile id="205">
   <animation>
    <frame tileid="205" duration="150"/>
    <frame tileid="686" duration="150"/>
    <frame tileid="1167" duration="150"/>
    <frame tileid="1648" duration="150"/>
    <frame tileid="2129" duration="150"/>
    <frame tileid="2610" duration="150"/>
   </animation>
  </tile>
  <tile id="206">
   <animation>
    <frame tileid="206" duration="150"/>
    <frame tileid="687" duration="150"/>
    <frame tileid="1168" duration="150"/>
    <frame tileid="1649" duration="150"/>
    <frame tileid="2130" duration="150"/>
    <frame tileid="2611" duration="150"/>
   </animation>
  </tile>
  <tile id="207">
   <animation>
    <frame tileid="207" duration="150"/>
    <frame tileid="688" duration="150"/>
    <frame tileid="1169" duration="150"/>
    <frame tileid="1650" duration="150"/>
    <frame tileid="2131" duration="150"/>
    <frame tileid="2612" duration="150"/>
   </animation>
  </tile>
  <tile id="208">
   <animation>
    <frame tileid="208" duration="150"/>
    <frame tileid="689" duration="150"/>
    <frame tileid="1170" duration="150"/>
    <frame tileid="1651" duration="150"/>
    <frame tileid="2132" duration="150"/>
    <frame tileid="2613" duration="150"/>
   </animation>
  </tile>
  <tile id="209">
   <animation>
    <frame tileid="209" duration="150"/>
    <frame tileid="690" duration="150"/>
    <frame tileid="1171" duration="150"/>
    <frame tileid="1652" duration="150"/>
    <frame tileid="2133" duration="150"/>
    <frame tileid="2614" duration="150"/>
   </animation>
  </tile>
  <tile id="210">
   <animation>
    <frame tileid="210" duration="150"/>
    <frame tileid="691" duration="150"/>
    <frame tileid="1172" duration="150"/>
    <frame tileid="1653" duration="150"/>
    <frame tileid="2134" duration="150"/>
    <frame tileid="2615" duration="150"/>
   </animation>
  </tile>
  <tile id="211">
   <animation>
    <frame tileid="211" duration="150"/>
    <frame tileid="692" duration="150"/>
    <frame tileid="1173" duration="150"/>
    <frame tileid="1654" duration="150"/>
    <frame tileid="2135" duration="150"/>
    <frame tileid="2616" duration="150"/>
   </animation>
  </tile>
  <tile id="212">
   <animation>
    <frame tileid="212" duration="150"/>
    <frame tileid="693" duration="150"/>
    <frame tileid="1174" duration="150"/>
    <frame tileid="1655" duration="150"/>
    <frame tileid="2136" duration="150"/>
    <frame tileid="2617" duration="150"/>
   </animation>
  </tile>
  <tile id="213">
   <animation>
    <frame tileid="213" duration="150"/>
    <frame tileid="694" duration="150"/>
    <frame tileid="1175" duration="150"/>
    <frame tileid="1656" duration="150"/>
    <frame tileid="2137" duration="150"/>
    <frame tileid="2618" duration="150"/>
   </animation>
  </tile>
  <tile id="214">
   <animation>
    <frame tileid="214" duration="150"/>
    <frame tileid="695" duration="150"/>
    <frame tileid="1176" duration="150"/>
    <frame tileid="1657" duration="150"/>
    <frame tileid="2138" duration="150"/>
    <frame tileid="2619" duration="150"/>
   </animation>
  </tile>
  <tile id="215">
   <animation>
    <frame tileid="215" duration="150"/>
    <frame tileid="696" duration="150"/>
    <frame tileid="1177" duration="150"/>
    <frame tileid="1658" duration="150"/>
    <frame tileid="2139" duration="150"/>
    <frame tileid="2620" duration="150"/>
   </animation>
  </tile>
  <tile id="223">
   <animation>
    <frame tileid="223" duration="150"/>
    <frame tileid="704" duration="150"/>
    <frame tileid="1185" duration="150"/>
    <frame tileid="1666" duration="150"/>
    <frame tileid="2147" duration="150"/>
    <frame tileid="2628" duration="150"/>
   </animation>
  </tile>
  <tile id="224">
   <animation>
    <frame tileid="224" duration="150"/>
    <frame tileid="705" duration="150"/>
    <frame tileid="1186" duration="150"/>
    <frame tileid="1667" duration="150"/>
    <frame tileid="2148" duration="150"/>
    <frame tileid="2629" duration="150"/>
   </animation>
  </tile>
  <tile id="225">
   <animation>
    <frame tileid="225" duration="150"/>
    <frame tileid="706" duration="150"/>
    <frame tileid="1187" duration="150"/>
    <frame tileid="1668" duration="150"/>
    <frame tileid="2149" duration="150"/>
    <frame tileid="2630" duration="150"/>
   </animation>
  </tile>
  <tile id="226">
   <animation>
    <frame tileid="226" duration="150"/>
    <frame tileid="707" duration="150"/>
    <frame tileid="1188" duration="150"/>
    <frame tileid="1669" duration="150"/>
    <frame tileid="2150" duration="150"/>
    <frame tileid="2631" duration="150"/>
   </animation>
  </tile>
  <tile id="227">
   <animation>
    <frame tileid="227" duration="150"/>
    <frame tileid="708" duration="150"/>
    <frame tileid="1189" duration="150"/>
    <frame tileid="1670" duration="150"/>
    <frame tileid="2151" duration="150"/>
    <frame tileid="2632" duration="150"/>
   </animation>
  </tile>
  <tile id="228">
   <animation>
    <frame tileid="228" duration="150"/>
    <frame tileid="709" duration="150"/>
    <frame tileid="1190" duration="150"/>
    <frame tileid="1671" duration="150"/>
    <frame tileid="2152" duration="150"/>
    <frame tileid="2633" duration="150"/>
   </animation>
  </tile>
  <tile id="229">
   <animation>
    <frame tileid="229" duration="150"/>
    <frame tileid="710" duration="150"/>
    <frame tileid="1191" duration="150"/>
    <frame tileid="1672" duration="150"/>
    <frame tileid="2153" duration="150"/>
    <frame tileid="2634" duration="150"/>
   </animation>
  </tile>
  <tile id="230">
   <animation>
    <frame tileid="230" duration="150"/>
    <frame tileid="711" duration="150"/>
    <frame tileid="1192" duration="150"/>
    <frame tileid="1673" duration="150"/>
    <frame tileid="2154" duration="150"/>
    <frame tileid="2635" duration="150"/>
   </animation>
  </tile>
  <tile id="231">
   <animation>
    <frame tileid="231" duration="150"/>
    <frame tileid="712" duration="150"/>
    <frame tileid="1193" duration="150"/>
    <frame tileid="1674" duration="150"/>
    <frame tileid="2155" duration="150"/>
    <frame tileid="2636" duration="150"/>
   </animation>
  </tile>
  <tile id="232">
   <animation>
    <frame tileid="232" duration="150"/>
    <frame tileid="713" duration="150"/>
    <frame tileid="1194" duration="150"/>
    <frame tileid="1675" duration="150"/>
    <frame tileid="2156" duration="150"/>
    <frame tileid="2637" duration="150"/>
   </animation>
  </tile>
  <tile id="233">
   <animation>
    <frame tileid="233" duration="150"/>
    <frame tileid="714" duration="150"/>
    <frame tileid="1195" duration="150"/>
    <frame tileid="1676" duration="150"/>
    <frame tileid="2157" duration="150"/>
    <frame tileid="2638" duration="150"/>
   </animation>
  </tile>
  <tile id="234">
   <animation>
    <frame tileid="234" duration="150"/>
    <frame tileid="715" duration="150"/>
    <frame tileid="1196" duration="150"/>
    <frame tileid="1677" duration="150"/>
    <frame tileid="2158" duration="150"/>
    <frame tileid="2639" duration="150"/>
   </animation>
  </tile>
  <tile id="235">
   <animation>
    <frame tileid="235" duration="150"/>
    <frame tileid="716" duration="150"/>
    <frame tileid="1197" duration="150"/>
    <frame tileid="1678" duration="150"/>
    <frame tileid="2159" duration="150"/>
    <frame tileid="2640" duration="150"/>
   </animation>
  </tile>
  <tile id="238">
   <animation>
    <frame tileid="238" duration="150"/>
    <frame tileid="719" duration="150"/>
    <frame tileid="1200" duration="150"/>
    <frame tileid="1681" duration="150"/>
    <frame tileid="2162" duration="150"/>
    <frame tileid="2643" duration="150"/>
   </animation>
  </tile>
  <tile id="239">
   <animation>
    <frame tileid="239" duration="150"/>
    <frame tileid="720" duration="150"/>
    <frame tileid="1201" duration="150"/>
    <frame tileid="1682" duration="150"/>
    <frame tileid="2163" duration="150"/>
    <frame tileid="2644" duration="150"/>
   </animation>
  </tile>
  <tile id="240">
   <animation>
    <frame tileid="240" duration="150"/>
    <frame tileid="721" duration="150"/>
    <frame tileid="1202" duration="150"/>
    <frame tileid="1683" duration="150"/>
    <frame tileid="2164" duration="150"/>
    <frame tileid="2645" duration="150"/>
   </animation>
  </tile>
  <tile id="241">
   <animation>
    <frame tileid="241" duration="150"/>
    <frame tileid="722" duration="150"/>
    <frame tileid="1203" duration="150"/>
    <frame tileid="1684" duration="150"/>
    <frame tileid="2165" duration="150"/>
    <frame tileid="2646" duration="150"/>
   </animation>
  </tile>
  <tile id="242">
   <animation>
    <frame tileid="242" duration="150"/>
    <frame tileid="723" duration="150"/>
    <frame tileid="1204" duration="150"/>
    <frame tileid="1685" duration="150"/>
    <frame tileid="2166" duration="150"/>
    <frame tileid="2647" duration="150"/>
   </animation>
  </tile>
  <tile id="243">
   <animation>
    <frame tileid="243" duration="150"/>
    <frame tileid="724" duration="150"/>
    <frame tileid="1205" duration="150"/>
    <frame tileid="1686" duration="150"/>
    <frame tileid="2167" duration="150"/>
    <frame tileid="2648" duration="150"/>
   </animation>
  </tile>
  <tile id="244">
   <animation>
    <frame tileid="244" duration="150"/>
    <frame tileid="725" duration="150"/>
    <frame tileid="1206" duration="150"/>
    <frame tileid="1687" duration="150"/>
    <frame tileid="2168" duration="150"/>
    <frame tileid="2649" duration="150"/>
   </animation>
  </tile>
  <tile id="245">
   <animation>
    <frame tileid="245" duration="150"/>
    <frame tileid="726" duration="150"/>
    <frame tileid="1207" duration="150"/>
    <frame tileid="1688" duration="150"/>
    <frame tileid="2169" duration="150"/>
    <frame tileid="2650" duration="150"/>
   </animation>
  </tile>
  <tile id="246">
   <animation>
    <frame tileid="246" duration="150"/>
    <frame tileid="727" duration="150"/>
    <frame tileid="1208" duration="150"/>
    <frame tileid="1689" duration="150"/>
    <frame tileid="2170" duration="150"/>
    <frame tileid="2651" duration="150"/>
   </animation>
  </tile>
  <tile id="247">
   <animation>
    <frame tileid="247" duration="150"/>
    <frame tileid="728" duration="150"/>
    <frame tileid="1209" duration="150"/>
    <frame tileid="1690" duration="150"/>
    <frame tileid="2171" duration="150"/>
    <frame tileid="2652" duration="150"/>
   </animation>
  </tile>
  <tile id="248">
   <animation>
    <frame tileid="248" duration="150"/>
    <frame tileid="729" duration="150"/>
    <frame tileid="1210" duration="150"/>
    <frame tileid="1691" duration="150"/>
    <frame tileid="2172" duration="150"/>
    <frame tileid="2653" duration="150"/>
   </animation>
  </tile>
  <tile id="249">
   <animation>
    <frame tileid="249" duration="150"/>
    <frame tileid="730" duration="150"/>
    <frame tileid="1211" duration="150"/>
    <frame tileid="1692" duration="150"/>
    <frame tileid="2173" duration="150"/>
    <frame tileid="2654" duration="150"/>
   </animation>
  </tile>
  <tile id="250">
   <animation>
    <frame tileid="250" duration="150"/>
    <frame tileid="731" duration="150"/>
    <frame tileid="1212" duration="150"/>
    <frame tileid="1693" duration="150"/>
    <frame tileid="2174" duration="150"/>
    <frame tileid="2655" duration="150"/>
   </animation>
  </tile>
  <tile id="251">
   <animation>
    <frame tileid="251" duration="150"/>
    <frame tileid="732" duration="150"/>
    <frame tileid="1213" duration="150"/>
    <frame tileid="1694" duration="150"/>
    <frame tileid="2175" duration="150"/>
    <frame tileid="2656" duration="150"/>
   </animation>
  </tile>
  <tile id="255">
   <animation>
    <frame tileid="255" duration="150"/>
    <frame tileid="736" duration="150"/>
    <frame tileid="1217" duration="150"/>
    <frame tileid="1698" duration="150"/>
    <frame tileid="2179" duration="150"/>
    <frame tileid="2660" duration="150"/>
   </animation>
  </tile>
  <tile id="256">
   <animation>
    <frame tileid="256" duration="150"/>
    <frame tileid="737" duration="150"/>
    <frame tileid="1218" duration="150"/>
    <frame tileid="1699" duration="150"/>
    <frame tileid="2180" duration="150"/>
    <frame tileid="2661" duration="150"/>
   </animation>
  </tile>
  <tile id="257">
   <animation>
    <frame tileid="257" duration="150"/>
    <frame tileid="738" duration="150"/>
    <frame tileid="1219" duration="150"/>
    <frame tileid="1700" duration="150"/>
    <frame tileid="2181" duration="150"/>
    <frame tileid="2662" duration="150"/>
   </animation>
  </tile>
  <tile id="264">
   <animation>
    <frame tileid="264" duration="150"/>
    <frame tileid="745" duration="150"/>
    <frame tileid="1226" duration="150"/>
    <frame tileid="1707" duration="150"/>
    <frame tileid="2188" duration="150"/>
    <frame tileid="2669" duration="150"/>
   </animation>
  </tile>
  <tile id="265">
   <animation>
    <frame tileid="265" duration="150"/>
    <frame tileid="746" duration="150"/>
    <frame tileid="1227" duration="150"/>
    <frame tileid="1708" duration="150"/>
    <frame tileid="2189" duration="150"/>
    <frame tileid="2670" duration="150"/>
   </animation>
  </tile>
  <tile id="266">
   <animation>
    <frame tileid="266" duration="150"/>
    <frame tileid="747" duration="150"/>
    <frame tileid="1228" duration="150"/>
    <frame tileid="1709" duration="150"/>
    <frame tileid="2190" duration="150"/>
    <frame tileid="2671" duration="150"/>
   </animation>
  </tile>
  <tile id="267">
   <animation>
    <frame tileid="267" duration="150"/>
    <frame tileid="748" duration="150"/>
    <frame tileid="1229" duration="150"/>
    <frame tileid="1710" duration="150"/>
    <frame tileid="2191" duration="150"/>
    <frame tileid="2672" duration="150"/>
   </animation>
  </tile>
  <tile id="268">
   <animation>
    <frame tileid="268" duration="150"/>
    <frame tileid="749" duration="150"/>
    <frame tileid="1230" duration="150"/>
    <frame tileid="1711" duration="150"/>
    <frame tileid="2192" duration="150"/>
    <frame tileid="2673" duration="150"/>
   </animation>
  </tile>
  <tile id="269">
   <animation>
    <frame tileid="269" duration="150"/>
    <frame tileid="750" duration="150"/>
    <frame tileid="1231" duration="150"/>
    <frame tileid="1712" duration="150"/>
    <frame tileid="2193" duration="150"/>
    <frame tileid="2674" duration="150"/>
   </animation>
  </tile>
  <tile id="313">
   <animation>
    <frame tileid="313" duration="150"/>
    <frame tileid="794" duration="150"/>
    <frame tileid="1275" duration="150"/>
    <frame tileid="1756" duration="150"/>
    <frame tileid="2237" duration="150"/>
    <frame tileid="2718" duration="150"/>
   </animation>
  </tile>
  <tile id="314">
   <animation>
    <frame tileid="314" duration="150"/>
    <frame tileid="795" duration="150"/>
    <frame tileid="1276" duration="150"/>
    <frame tileid="1757" duration="150"/>
    <frame tileid="2238" duration="150"/>
    <frame tileid="2719" duration="150"/>
   </animation>
  </tile>
  <tile id="315">
   <animation>
    <frame tileid="315" duration="150"/>
    <frame tileid="796" duration="150"/>
    <frame tileid="1277" duration="150"/>
    <frame tileid="1758" duration="150"/>
    <frame tileid="2239" duration="150"/>
    <frame tileid="2720" duration="150"/>
   </animation>
  </tile>
  <tile id="316">
   <animation>
    <frame tileid="316" duration="150"/>
    <frame tileid="797" duration="150"/>
    <frame tileid="1278" duration="150"/>
    <frame tileid="1759" duration="150"/>
    <frame tileid="2240" duration="150"/>
    <frame tileid="2721" duration="150"/>
   </animation>
  </tile>
  <tile id="317">
   <animation>
    <frame tileid="317" duration="150"/>
    <frame tileid="798" duration="150"/>
    <frame tileid="1279" duration="150"/>
    <frame tileid="1760" duration="150"/>
    <frame tileid="2241" duration="150"/>
    <frame tileid="2722" duration="150"/>
   </animation>
  </tile>
  <tile id="318">
   <animation>
    <frame tileid="318" duration="150"/>
    <frame tileid="799" duration="150"/>
    <frame tileid="1280" duration="150"/>
    <frame tileid="1761" duration="150"/>
    <frame tileid="2242" duration="150"/>
    <frame tileid="2723" duration="150"/>
   </animation>
  </tile>
  <tile id="319">
   <animation>
    <frame tileid="319" duration="150"/>
    <frame tileid="800" duration="150"/>
    <frame tileid="1281" duration="150"/>
    <frame tileid="1762" duration="150"/>
    <frame tileid="2243" duration="150"/>
    <frame tileid="2724" duration="150"/>
   </animation>
  </tile>
  <tile id="320">
   <animation>
    <frame tileid="320" duration="150"/>
    <frame tileid="801" duration="150"/>
    <frame tileid="1282" duration="150"/>
    <frame tileid="1763" duration="150"/>
    <frame tileid="2244" duration="150"/>
    <frame tileid="2725" duration="150"/>
   </animation>
  </tile>
  <tile id="323">
   <animation>
    <frame tileid="323" duration="150"/>
    <frame tileid="804" duration="150"/>
    <frame tileid="1285" duration="150"/>
    <frame tileid="1766" duration="150"/>
    <frame tileid="2247" duration="150"/>
    <frame tileid="2728" duration="150"/>
   </animation>
  </tile>
  <tile id="324">
   <animation>
    <frame tileid="324" duration="150"/>
    <frame tileid="805" duration="150"/>
    <frame tileid="1286" duration="150"/>
    <frame tileid="1767" duration="150"/>
    <frame tileid="2248" duration="150"/>
    <frame tileid="2729" duration="150"/>
   </animation>
  </tile>
  <tile id="325">
   <animation>
    <frame tileid="325" duration="150"/>
    <frame tileid="806" duration="150"/>
    <frame tileid="1287" duration="150"/>
    <frame tileid="1768" duration="150"/>
    <frame tileid="2249" duration="150"/>
    <frame tileid="2730" duration="150"/>
   </animation>
  </tile>
  <tile id="326">
   <animation>
    <frame tileid="326" duration="150"/>
    <frame tileid="807" duration="150"/>
    <frame tileid="1288" duration="150"/>
    <frame tileid="1769" duration="150"/>
    <frame tileid="2250" duration="150"/>
    <frame tileid="2731" duration="150"/>
   </animation>
  </tile>
  <tile id="327">
   <animation>
    <frame tileid="327" duration="150"/>
    <frame tileid="808" duration="150"/>
    <frame tileid="1289" duration="150"/>
    <frame tileid="1770" duration="150"/>
    <frame tileid="2251" duration="150"/>
    <frame tileid="2732" duration="150"/>
   </animation>
  </tile>
  <tile id="334">
   <animation>
    <frame tileid="334" duration="150"/>
    <frame tileid="815" duration="150"/>
    <frame tileid="1296" duration="150"/>
    <frame tileid="1777" duration="150"/>
    <frame tileid="2258" duration="150"/>
    <frame tileid="2739" duration="150"/>
   </animation>
  </tile>
  <tile id="335">
   <animation>
    <frame tileid="335" duration="150"/>
    <frame tileid="816" duration="150"/>
    <frame tileid="1297" duration="150"/>
    <frame tileid="1778" duration="150"/>
    <frame tileid="2259" duration="150"/>
    <frame tileid="2740" duration="150"/>
   </animation>
  </tile>
  <tile id="336">
   <animation>
    <frame tileid="336" duration="150"/>
    <frame tileid="817" duration="150"/>
    <frame tileid="1298" duration="150"/>
    <frame tileid="1779" duration="150"/>
    <frame tileid="2260" duration="150"/>
    <frame tileid="2741" duration="150"/>
   </animation>
  </tile>
  <tile id="337">
   <animation>
    <frame tileid="337" duration="150"/>
    <frame tileid="818" duration="150"/>
    <frame tileid="1299" duration="150"/>
    <frame tileid="1780" duration="150"/>
    <frame tileid="2261" duration="150"/>
    <frame tileid="2742" duration="150"/>
   </animation>
  </tile>
  <tile id="338">
   <animation>
    <frame tileid="338" duration="150"/>
    <frame tileid="819" duration="150"/>
    <frame tileid="1300" duration="150"/>
    <frame tileid="1781" duration="150"/>
    <frame tileid="2262" duration="150"/>
    <frame tileid="2743" duration="150"/>
   </animation>
  </tile>
  <tile id="339">
   <animation>
    <frame tileid="339" duration="150"/>
    <frame tileid="820" duration="150"/>
    <frame tileid="1301" duration="150"/>
    <frame tileid="1782" duration="150"/>
    <frame tileid="2263" duration="150"/>
    <frame tileid="2744" duration="150"/>
   </animation>
  </tile>
  <tile id="340">
   <animation>
    <frame tileid="340" duration="150"/>
    <frame tileid="821" duration="150"/>
    <frame tileid="1302" duration="150"/>
    <frame tileid="1783" duration="150"/>
    <frame tileid="2264" duration="150"/>
    <frame tileid="2745" duration="150"/>
   </animation>
  </tile>
  <tile id="341">
   <animation>
    <frame tileid="341" duration="150"/>
    <frame tileid="822" duration="150"/>
    <frame tileid="1303" duration="150"/>
    <frame tileid="1784" duration="150"/>
    <frame tileid="2265" duration="150"/>
    <frame tileid="2746" duration="150"/>
   </animation>
  </tile>
  <tile id="342">
   <animation>
    <frame tileid="342" duration="150"/>
    <frame tileid="823" duration="150"/>
    <frame tileid="1304" duration="150"/>
    <frame tileid="1785" duration="150"/>
    <frame tileid="2266" duration="150"/>
    <frame tileid="2747" duration="150"/>
   </animation>
  </tile>
  <tile id="343">
   <animation>
    <frame tileid="343" duration="150"/>
    <frame tileid="824" duration="150"/>
    <frame tileid="1305" duration="150"/>
    <frame tileid="1786" duration="150"/>
    <frame tileid="2267" duration="150"/>
    <frame tileid="2748" duration="150"/>
   </animation>
  </tile>
  <tile id="344">
   <animation>
    <frame tileid="344" duration="150"/>
    <frame tileid="825" duration="150"/>
    <frame tileid="1306" duration="150"/>
    <frame tileid="1787" duration="150"/>
    <frame tileid="2268" duration="150"/>
    <frame tileid="2749" duration="150"/>
   </animation>
  </tile>
  <tile id="345">
   <animation>
    <frame tileid="345" duration="150"/>
    <frame tileid="826" duration="150"/>
    <frame tileid="1307" duration="150"/>
    <frame tileid="1788" duration="150"/>
    <frame tileid="2269" duration="150"/>
    <frame tileid="2750" duration="150"/>
   </animation>
  </tile>
  <tile id="346">
   <animation>
    <frame tileid="346" duration="150"/>
    <frame tileid="827" duration="150"/>
    <frame tileid="1308" duration="150"/>
    <frame tileid="1789" duration="150"/>
    <frame tileid="2270" duration="150"/>
    <frame tileid="2751" duration="150"/>
   </animation>
  </tile>
  <tile id="347">
   <animation>
    <frame tileid="347" duration="150"/>
    <frame tileid="828" duration="150"/>
    <frame tileid="1309" duration="150"/>
    <frame tileid="1790" duration="150"/>
    <frame tileid="2271" duration="150"/>
    <frame tileid="2752" duration="150"/>
   </animation>
  </tile>
  <tile id="350">
   <animation>
    <frame tileid="350" duration="150"/>
    <frame tileid="831" duration="150"/>
    <frame tileid="1312" duration="150"/>
    <frame tileid="1793" duration="150"/>
    <frame tileid="2274" duration="150"/>
    <frame tileid="2755" duration="150"/>
   </animation>
  </tile>
  <tile id="351">
   <animation>
    <frame tileid="351" duration="150"/>
    <frame tileid="832" duration="150"/>
    <frame tileid="1313" duration="150"/>
    <frame tileid="1794" duration="150"/>
    <frame tileid="2275" duration="150"/>
    <frame tileid="2756" duration="150"/>
   </animation>
  </tile>
  <tile id="352">
   <animation>
    <frame tileid="352" duration="150"/>
    <frame tileid="833" duration="150"/>
    <frame tileid="1314" duration="150"/>
    <frame tileid="1795" duration="150"/>
    <frame tileid="2276" duration="150"/>
    <frame tileid="2757" duration="150"/>
   </animation>
  </tile>
  <tile id="353">
   <animation>
    <frame tileid="353" duration="150"/>
    <frame tileid="834" duration="150"/>
    <frame tileid="1315" duration="150"/>
    <frame tileid="1796" duration="150"/>
    <frame tileid="2277" duration="150"/>
    <frame tileid="2758" duration="150"/>
   </animation>
  </tile>
  <tile id="354">
   <animation>
    <frame tileid="354" duration="150"/>
    <frame tileid="835" duration="150"/>
    <frame tileid="1316" duration="150"/>
    <frame tileid="1797" duration="150"/>
    <frame tileid="2278" duration="150"/>
    <frame tileid="2759" duration="150"/>
   </animation>
  </tile>
  <tile id="355">
   <animation>
    <frame tileid="355" duration="150"/>
    <frame tileid="836" duration="150"/>
    <frame tileid="1317" duration="150"/>
    <frame tileid="1798" duration="150"/>
    <frame tileid="2279" duration="150"/>
    <frame tileid="2760" duration="150"/>
   </animation>
  </tile>
  <tile id="356">
   <animation>
    <frame tileid="356" duration="150"/>
    <frame tileid="837" duration="150"/>
    <frame tileid="1318" duration="150"/>
    <frame tileid="1799" duration="150"/>
    <frame tileid="2280" duration="150"/>
    <frame tileid="2761" duration="150"/>
   </animation>
  </tile>
  <tile id="357">
   <animation>
    <frame tileid="357" duration="150"/>
    <frame tileid="838" duration="150"/>
    <frame tileid="1319" duration="150"/>
    <frame tileid="1800" duration="150"/>
    <frame tileid="2281" duration="150"/>
    <frame tileid="2762" duration="150"/>
   </animation>
  </tile>
  <tile id="360">
   <animation>
    <frame tileid="360" duration="150"/>
    <frame tileid="841" duration="150"/>
    <frame tileid="1322" duration="150"/>
    <frame tileid="1803" duration="150"/>
    <frame tileid="2284" duration="150"/>
    <frame tileid="2765" duration="150"/>
   </animation>
  </tile>
  <tile id="361">
   <animation>
    <frame tileid="361" duration="150"/>
    <frame tileid="842" duration="150"/>
    <frame tileid="1323" duration="150"/>
    <frame tileid="1804" duration="150"/>
    <frame tileid="2285" duration="150"/>
    <frame tileid="2766" duration="150"/>
   </animation>
  </tile>
  <tile id="362">
   <animation>
    <frame tileid="362" duration="150"/>
    <frame tileid="843" duration="150"/>
    <frame tileid="1324" duration="150"/>
    <frame tileid="1805" duration="150"/>
    <frame tileid="2286" duration="150"/>
    <frame tileid="2767" duration="150"/>
   </animation>
  </tile>
  <tile id="363">
   <animation>
    <frame tileid="363" duration="150"/>
    <frame tileid="844" duration="150"/>
    <frame tileid="1325" duration="150"/>
    <frame tileid="1806" duration="150"/>
    <frame tileid="2287" duration="150"/>
    <frame tileid="2768" duration="150"/>
   </animation>
  </tile>
  <tile id="370">
   <animation>
    <frame tileid="370" duration="150"/>
    <frame tileid="851" duration="150"/>
    <frame tileid="1332" duration="150"/>
    <frame tileid="1813" duration="150"/>
    <frame tileid="2294" duration="150"/>
    <frame tileid="2775" duration="150"/>
   </animation>
  </tile>
  <tile id="371">
   <animation>
    <frame tileid="371" duration="150"/>
    <frame tileid="852" duration="150"/>
    <frame tileid="1333" duration="150"/>
    <frame tileid="1814" duration="150"/>
    <frame tileid="2295" duration="150"/>
    <frame tileid="2776" duration="150"/>
   </animation>
  </tile>
  <tile id="372">
   <animation>
    <frame tileid="372" duration="150"/>
    <frame tileid="853" duration="150"/>
    <frame tileid="1334" duration="150"/>
    <frame tileid="1815" duration="150"/>
    <frame tileid="2296" duration="150"/>
    <frame tileid="2777" duration="150"/>
   </animation>
  </tile>
  <tile id="373">
   <animation>
    <frame tileid="373" duration="150"/>
    <frame tileid="854" duration="150"/>
    <frame tileid="1335" duration="150"/>
    <frame tileid="1816" duration="150"/>
    <frame tileid="2297" duration="150"/>
    <frame tileid="2778" duration="150"/>
   </animation>
  </tile>
  <tile id="374">
   <animation>
    <frame tileid="374" duration="150"/>
    <frame tileid="855" duration="150"/>
    <frame tileid="1336" duration="150"/>
    <frame tileid="1817" duration="150"/>
    <frame tileid="2298" duration="150"/>
    <frame tileid="2779" duration="150"/>
   </animation>
  </tile>
  <tile id="375">
   <animation>
    <frame tileid="375" duration="150"/>
    <frame tileid="856" duration="150"/>
    <frame tileid="1337" duration="150"/>
    <frame tileid="1818" duration="150"/>
    <frame tileid="2299" duration="150"/>
    <frame tileid="2780" duration="150"/>
   </animation>
  </tile>
  <tile id="376">
   <animation>
    <frame tileid="376" duration="150"/>
    <frame tileid="857" duration="150"/>
    <frame tileid="1338" duration="150"/>
    <frame tileid="1819" duration="150"/>
    <frame tileid="2300" duration="150"/>
    <frame tileid="2781" duration="150"/>
   </animation>
  </tile>
  <tile id="377">
   <animation>
    <frame tileid="377" duration="150"/>
    <frame tileid="858" duration="150"/>
    <frame tileid="1339" duration="150"/>
    <frame tileid="1820" duration="150"/>
    <frame tileid="2301" duration="150"/>
    <frame tileid="2782" duration="150"/>
   </animation>
  </tile>
  <tile id="378">
   <animation>
    <frame tileid="378" duration="150"/>
    <frame tileid="859" duration="150"/>
    <frame tileid="1340" duration="150"/>
    <frame tileid="1821" duration="150"/>
    <frame tileid="2302" duration="150"/>
    <frame tileid="2783" duration="150"/>
   </animation>
  </tile>
  <tile id="379">
   <animation>
    <frame tileid="379" duration="150"/>
    <frame tileid="860" duration="150"/>
    <frame tileid="1341" duration="150"/>
    <frame tileid="1822" duration="150"/>
    <frame tileid="2303" duration="150"/>
    <frame tileid="2784" duration="150"/>
   </animation>
  </tile>
  <tile id="380">
   <animation>
    <frame tileid="380" duration="150"/>
    <frame tileid="861" duration="150"/>
    <frame tileid="1342" duration="150"/>
    <frame tileid="1823" duration="150"/>
    <frame tileid="2304" duration="150"/>
    <frame tileid="2785" duration="150"/>
   </animation>
  </tile>
  <tile id="381">
   <animation>
    <frame tileid="381" duration="150"/>
    <frame tileid="862" duration="150"/>
    <frame tileid="1343" duration="150"/>
    <frame tileid="1824" duration="150"/>
    <frame tileid="2305" duration="150"/>
    <frame tileid="2786" duration="150"/>
   </animation>
  </tile>
  <tile id="382">
   <animation>
    <frame tileid="382" duration="150"/>
    <frame tileid="863" duration="150"/>
    <frame tileid="1344" duration="150"/>
    <frame tileid="1825" duration="150"/>
    <frame tileid="2306" duration="150"/>
    <frame tileid="2787" duration="150"/>
   </animation>
  </tile>
  <tile id="383">
   <animation>
    <frame tileid="383" duration="150"/>
    <frame tileid="864" duration="150"/>
    <frame tileid="1345" duration="150"/>
    <frame tileid="1826" duration="150"/>
    <frame tileid="2307" duration="150"/>
    <frame tileid="2788" duration="150"/>
   </animation>
  </tile>
 </tileset>
 <tileset firstgid="4107" name="floor_walls_under_water" tilewidth="16" tileheight="16" tilecount="120" columns="12">
  <image source="floor_walls_under_water.png" width="192" height="160"/>
 </tileset>
 <tileset firstgid="4227" name="walls_floor_cracks_lighter" tilewidth="16" tileheight="16" tilecount="368" columns="23">
  <image source="walls_floor_cracks_lighter.png" width="368" height="256"/>
 </tileset>
 <tileset firstgid="4595" name="Door_lighter-full" tilewidth="16" tileheight="16" tilecount="150" columns="30">
  <image source="Door_lighter_water.png" width="480" height="80"/>
  <tile id="1">
   <animation>
    <frame tileid="1" duration="150"/>
    <frame tileid="6" duration="150"/>
    <frame tileid="11" duration="150"/>
    <frame tileid="16" duration="150"/>
    <frame tileid="21" duration="150"/>
    <frame tileid="26" duration="150"/>
   </animation>
  </tile>
  <tile id="2">
   <animation>
    <frame tileid="2" duration="150"/>
    <frame tileid="7" duration="150"/>
    <frame tileid="12" duration="150"/>
    <frame tileid="17" duration="150"/>
    <frame tileid="22" duration="150"/>
    <frame tileid="27" duration="150"/>
   </animation>
  </tile>
  <tile id="3">
   <animation>
    <frame tileid="3" duration="150"/>
    <frame tileid="8" duration="150"/>
    <frame tileid="13" duration="150"/>
    <frame tileid="18" duration="150"/>
    <frame tileid="23" duration="150"/>
    <frame tileid="28" duration="150"/>
   </animation>
  </tile>
  <tile id="30">
   <animation>
    <frame tileid="30" duration="150"/>
    <frame tileid="35" duration="150"/>
    <frame tileid="40" duration="150"/>
    <frame tileid="45" duration="150"/>
    <frame tileid="50" duration="150"/>
    <frame tileid="55" duration="150"/>
   </animation>
  </tile>
  <tile id="31">
   <animation>
    <frame tileid="31" duration="150"/>
    <frame tileid="36" duration="150"/>
    <frame tileid="41" duration="150"/>
    <frame tileid="46" duration="150"/>
    <frame tileid="51" duration="150"/>
    <frame tileid="56" duration="150"/>
   </animation>
  </tile>
  <tile id="32">
   <animation>
    <frame tileid="32" duration="150"/>
    <frame tileid="37" duration="150"/>
    <frame tileid="42" duration="150"/>
    <frame tileid="47" duration="150"/>
    <frame tileid="52" duration="150"/>
    <frame tileid="57" duration="150"/>
   </animation>
  </tile>
  <tile id="33">
   <animation>
    <frame tileid="33" duration="150"/>
    <frame tileid="38" duration="150"/>
    <frame tileid="43" duration="150"/>
    <frame tileid="48" duration="150"/>
    <frame tileid="53" duration="150"/>
    <frame tileid="58" duration="150"/>
   </animation>
  </tile>
  <tile id="34">
   <animation>
    <frame tileid="34" duration="150"/>
    <frame tileid="39" duration="150"/>
    <frame tileid="44" duration="150"/>
    <frame tileid="49" duration="150"/>
    <frame tileid="54" duration="150"/>
    <frame tileid="59" duration="150"/>
   </animation>
  </tile>
  <tile id="60">
   <animation>
    <frame tileid="60" duration="150"/>
    <frame tileid="65" duration="150"/>
    <frame tileid="70" duration="150"/>
    <frame tileid="75" duration="150"/>
    <frame tileid="80" duration="150"/>
    <frame tileid="85" duration="150"/>
   </animation>
  </tile>
  <tile id="61">
   <animation>
    <frame tileid="61" duration="150"/>
    <frame tileid="66" duration="150"/>
    <frame tileid="71" duration="150"/>
    <frame tileid="76" duration="150"/>
    <frame tileid="81" duration="150"/>
    <frame tileid="86" duration="150"/>
   </animation>
  </tile>
  <tile id="62">
   <animation>
    <frame tileid="62" duration="150"/>
    <frame tileid="67" duration="150"/>
    <frame tileid="72" duration="150"/>
    <frame tileid="77" duration="150"/>
    <frame tileid="82" duration="150"/>
    <frame tileid="87" duration="150"/>
   </animation>
  </tile>
  <tile id="63">
   <animation>
    <frame tileid="63" duration="150"/>
    <frame tileid="68" duration="150"/>
    <frame tileid="73" duration="150"/>
    <frame tileid="78" duration="150"/>
    <frame tileid="83" duration="150"/>
    <frame tileid="88" duration="150"/>
   </animation>
  </tile>
  <tile id="64">
   <animation>
    <frame tileid="64" duration="150"/>
    <frame tileid="69" duration="150"/>
    <frame tileid="74" duration="150"/>
    <frame tileid="79" duration="150"/>
    <frame tileid="84" duration="150"/>
    <frame tileid="89" duration="150"/>
   </animation>
  </tile>
  <tile id="90">
   <animation>
    <frame tileid="90" duration="150"/>
    <frame tileid="95" duration="150"/>
    <frame tileid="100" duration="150"/>
    <frame tileid="105" duration="150"/>
    <frame tileid="110" duration="150"/>
    <frame tileid="115" duration="150"/>
   </animation>
  </tile>
  <tile id="91">
   <animation>
    <frame tileid="91" duration="150"/>
    <frame tileid="96" duration="150"/>
    <frame tileid="101" duration="150"/>
    <frame tileid="106" duration="150"/>
    <frame tileid="111" duration="150"/>
    <frame tileid="116" duration="150"/>
   </animation>
  </tile>
  <tile id="92">
   <animation>
    <frame tileid="92" duration="150"/>
    <frame tileid="97" duration="150"/>
    <frame tileid="102" duration="150"/>
    <frame tileid="107" duration="150"/>
    <frame tileid="112" duration="150"/>
    <frame tileid="117" duration="150"/>
   </animation>
  </tile>
  <tile id="93">
   <animation>
    <frame tileid="93" duration="150"/>
    <frame tileid="98" duration="150"/>
    <frame tileid="103" duration="150"/>
    <frame tileid="108" duration="150"/>
    <frame tileid="113" duration="150"/>
    <frame tileid="118" duration="150"/>
   </animation>
  </tile>
  <tile id="94">
   <animation>
    <frame tileid="94" duration="150"/>
    <frame tileid="99" duration="150"/>
    <frame tileid="104" duration="150"/>
    <frame tileid="109" duration="150"/>
    <frame tileid="114" duration="150"/>
    <frame tileid="119" duration="150"/>
   </animation>
  </tile>
  <tile id="120">
   <animation>
    <frame tileid="120" duration="150"/>
    <frame tileid="125" duration="150"/>
    <frame tileid="130" duration="150"/>
    <frame tileid="135" duration="150"/>
    <frame tileid="140" duration="150"/>
    <frame tileid="145" duration="150"/>
   </animation>
  </tile>
  <tile id="121">
   <animation>
    <frame tileid="121" duration="150"/>
    <frame tileid="126" duration="150"/>
    <frame tileid="131" duration="150"/>
    <frame tileid="136" duration="150"/>
    <frame tileid="141" duration="150"/>
    <frame tileid="146" duration="150"/>
   </animation>
  </tile>
  <tile id="123">
   <animation>
    <frame tileid="123" duration="150"/>
    <frame tileid="128" duration="150"/>
    <frame tileid="133" duration="150"/>
    <frame tileid="138" duration="150"/>
    <frame tileid="143" duration="150"/>
    <frame tileid="148" duration="150"/>
   </animation>
  </tile>
  <tile id="124">
   <animation>
    <frame tileid="124" duration="150"/>
    <frame tileid="129" duration="150"/>
    <frame tileid="134" duration="150"/>
    <frame tileid="139" duration="150"/>
    <frame tileid="144" duration="150"/>
    <frame tileid="149" duration="150"/>
   </animation>
  </tile>
 </tileset>
 <tileset firstgid="4745" name="Door_lighter-full" tilewidth="16" tileheight="16" tilecount="150" columns="30">
  <image source="Door_lighter_lattice.png" width="480" height="80"/>
  <tile id="1">
   <animation>
    <frame tileid="1" duration="150"/>
    <frame tileid="1" duration="150"/>
    <frame tileid="1" duration="150"/>
    <frame tileid="1" duration="150"/>
    <frame tileid="6" duration="150"/>
    <frame tileid="11" duration="150"/>
    <frame tileid="16" duration="150"/>
    <frame tileid="16" duration="150"/>
    <frame tileid="16" duration="150"/>
    <frame tileid="16" duration="150"/>
    <frame tileid="21" duration="150"/>
    <frame tileid="26" duration="150"/>
   </animation>
  </tile>
  <tile id="2">
   <animation>
    <frame tileid="2" duration="150"/>
    <frame tileid="2" duration="150"/>
    <frame tileid="2" duration="150"/>
    <frame tileid="2" duration="150"/>
    <frame tileid="7" duration="150"/>
    <frame tileid="12" duration="150"/>
    <frame tileid="17" duration="150"/>
    <frame tileid="17" duration="150"/>
    <frame tileid="17" duration="150"/>
    <frame tileid="17" duration="150"/>
    <frame tileid="22" duration="150"/>
    <frame tileid="27" duration="150"/>
   </animation>
  </tile>
  <tile id="3">
   <animation>
    <frame tileid="3" duration="150"/>
    <frame tileid="3" duration="150"/>
    <frame tileid="3" duration="150"/>
    <frame tileid="3" duration="150"/>
    <frame tileid="8" duration="150"/>
    <frame tileid="13" duration="150"/>
    <frame tileid="18" duration="150"/>
    <frame tileid="18" duration="150"/>
    <frame tileid="18" duration="150"/>
    <frame tileid="18" duration="150"/>
    <frame tileid="23" duration="150"/>
    <frame tileid="28" duration="150"/>
   </animation>
  </tile>
  <tile id="30">
   <animation>
    <frame tileid="30" duration="150"/>
    <frame tileid="30" duration="150"/>
    <frame tileid="30" duration="150"/>
    <frame tileid="30" duration="150"/>
    <frame tileid="35" duration="150"/>
    <frame tileid="40" duration="150"/>
    <frame tileid="45" duration="150"/>
    <frame tileid="45" duration="150"/>
    <frame tileid="45" duration="150"/>
    <frame tileid="45" duration="150"/>
    <frame tileid="50" duration="150"/>
    <frame tileid="55" duration="150"/>
   </animation>
  </tile>
  <tile id="31">
   <animation>
    <frame tileid="31" duration="150"/>
    <frame tileid="31" duration="150"/>
    <frame tileid="31" duration="150"/>
    <frame tileid="31" duration="150"/>
    <frame tileid="36" duration="150"/>
    <frame tileid="41" duration="150"/>
    <frame tileid="46" duration="150"/>
    <frame tileid="46" duration="150"/>
    <frame tileid="46" duration="150"/>
    <frame tileid="46" duration="150"/>
    <frame tileid="51" duration="150"/>
    <frame tileid="56" duration="150"/>
   </animation>
  </tile>
  <tile id="32">
   <animation>
    <frame tileid="32" duration="150"/>
    <frame tileid="32" duration="150"/>
    <frame tileid="32" duration="150"/>
    <frame tileid="32" duration="150"/>
    <frame tileid="37" duration="150"/>
    <frame tileid="42" duration="150"/>
    <frame tileid="47" duration="150"/>
    <frame tileid="47" duration="150"/>
    <frame tileid="47" duration="150"/>
    <frame tileid="47" duration="150"/>
    <frame tileid="52" duration="150"/>
    <frame tileid="57" duration="150"/>
   </animation>
  </tile>
  <tile id="33">
   <animation>
    <frame tileid="33" duration="150"/>
    <frame tileid="33" duration="150"/>
    <frame tileid="33" duration="150"/>
    <frame tileid="33" duration="150"/>
    <frame tileid="38" duration="150"/>
    <frame tileid="43" duration="150"/>
    <frame tileid="48" duration="150"/>
    <frame tileid="48" duration="150"/>
    <frame tileid="48" duration="150"/>
    <frame tileid="48" duration="150"/>
    <frame tileid="53" duration="150"/>
    <frame tileid="58" duration="150"/>
   </animation>
  </tile>
  <tile id="34">
   <animation>
    <frame tileid="34" duration="150"/>
    <frame tileid="34" duration="150"/>
    <frame tileid="34" duration="150"/>
    <frame tileid="34" duration="150"/>
    <frame tileid="39" duration="150"/>
    <frame tileid="44" duration="150"/>
    <frame tileid="49" duration="150"/>
    <frame tileid="49" duration="150"/>
    <frame tileid="49" duration="150"/>
    <frame tileid="49" duration="150"/>
    <frame tileid="54" duration="150"/>
    <frame tileid="59" duration="150"/>
   </animation>
  </tile>
  <tile id="60">
   <animation>
    <frame tileid="60" duration="150"/>
    <frame tileid="60" duration="150"/>
    <frame tileid="60" duration="150"/>
    <frame tileid="60" duration="150"/>
    <frame tileid="65" duration="150"/>
    <frame tileid="70" duration="150"/>
    <frame tileid="75" duration="150"/>
    <frame tileid="75" duration="150"/>
    <frame tileid="75" duration="150"/>
    <frame tileid="75" duration="150"/>
    <frame tileid="80" duration="150"/>
    <frame tileid="85" duration="150"/>
   </animation>
  </tile>
  <tile id="61">
   <animation>
    <frame tileid="61" duration="150"/>
    <frame tileid="61" duration="150"/>
    <frame tileid="61" duration="150"/>
    <frame tileid="61" duration="150"/>
    <frame tileid="66" duration="150"/>
    <frame tileid="71" duration="150"/>
    <frame tileid="76" duration="150"/>
    <frame tileid="76" duration="150"/>
    <frame tileid="76" duration="150"/>
    <frame tileid="76" duration="150"/>
    <frame tileid="81" duration="150"/>
    <frame tileid="86" duration="150"/>
   </animation>
  </tile>
  <tile id="62">
   <animation>
    <frame tileid="62" duration="150"/>
    <frame tileid="62" duration="150"/>
    <frame tileid="62" duration="150"/>
    <frame tileid="62" duration="150"/>
    <frame tileid="67" duration="150"/>
    <frame tileid="72" duration="150"/>
    <frame tileid="77" duration="150"/>
    <frame tileid="77" duration="150"/>
    <frame tileid="77" duration="150"/>
    <frame tileid="77" duration="150"/>
    <frame tileid="82" duration="150"/>
    <frame tileid="87" duration="150"/>
   </animation>
  </tile>
  <tile id="63">
   <animation>
    <frame tileid="63" duration="150"/>
    <frame tileid="63" duration="150"/>
    <frame tileid="63" duration="150"/>
    <frame tileid="63" duration="150"/>
    <frame tileid="68" duration="150"/>
    <frame tileid="73" duration="150"/>
    <frame tileid="78" duration="150"/>
    <frame tileid="78" duration="150"/>
    <frame tileid="78" duration="150"/>
    <frame tileid="78" duration="150"/>
    <frame tileid="83" duration="150"/>
    <frame tileid="88" duration="150"/>
   </animation>
  </tile>
  <tile id="64">
   <animation>
    <frame tileid="64" duration="150"/>
    <frame tileid="64" duration="150"/>
    <frame tileid="64" duration="150"/>
    <frame tileid="64" duration="150"/>
    <frame tileid="69" duration="150"/>
    <frame tileid="74" duration="150"/>
    <frame tileid="79" duration="150"/>
    <frame tileid="79" duration="150"/>
    <frame tileid="79" duration="150"/>
    <frame tileid="79" duration="150"/>
    <frame tileid="84" duration="150"/>
    <frame tileid="89" duration="150"/>
   </animation>
  </tile>
  <tile id="90">
   <animation>
    <frame tileid="90" duration="150"/>
    <frame tileid="90" duration="150"/>
    <frame tileid="90" duration="150"/>
    <frame tileid="90" duration="150"/>
    <frame tileid="95" duration="150"/>
    <frame tileid="100" duration="150"/>
    <frame tileid="105" duration="150"/>
    <frame tileid="105" duration="150"/>
    <frame tileid="105" duration="150"/>
    <frame tileid="105" duration="150"/>
    <frame tileid="110" duration="150"/>
    <frame tileid="115" duration="150"/>
   </animation>
  </tile>
  <tile id="91">
   <animation>
    <frame tileid="91" duration="150"/>
    <frame tileid="91" duration="150"/>
    <frame tileid="91" duration="150"/>
    <frame tileid="91" duration="150"/>
    <frame tileid="96" duration="150"/>
    <frame tileid="101" duration="150"/>
    <frame tileid="106" duration="150"/>
    <frame tileid="106" duration="150"/>
    <frame tileid="106" duration="150"/>
    <frame tileid="106" duration="150"/>
    <frame tileid="111" duration="150"/>
    <frame tileid="116" duration="150"/>
   </animation>
  </tile>
  <tile id="92">
   <animation>
    <frame tileid="92" duration="150"/>
    <frame tileid="92" duration="150"/>
    <frame tileid="92" duration="150"/>
    <frame tileid="92" duration="150"/>
    <frame tileid="97" duration="150"/>
    <frame tileid="102" duration="150"/>
    <frame tileid="107" duration="150"/>
    <frame tileid="107" duration="150"/>
    <frame tileid="107" duration="150"/>
    <frame tileid="107" duration="150"/>
    <frame tileid="112" duration="150"/>
    <frame tileid="117" duration="150"/>
   </animation>
  </tile>
  <tile id="93">
   <animation>
    <frame tileid="93" duration="150"/>
    <frame tileid="93" duration="150"/>
    <frame tileid="93" duration="150"/>
    <frame tileid="93" duration="150"/>
    <frame tileid="98" duration="150"/>
    <frame tileid="103" duration="150"/>
    <frame tileid="108" duration="150"/>
    <frame tileid="108" duration="150"/>
    <frame tileid="108" duration="150"/>
    <frame tileid="108" duration="150"/>
    <frame tileid="113" duration="150"/>
    <frame tileid="118" duration="150"/>
   </animation>
  </tile>
  <tile id="94">
   <animation>
    <frame tileid="94" duration="150"/>
    <frame tileid="94" duration="150"/>
    <frame tileid="94" duration="150"/>
    <frame tileid="94" duration="150"/>
    <frame tileid="99" duration="150"/>
    <frame tileid="104" duration="150"/>
    <frame tileid="109" duration="150"/>
    <frame tileid="109" duration="150"/>
    <frame tileid="109" duration="150"/>
    <frame tileid="109" duration="150"/>
    <frame tileid="114" duration="150"/>
    <frame tileid="119" duration="150"/>
   </animation>
  </tile>
  <tile id="120">
   <animation>
    <frame tileid="120" duration="150"/>
    <frame tileid="120" duration="150"/>
    <frame tileid="120" duration="150"/>
    <frame tileid="120" duration="150"/>
    <frame tileid="125" duration="150"/>
    <frame tileid="130" duration="150"/>
    <frame tileid="135" duration="150"/>
    <frame tileid="135" duration="150"/>
    <frame tileid="135" duration="150"/>
    <frame tileid="135" duration="150"/>
    <frame tileid="140" duration="150"/>
    <frame tileid="145" duration="150"/>
   </animation>
  </tile>
  <tile id="121">
   <animation>
    <frame tileid="121" duration="150"/>
    <frame tileid="121" duration="150"/>
    <frame tileid="121" duration="150"/>
    <frame tileid="121" duration="150"/>
    <frame tileid="126" duration="150"/>
    <frame tileid="131" duration="150"/>
    <frame tileid="136" duration="150"/>
    <frame tileid="136" duration="150"/>
    <frame tileid="136" duration="150"/>
    <frame tileid="136" duration="150"/>
    <frame tileid="141" duration="150"/>
    <frame tileid="146" duration="150"/>
   </animation>
  </tile>
  <tile id="123">
   <animation>
    <frame tileid="123" duration="150"/>
    <frame tileid="123" duration="150"/>
    <frame tileid="123" duration="150"/>
    <frame tileid="123" duration="150"/>
    <frame tileid="128" duration="150"/>
    <frame tileid="133" duration="150"/>
    <frame tileid="138" duration="150"/>
    <frame tileid="138" duration="150"/>
    <frame tileid="138" duration="150"/>
    <frame tileid="138" duration="150"/>
    <frame tileid="143" duration="150"/>
    <frame tileid="148" duration="150"/>
   </animation>
  </tile>
  <tile id="124">
   <animation>
    <frame tileid="124" duration="150"/>
    <frame tileid="124" duration="150"/>
    <frame tileid="124" duration="150"/>
    <frame tileid="124" duration="150"/>
    <frame tileid="129" duration="150"/>
    <frame tileid="134" duration="150"/>
    <frame tileid="139" duration="150"/>
    <frame tileid="139" duration="150"/>
    <frame tileid="139" duration="150"/>
    <frame tileid="139" duration="150"/>
    <frame tileid="144" duration="150"/>
    <frame tileid="149" duration="150"/>
   </animation>
  </tile>
 </tileset>
 <tileset firstgid="4895" name="Lever" tilewidth="16" tileheight="16" tilecount="40" columns="20">
  <image source="Lever.png" width="320" height="32"/>
  <tile id="0">
   <animation>
    <frame tileid="0" duration="150"/>
    <frame tileid="0" duration="150"/>
    <frame tileid="0" duration="150"/>
    <frame tileid="4" duration="150"/>
    <frame tileid="8" duration="150"/>
    <frame tileid="8" duration="150"/>
    <frame tileid="12" duration="150"/>
    <frame tileid="16" duration="150"/>
    <frame tileid="12" duration="150"/>
    <frame tileid="8" duration="150"/>
    <frame tileid="8" duration="150"/>
    <frame tileid="4" duration="150"/>
   </animation>
  </tile>
  <tile id="1">
   <animation>
    <frame tileid="1" duration="150"/>
    <frame tileid="1" duration="150"/>
    <frame tileid="1" duration="150"/>
    <frame tileid="5" duration="150"/>
    <frame tileid="9" duration="150"/>
    <frame tileid="9" duration="150"/>
    <frame tileid="13" duration="150"/>
    <frame tileid="17" duration="150"/>
    <frame tileid="13" duration="150"/>
    <frame tileid="9" duration="150"/>
    <frame tileid="9" duration="150"/>
    <frame tileid="5" duration="150"/>
   </animation>
  </tile>
  <tile id="2">
   <animation>
    <frame tileid="2" duration="150"/>
    <frame tileid="2" duration="150"/>
    <frame tileid="2" duration="150"/>
    <frame tileid="6" duration="150"/>
    <frame tileid="10" duration="150"/>
    <frame tileid="10" duration="150"/>
    <frame tileid="14" duration="150"/>
    <frame tileid="18" duration="150"/>
    <frame tileid="14" duration="150"/>
    <frame tileid="10" duration="150"/>
    <frame tileid="10" duration="150"/>
    <frame tileid="6" duration="150"/>
   </animation>
  </tile>
  <tile id="3">
   <animation>
    <frame tileid="3" duration="150"/>
    <frame tileid="3" duration="150"/>
    <frame tileid="3" duration="150"/>
    <frame tileid="7" duration="150"/>
    <frame tileid="11" duration="150"/>
    <frame tileid="11" duration="150"/>
    <frame tileid="15" duration="150"/>
    <frame tileid="19" duration="150"/>
    <frame tileid="15" duration="150"/>
    <frame tileid="11" duration="150"/>
    <frame tileid="11" duration="150"/>
    <frame tileid="7" duration="150"/>
   </animation>
  </tile>
  <tile id="20">
   <animation>
    <frame tileid="20" duration="150"/>
    <frame tileid="20" duration="150"/>
    <frame tileid="20" duration="150"/>
    <frame tileid="24" duration="150"/>
    <frame tileid="28" duration="150"/>
    <frame tileid="28" duration="150"/>
    <frame tileid="32" duration="150"/>
    <frame tileid="36" duration="150"/>
    <frame tileid="32" duration="150"/>
    <frame tileid="28" duration="150"/>
    <frame tileid="28" duration="150"/>
    <frame tileid="24" duration="150"/>
   </animation>
  </tile>
  <tile id="21">
   <animation>
    <frame tileid="21" duration="150"/>
    <frame tileid="21" duration="150"/>
    <frame tileid="21" duration="150"/>
    <frame tileid="25" duration="150"/>
    <frame tileid="29" duration="150"/>
    <frame tileid="29" duration="150"/>
    <frame tileid="33" duration="150"/>
    <frame tileid="37" duration="150"/>
    <frame tileid="33" duration="150"/>
    <frame tileid="29" duration="150"/>
    <frame tileid="29" duration="150"/>
    <frame tileid="25" duration="150"/>
   </animation>
  </tile>
  <tile id="22">
   <animation>
    <frame tileid="22" duration="150"/>
    <frame tileid="22" duration="150"/>
    <frame tileid="22" duration="150"/>
    <frame tileid="26" duration="150"/>
    <frame tileid="30" duration="150"/>
    <frame tileid="30" duration="150"/>
    <frame tileid="34" duration="150"/>
    <frame tileid="38" duration="150"/>
    <frame tileid="34" duration="150"/>
    <frame tileid="30" duration="150"/>
    <frame tileid="30" duration="150"/>
    <frame tileid="26" duration="150"/>
   </animation>
  </tile>
  <tile id="23">
   <animation>
    <frame tileid="23" duration="150"/>
    <frame tileid="23" duration="150"/>
    <frame tileid="23" duration="150"/>
    <frame tileid="27" duration="150"/>
    <frame tileid="31" duration="150"/>
    <frame tileid="31" duration="150"/>
    <frame tileid="35" duration="150"/>
    <frame tileid="39" duration="150"/>
    <frame tileid="35" duration="150"/>
    <frame tileid="31" duration="150"/>
    <frame tileid="31" duration="150"/>
    <frame tileid="27" duration="150"/>
   </animation>
  </tile>
 </tileset>
 <tileset firstgid="4935" name="Objects_topstairs" tilewidth="16" tileheight="16" tilecount="125" columns="25">
  <image source="Objects_topstairs.png" width="400" height="80"/>
 </tileset>
 <tileset firstgid="5060" name="web" tilewidth="16" tileheight="16" tilecount="228" columns="19">
  <image source="web.png" width="304" height="192"/>
 </tileset>
 <tileset firstgid="5288" name="Poor_man" tilewidth="16" tileheight="16" tilecount="48" columns="6">
  <image source="Poor_man.png" width="96" height="128"/>
  <tile id="0">
   <animation>
    <frame tileid="0" duration="150"/>
    <frame tileid="2" duration="150"/>
    <frame tileid="4" duration="150"/>
    <frame tileid="12" duration="150"/>
    <frame tileid="14" duration="150"/>
    <frame tileid="16" duration="150"/>
    <frame tileid="24" duration="150"/>
    <frame tileid="26" duration="150"/>
    <frame tileid="28" duration="150"/>
    <frame tileid="36" duration="150"/>
    <frame tileid="38" duration="150"/>
    <frame tileid="40" duration="150"/>
   </animation>
  </tile>
  <tile id="1">
   <animation>
    <frame tileid="1" duration="150"/>
    <frame tileid="3" duration="150"/>
    <frame tileid="5" duration="150"/>
    <frame tileid="13" duration="150"/>
    <frame tileid="15" duration="150"/>
    <frame tileid="17" duration="150"/>
    <frame tileid="25" duration="150"/>
    <frame tileid="27" duration="150"/>
    <frame tileid="29" duration="150"/>
    <frame tileid="37" duration="150"/>
    <frame tileid="39" duration="150"/>
    <frame tileid="41" duration="150"/>
   </animation>
  </tile>
  <tile id="6">
   <animation>
    <frame tileid="6" duration="150"/>
    <frame tileid="8" duration="150"/>
    <frame tileid="10" duration="150"/>
    <frame tileid="18" duration="150"/>
    <frame tileid="20" duration="150"/>
    <frame tileid="22" duration="150"/>
    <frame tileid="30" duration="150"/>
    <frame tileid="32" duration="150"/>
    <frame tileid="34" duration="150"/>
    <frame tileid="42" duration="150"/>
    <frame tileid="44" duration="150"/>
    <frame tileid="46" duration="150"/>
   </animation>
  </tile>
  <tile id="7">
   <animation>
    <frame tileid="7" duration="150"/>
    <frame tileid="9" duration="150"/>
    <frame tileid="11" duration="150"/>
    <frame tileid="19" duration="150"/>
    <frame tileid="21" duration="150"/>
    <frame tileid="23" duration="150"/>
    <frame tileid="31" duration="150"/>
    <frame tileid="33" duration="150"/>
    <frame tileid="35" duration="150"/>
    <frame tileid="43" duration="150"/>
    <frame tileid="45" duration="150"/>
    <frame tileid="47" duration="150"/>
   </animation>
  </tile>
 </tileset>
 <layer id="4" name="bottom" width="16" height="24">
  <data encoding="csv">
   <chunk x="0" y="-32" width="16" height="16">
0,0,0,0,0,0,0,0,0,0,0,0,0,0,0,0,
0,0,0,0,0,0,0,0,0,0,0,0,0,0,0,0,
0,0,0,0,0,0,0,0,0,0,0,0,0,0,0,0,
0,0,0,0,0,0,0,0,0,0,0,0,0,0,0,0,
0,0,0,0,0,0,0,0,0,0,0,0,0,0,0,0,
0,0,0,0,0,0,0,0,0,0,0,0,0,0,0,0,
0,0,0,0,0,0,0,0,0,0,0,0,0,0,0,0,
0,0,0,0,0,0,0,0,0,0,0,0,0,0,0,0,
0,0,0,0,0,0,0,0,0,0,0,0,0,0,0,0,
0,0,0,0,0,0,0,0,0,0,0,0,0,0,0,0,
0,0,0,0,0,0,0,0,0,0,0,0,0,0,0,0,
0,0,0,0,0,0,0,0,0,0,0,0,0,0,0,0,
0,0,0,0,0,0,0,0,0,0,0,0,0,0,0,0,
0,0,0,0,0,0,0,0,0,0,0,0,0,0,0,0,
0,0,0,0,0,0,0,0,0,0,0,0,0,0,0,0,
0,0,0,0,10,9,13,9,13,9,13,10,10,9,13,9
</chunk>
   <chunk x="16" y="-32" width="16" height="16">
0,0,0,0,0,0,0,0,0,0,0,0,0,0,0,0,
0,0,0,0,0,0,0,0,0,0,0,0,0,0,0,0,
0,0,0,0,0,0,0,0,0,0,0,0,0,0,0,0,
0,0,0,0,0,0,0,0,0,0,0,0,0,0,0,0,
0,0,0,0,0,0,0,0,0,0,0,0,0,0,0,0,
0,0,0,0,0,0,0,0,0,0,0,0,0,0,0,0,
0,0,0,0,0,0,0,0,0,0,0,0,0,0,0,0,
0,0,0,0,0,0,0,0,0,0,0,0,0,0,0,0,
0,0,0,0,0,0,0,0,0,0,0,0,0,0,0,0,
0,0,0,0,0,0,0,0,0,0,0,0,0,0,0,0,
0,0,0,0,0,0,0,0,0,0,0,0,0,0,0,0,
0,0,0,0,0,0,0,0,0,0,0,0,0,0,0,0,
0,0,0,0,0,0,0,0,0,0,0,0,0,0,0,0,
0,0,0,0,0,0,0,0,0,0,0,0,0,0,0,0,
0,0,0,0,0,0,0,0,0,0,0,0,0,0,0,0,
13,9,13,10,10,0,0,0,0,0,0,0,0,0,0,0
</chunk>
   <chunk x="0" y="-16" width="16" height="16">
0,0,0,0,0,0,0,0,0,0,0,0,0,0,0,0,
0,0,0,0,0,0,0,0,0,0,0,0,0,0,0,0,
0,0,0,0,0,0,0,0,0,0,0,0,0,0,0,0,
0,0,0,0,4191,4191,4194,4191,4193,4194,4191,4191,4191,4194,4191,4193,
0,0,0,0,4194,4193,4191,4194,4191,4191,4195,4194,4193,4191,4194,4191,
0,0,0,0,4191,4192,4193,4194,4195,4193,4194,4191,4192,4193,4194,4195,
0,0,0,0,4194,4191,4194,4191,4195,4191,4193,4194,4191,4194,4191,4195,
0,0,0,0,4191,4195,4191,4194,4191,4193,4194,4191,4195,4191,4194,4191,
0,0,0,0,4194,4193,4194,4191,4191,4194,4194,4194,4193,4194,4191,4191,
0,0,0,0,4191,4191,4194,4191,4193,4194,4191,4191,4191,4194,4191,4193,
0,0,0,0,4194,4193,4191,4194,4191,4191,4195,4194,4193,4191,4194,4191,
0,0,0,0,4191,4192,4193,4194,4195,4193,4194,4191,4192,4193,4194,4195,
0,0,0,0,4194,4191,4194,4191,4195,4191,4193,4194,4191,4194,4191,4195,
0,0,0,0,4191,4195,4191,4194,4191,4193,4194,4191,4195,4191,4194,4191,
0,0,0,0,4194,4193,4194,4191,4191,4194,4194,4194,4193,4194,4191,4191,
0,0,0,0,0,0,0,0,0,0,0,0,0,0,0,0
</chunk>
   <chunk x="16" y="-16" width="16" height="16">
0,0,0,0,0,0,0,0,0,0,0,0,0,0,0,0,
0,0,0,0,0,0,0,0,0,0,0,0,0,0,0,0,
0,0,0,0,0,0,0,0,0,0,0,0,0,0,0,0,
4194,4191,4191,4191,4194,0,0,0,0,0,0,0,0,0,0,0,
4191,4195,4194,4193,4191,0,0,0,0,0,0,0,0,0,0,0,
4193,4194,4191,4192,4193,0,0,0,0,0,0,0,0,0,0,0,
4191,4193,4194,4191,4194,0,0,0,0,0,0,0,0,0,0,0,
4193,4194,4191,4195,4191,0,0,0,0,0,0,0,0,0,0,0,
4194,4194,4194,4193,4194,0,0,0,0,0,0,0,0,0,0,0,
4194,4191,4191,4191,4194,0,0,0,0,0,0,0,0,0,0,0,
4191,4195,4194,4193,4191,0,0,0,0,0,0,0,0,0,0,0,
4193,4194,4191,4192,4193,0,0,0,0,0,0,0,0,0,0,0,
4191,4193,4194,4191,4194,0,0,0,0,0,0,0,0,0,0,0,
4193,4194,4191,4195,4191,0,0,0,0,0,0,0,0,0,0,0,
4194,4194,4194,4193,4194,0,0,0,0,0,0,0,0,0,0,0,
0,0,0,0,0,0,0,0,0,0,0,0,0,0,0,0
</chunk>
  </data>
 </layer>
 <layer id="13" name="walls_under_water" width="16" height="24">
  <data encoding="csv">
   <chunk x="0" y="-16" width="16" height="16">
0,0,0,0,0,0,0,0,0,0,0,0,0,0,0,0,
0,0,0,0,0,0,0,0,0,0,0,0,0,0,0,0,
0,0,0,0,0,0,0,0,0,0,0,0,0,0,0,0,
0,0,0,0,0,0,0,0,0,0,0,0,0,0,0,0,
0,0,0,0,0,0,0,0,0,0,0,0,0,0,0,0,
0,0,0,0,0,0,0,0,0,0,0,0,0,0,0,0,
0,0,0,0,0,0,0,0,0,0,0,0,0,0,0,0,
0,0,0,0,0,0,0,0,0,0,0,0,0,0,0,0,
0,0,0,0,0,0,0,0,0,0,0,0,0,0,0,0,
0,0,0,0,0,0,0,0,0,0,0,0,0,0,0,0,
0,0,0,0,0,0,0,0,0,0,0,0,0,0,0,0,
0,0,0,0,0,0,0,0,0,0,0,0,0,0,0,0,
0,0,0,0,0,0,0,0,0,0,0,0,0,0,0,0,
0,0,0,0,0,4131,4108,4108,4108,4108,4109,0,0,0,4107,4108,
0,0,0,0,4108,4143,0,0,0,0,0,0,0,0,0,0,
0,0,0,0,0,0,0,0,0,0,0,0,0,0,0,0
</chunk>
   <chunk x="16" y="-16" width="16" height="16">
0,0,0,0,0,0,0,0,0,0,0,0,0,0,0,0,
0,0,0,0,0,0,0,0,0,0,0,0,0,0,0,0,
0,0,0,0,0,0,0,0,0,0,0,0,0,0,0,0,
0,0,0,0,0,0,0,0,0,0,0,0,0,0,0,0,
0,0,0,0,0,0,0,0,0,0,0,0,0,0,0,0,
0,0,0,0,0,0,0,0,0,0,0,0,0,0,0,0,
0,0,0,0,0,0,0,0,0,0,0,0,0,0,0,0,
0,0,0,0,0,0,0,0,0,0,0,0,0,0,0,0,
0,0,0,0,0,0,0,0,0,0,0,0,0,0,0,0,
0,0,0,0,0,0,0,0,0,0,0,0,0,0,0,0,
0,0,0,0,0,0,0,0,0,0,0,0,0,0,0,0,
0,0,0,0,0,0,0,0,0,0,0,0,0,0,0,0,
0,0,0,0,0,0,0,0,0,0,0,0,0,0,0,0,
4108,4108,4108,4132,0,0,0,0,0,0,0,0,0,0,0,0,
0,0,0,4144,4108,0,0,0,0,0,0,0,0,0,0,0,
0,0,0,0,0,0,0,0,0,0,0,0,0,0,0,0
</chunk>
  </data>
 </layer>
 <layer id="12" name="Water_details1" width="16" height="24">
  <data encoding="csv">
   <chunk x="0" y="-16" width="16" height="16">
0,0,0,0,0,0,0,0,0,0,0,0,0,0,0,0,
0,0,0,0,0,0,0,0,0,0,0,0,0,0,0,0,
0,0,0,0,0,0,0,0,0,0,0,0,0,0,0,0,
0,0,0,0,0,0,0,0,0,0,0,0,0,0,0,0,
0,0,0,0,0,0,0,0,0,0,0,0,0,0,0,0,
0,0,0,0,0,0,0,0,0,0,0,0,0,0,0,0,
0,0,0,0,0,0,0,0,0,0,0,0,0,0,0,0,
0,0,0,0,0,0,0,0,0,0,0,0,0,0,0,0,
0,0,0,0,0,0,0,0,0,1544,1545,1546,1547,1548,1549,0,
0,0,0,0,1226,1227,1228,1229,1230,1581,1582,1583,1584,1585,1586,1237,
0,0,0,0,1263,1264,1265,1266,1267,1268,1269,1270,1271,1272,1273,1274,
0,0,0,0,1300,1301,1302,1303,1304,1305,1306,1307,1308,1309,1310,1311,
0,0,0,0,1337,0,0,0,0,0,0,0,0,1476,1477,1478,
0,0,0,0,1544,1545,1546,1547,1548,1407,1408,1409,1410,1411,1412,1413,
0,0,0,0,1581,1582,1583,1584,1585,1444,1445,1446,1447,1448,1449,1450,
0,0,0,0,0,0,0,0,0,0,0,0,0,0,0,0
</chunk>
   <chunk x="16" y="-16" width="16" height="16">
0,0,0,0,0,0,0,0,0,0,0,0,0,0,0,0,
0,0,0,0,0,0,0,0,0,0,0,0,0,0,0,0,
0,0,0,0,0,0,0,0,0,0,0,0,0,0,0,0,
0,0,0,0,0,0,0,0,0,0,0,0,0,0,0,0,
0,0,0,0,0,0,0,0,0,0,0,0,0,0,0,0,
0,0,0,0,0,0,0,0,0,0,0,0,0,0,0,0,
0,0,0,0,0,0,0,0,0,0,0,0,0,0,0,0,
0,0,0,0,0,0,0,0,0,0,0,0,0,0,0,0,
0,0,0,0,0,0,0,0,0,0,0,0,0,0,0,0,
1238,0,0,0,0,0,0,0,0,0,0,0,0,0,0,0,
1275,0,0,0,0,0,0,0,0,0,0,0,0,0,0,0,
1312,0,0,0,0,0,0,0,0,0,0,0,0,0,0,0,
0,0,0,0,0,0,0,0,0,0,0,0,0,0,0,0,
1414,1415,1416,1417,1418,1419,1420,0,0,0,0,0,0,0,0,0,
1451,1452,1453,1454,1455,1456,1457,0,0,0,0,0,0,0,0,0,
0,0,0,0,0,0,0,0,0,0,0,0,0,0,0,0
</chunk>
  </data>
 </layer>
 <layer id="14" name="Water_details2" width="16" height="24">
  <data encoding="csv">
   <chunk x="0" y="-16" width="16" height="16">
0,0,0,0,0,0,0,0,0,0,0,0,0,0,0,0,
0,0,0,0,0,0,0,0,0,0,0,0,0,0,0,0,
0,0,0,0,0,0,0,0,0,0,0,0,0,0,0,0,
0,0,0,0,0,0,0,0,0,0,0,0,0,0,0,0,
0,0,0,0,0,0,0,0,0,0,0,0,0,0,0,0,
0,0,0,0,0,0,0,0,0,0,0,0,0,0,0,0,
0,0,0,0,0,0,0,0,0,0,0,0,0,0,0,0,
0,0,0,0,0,0,0,0,0,0,1476,1477,1478,1479,0,0,
0,0,0,0,0,0,0,0,0,0,0,0,0,1398,1399,1400,
0,0,0,0,0,0,0,0,0,0,0,0,0,1431,1432,1433,
0,0,0,0,0,0,0,0,0,0,0,0,0,1468,1469,1470,
0,0,0,0,0,0,0,0,0,0,0,0,0,0,0,0,
0,0,0,0,0,0,0,0,0,0,0,0,0,0,0,0,
0,0,0,0,0,0,0,0,0,0,0,0,0,0,0,0,
0,0,0,0,0,0,0,0,0,0,0,0,0,0,0,0,
0,0,0,0,0,0,0,0,0,0,0,0,0,0,0,0
</chunk>
   <chunk x="16" y="-16" width="16" height="16">
0,0,0,0,0,0,0,0,0,0,0,0,0,0,0,0,
0,0,0,0,0,0,0,0,0,0,0,0,0,0,0,0,
0,0,0,0,0,0,0,0,0,0,0,0,0,0,0,0,
0,0,0,0,0,0,0,0,0,0,0,0,0,0,0,0,
0,0,0,0,0,0,0,0,0,0,0,0,0,0,0,0,
0,0,0,0,0,0,0,0,0,0,0,0,0,0,0,0,
0,0,0,0,0,0,0,0,0,0,0,0,0,0,0,0,
0,0,0,0,0,0,0,0,0,0,0,0,0,0,0,0,
1401,0,0,0,0,0,0,0,0,0,0,0,0,0,0,0,
1434,1435,1436,0,0,0,0,0,0,0,0,0,0,0,0,0,
1471,1472,1473,0,0,0,0,0,0,0,0,0,0,0,0,0,
0,0,0,0,0,0,0,0,0,0,0,0,0,0,0,0,
0,0,0,0,0,0,0,0,0,0,0,0,0,0,0,0,
0,0,0,0,0,0,0,0,0,0,0,0,0,0,0,0,
0,0,0,0,0,0,0,0,0,0,0,0,0,0,0,0,
0,0,0,0,0,0,0,0,0,0,0,0,0,0,0,0
</chunk>
  </data>
 </layer>
 <layer id="2" name="Floor1" width="16" height="24">
  <data encoding="csv">
   <chunk x="0" y="-16" width="16" height="16">
0,0,0,0,0,0,0,0,0,0,0,0,0,0,0,0,
0,0,0,0,0,0,0,0,0,0,0,0,0,0,0,0,
0,0,0,0,0,0,0,0,0,0,0,0,0,0,0,0,
0,0,0,0,0,0,0,0,0,0,0,0,0,0,0,0,
0,0,0,0,1027,1028,1029,0,0,0,0,0,0,0,0,0,
0,0,0,0,1047,1048,1049,0,0,922,3,0,0,0,1,2,
0,0,0,0,1067,1068,922,922,922,922,16,0,0,0,53,54,
0,0,0,0,1048,1049,922,922,4281,4282,4283,0,0,0,4319,4320,
0,0,0,0,1069,1069,966,922,4304,4305,4306,0,0,0,4342,4343,
0,0,0,0,1069,985,986,922,922,922,16,0,0,0,4365,4366,
0,0,0,0,901,1005,1006,922,922,4397,4398,0,0,0,2147483708,2147483707,
0,0,0,0,921,922,922,922,4413,4420,4421,0,0,0,53,54,
0,0,0,0,922,101,109,110,4436,4437,111,0,0,0,4434,4435,
0,0,0,0,109,114,122,123,119,123,124,0,0,0,118,119,
0,0,0,0,122,46,0,0,0,0,0,0,0,0,0,0,
0,0,0,0,0,0,0,0,0,0,0,0,0,0,0,0
</chunk>
   <chunk x="16" y="-16" width="16" height="16">
0,0,0,0,0,0,0,0,0,0,0,0,0,0,0,0,
0,0,0,0,0,0,0,0,0,0,0,0,0,0,0,0,
0,0,0,0,0,0,0,0,0,0,0,0,0,0,0,0,
0,0,0,0,0,0,0,0,0,0,0,0,0,0,0,0,
0,0,1027,1028,1029,0,0,0,0,0,0,0,0,0,0,0,
0,0,922,1048,1049,0,0,0,0,0,0,0,0,0,0,0,
922,922,922,1027,1028,0,0,0,0,0,0,0,0,0,0,0,
4321,922,922,922,922,0,0,0,0,0,0,0,0,0,0,0,
4344,928,967,1069,1069,0,0,0,0,0,0,0,0,0,0,0,
4367,922,987,988,1069,0,0,0,0,0,0,0,0,0,0,0,
922,922,1007,1008,909,0,0,0,0,0,0,0,0,0,0,0,
4418,4419,922,922,929,0,0,0,0,0,0,0,0,0,0,0,
4441,4442,109,102,15,0,0,0,0,0,0,0,0,0,0,0,
120,121,122,115,107,0,0,0,0,0,0,0,0,0,0,0,
0,0,0,47,120,0,0,0,0,0,0,0,0,0,0,0,
0,0,0,0,0,0,0,0,0,0,0,0,0,0,0,0
</chunk>
  </data>
 </layer>
 <layer id="16" name="spots" width="16" height="24">
  <data encoding="csv">
   <chunk x="0" y="-16" width="16" height="16">
0,0,0,0,0,0,0,0,0,0,0,0,0,0,0,0,
0,0,0,0,0,0,0,0,0,0,0,0,0,0,0,0,
0,0,0,0,0,0,0,0,0,0,0,0,0,0,0,0,
0,0,0,0,0,0,0,0,0,0,0,0,0,0,0,0,
0,0,0,0,0,0,0,0,0,0,0,0,0,0,0,0,
0,0,0,0,0,0,0,0,0,0,0,0,0,0,0,0,
0,0,0,0,0,0,0,0,0,0,0,0,0,0,0,0,
0,0,0,0,0,0,0,0,0,0,0,0,0,0,0,0,
0,0,0,0,0,0,0,0,0,0,0,0,0,0,0,0,
0,0,0,0,0,0,1155,1156,0,1207,0,0,0,0,0,1210,
0,0,0,0,0,0,1169,1170,0,0,0,0,0,0,0,1153,
0,0,0,0,0,0,0,0,1186,1187,0,0,0,0,0,1167,
0,0,0,0,0,0,0,0,0,0,0,0,0,0,0,0,
0,0,0,0,0,0,0,0,0,0,0,0,0,0,0,0,
0,0,0,0,0,0,0,0,0,0,0,0,0,0,0,0,
0,0,0,0,0,0,0,0,0,0,0,0,0,0,0,0
</chunk>
   <chunk x="16" y="-16" width="16" height="16">
0,0,0,0,0,0,0,0,0,0,0,0,0,0,0,0,
0,0,0,0,0,0,0,0,0,0,0,0,0,0,0,0,
0,0,0,0,0,0,0,0,0,0,0,0,0,0,0,0,
0,0,0,0,0,0,0,0,0,0,0,0,0,0,0,0,
0,0,0,0,0,0,0,0,0,0,0,0,0,0,0,0,
0,0,0,0,0,0,0,0,0,0,0,0,0,0,0,0,
0,0,0,0,0,0,0,0,0,0,0,0,0,0,0,0,
0,0,0,0,0,0,0,0,0,0,0,0,0,0,0,0,
0,0,0,0,0,0,0,0,0,0,0,0,0,0,0,0,
0,0,0,0,0,0,0,0,0,0,0,0,0,0,0,0,
1154,0,0,0,0,0,0,0,0,0,0,0,0,0,0,0,
1168,0,0,0,0,0,0,0,0,0,0,0,0,0,0,0,
0,0,0,0,0,0,0,0,0,0,0,0,0,0,0,0,
0,0,0,0,0,0,0,0,0,0,0,0,0,0,0,0,
0,0,0,0,0,0,0,0,0,0,0,0,0,0,0,0,
0,0,0,0,0,0,0,0,0,0,0,0,0,0,0,0
</chunk>
  </data>
 </layer>
 <layer id="17" name="Spots2" width="16" height="24">
  <data encoding="csv">
   <chunk x="0" y="-16" width="16" height="16">
0,0,0,0,0,0,0,0,0,0,0,0,0,0,0,0,
0,0,0,0,0,0,0,0,0,0,0,0,0,0,0,0,
0,0,0,0,0,0,0,0,0,0,0,0,0,0,0,0,
0,0,0,0,0,0,0,0,0,0,0,0,0,0,0,0,
0,0,0,0,0,0,0,0,0,0,0,0,0,0,0,0,
0,0,0,0,0,0,0,0,0,0,0,0,0,0,0,0,
0,0,0,0,0,0,0,0,0,1182,0,0,0,0,0,1181,
0,0,0,0,0,0,0,0,0,1196,0,0,0,0,0,1195,
0,0,0,0,0,0,0,0,1211,1158,0,0,0,0,0,0,
0,0,0,0,0,0,0,0,1171,1172,0,0,0,0,0,0,
0,0,0,0,0,1185,0,1159,1160,0,0,0,0,0,0,0,
0,0,0,0,0,1199,0,1173,1174,0,0,0,0,0,0,0,
0,0,0,0,0,0,0,0,0,0,0,0,0,0,0,0,
0,0,0,0,0,0,0,0,0,0,0,0,0,0,0,0,
0,0,0,0,0,0,0,0,0,0,0,0,0,0,0,0,
0,0,0,0,0,0,0,0,0,0,0,0,0,0,0,0
</chunk>
   <chunk x="16" y="-16" width="16" height="16">
0,0,0,0,0,0,0,0,0,0,0,0,0,0,0,0,
0,0,0,0,0,0,0,0,0,0,0,0,0,0,0,0,
0,0,0,0,0,0,0,0,0,0,0,0,0,0,0,0,
0,0,0,0,0,0,0,0,0,0,0,0,0,0,0,0,
0,0,0,0,0,0,0,0,0,0,0,0,0,0,0,0,
0,0,0,0,0,0,0,0,0,0,0,0,0,0,0,0,
1182,0,0,0,0,0,0,0,0,0,0,0,0,0,0,0,
1196,0,0,0,0,0,0,0,0,0,0,0,0,0,0,0,
1155,1156,0,0,0,0,0,0,0,0,0,0,0,0,0,0,
1169,1170,0,0,0,0,0,0,0,0,0,0,0,0,0,0,
0,1159,1160,0,0,0,0,0,0,0,0,0,0,0,0,0,
0,1173,1174,0,0,0,0,0,0,0,0,0,0,0,0,0,
0,0,0,0,0,0,0,0,0,0,0,0,0,0,0,0,
0,0,0,0,0,0,0,0,0,0,0,0,0,0,0,0,
0,0,0,0,0,0,0,0,0,0,0,0,0,0,0,0,
0,0,0,0,0,0,0,0,0,0,0,0,0,0,0,0
</chunk>
  </data>
 </layer>
 <layer id="18" name="Spots3" width="16" height="24">
  <data encoding="csv"/>
 </layer>
 <layer id="15" name="Floor_details1" width="16" height="24">
  <data encoding="csv">
   <chunk x="0" y="-16" width="16" height="16">
0,0,0,0,0,0,0,0,0,0,0,0,0,0,0,0,
0,0,0,0,0,0,0,0,0,0,0,0,0,0,0,0,
0,0,0,0,0,0,0,0,0,0,0,0,0,0,0,0,
0,0,0,0,0,0,0,0,0,0,0,0,0,0,0,0,
0,0,0,0,0,0,0,0,0,0,0,0,0,0,0,0,
0,0,0,0,0,0,0,0,0,0,0,0,0,0,0,0,
0,0,0,0,4495,4544,4544,4491,4492,0,0,0,0,0,0,0,
0,0,0,0,4518,4544,4544,4514,4515,0,0,0,0,0,0,0,
0,0,0,0,4566,4567,4431,4568,4569,0,0,0,0,0,0,0,
0,0,0,0,4589,4590,4454,4591,4592,0,0,0,0,0,0,0,
0,0,0,0,0,0,0,0,4501,0,0,0,0,0,0,0,
0,0,0,0,0,0,0,0,0,0,0,0,0,0,0,0,
0,0,0,0,0,0,0,0,0,0,0,0,0,0,0,0,
0,0,0,0,0,0,0,0,0,0,0,0,0,0,0,0,
0,0,0,0,0,0,0,0,0,0,0,0,0,0,0,0,
0,0,0,0,0,0,0,0,0,0,0,0,0,0,0,0
</chunk>
   <chunk x="16" y="-16" width="16" height="16">
0,0,0,0,0,0,0,0,0,0,0,0,0,0,0,0,
0,0,0,0,0,0,0,0,0,0,0,0,0,0,0,0,
0,0,0,0,0,0,0,0,0,0,0,0,0,0,0,0,
0,0,0,0,0,0,0,0,0,0,0,0,0,0,0,0,
0,0,0,0,0,0,0,0,0,0,0,0,0,0,0,0,
4494,4495,4544,4544,0,0,0,0,0,0,0,0,0,0,0,0,
4517,4518,4544,4544,0,0,0,0,0,0,0,0,0,0,0,0,
4565,4566,4567,4431,0,0,0,0,0,0,0,0,0,0,0,0,
4588,4589,4590,4454,0,0,0,0,0,0,0,0,0,0,0,0,
4524,4525,0,0,0,0,0,0,0,0,0,0,0,0,0,0,
4547,4548,0,0,0,0,0,0,0,0,0,0,0,0,0,0,
0,0,0,0,0,0,0,0,0,0,0,0,0,0,0,0,
0,0,0,0,0,0,0,0,0,0,0,0,0,0,0,0,
0,0,0,0,0,0,0,0,0,0,0,0,0,0,0,0,
0,0,0,0,0,0,0,0,0,0,0,0,0,0,0,0,
0,0,0,0,0,0,0,0,0,0,0,0,0,0,0,0
</chunk>
  </data>
 </layer>
 <layer id="6" name="floor_details2" width="16" height="24">
  <data encoding="csv">
   <chunk x="0" y="-16" width="16" height="16">
0,0,0,0,0,0,0,0,0,0,0,0,0,0,0,0,
0,0,0,0,0,0,0,0,0,0,0,0,0,0,0,0,
0,0,0,0,0,0,0,0,0,0,0,0,0,0,0,0,
0,0,0,0,0,0,0,0,0,0,0,0,0,0,0,0,
0,0,0,0,0,0,0,0,0,0,0,0,0,0,0,0,
0,0,0,0,0,0,0,0,0,0,0,0,0,0,0,0,
0,0,0,0,0,0,0,0,0,0,0,0,0,0,0,0,
0,0,0,0,0,0,0,0,953,0,0,0,0,0,0,970,
0,0,0,0,0,0,0,0,0,0,0,0,0,0,0,0,
0,0,0,0,0,0,0,0,930,0,0,0,0,0,0,0,
0,0,0,0,0,0,0,0,0,0,0,0,0,0,0,931,
0,0,0,0,0,0,0,911,0,0,0,0,0,0,0,0,
0,0,0,0,0,0,0,0,0,0,0,0,0,0,0,0,
0,0,0,0,0,0,0,0,0,0,0,0,0,0,0,0,
0,0,0,0,0,0,0,0,0,0,0,0,0,0,0,0,
0,0,0,0,0,0,0,0,0,0,0,0,0,0,0,0
</chunk>
   <chunk x="16" y="-16" width="16" height="16">
0,0,0,0,0,0,0,0,0,0,0,0,0,0,0,0,
0,0,0,0,0,0,0,0,0,0,0,0,0,0,0,0,
0,0,0,0,0,0,0,0,0,0,0,0,0,0,0,0,
0,0,0,0,0,0,0,0,0,0,0,0,0,0,0,0,
0,0,0,0,0,0,0,0,0,0,0,0,0,0,0,0,
0,0,0,0,0,0,0,0,0,0,0,0,0,0,0,0,
0,0,0,0,0,0,0,0,0,0,0,0,0,0,0,0,
971,0,0,0,0,0,0,0,0,0,0,0,0,0,0,0,
953,0,0,0,0,0,0,0,0,0,0,0,0,0,0,0,
0,0,0,0,0,0,0,0,0,0,0,0,0,0,0,0,
0,0,0,0,0,0,0,0,0,0,0,0,0,0,0,0,
0,0,1012,0,0,0,0,0,0,0,0,0,0,0,0,0,
0,0,0,0,0,0,0,0,0,0,0,0,0,0,0,0,
0,0,0,0,0,0,0,0,0,0,0,0,0,0,0,0,
0,0,0,0,0,0,0,0,0,0,0,0,0,0,0,0,
0,0,0,0,0,0,0,0,0,0,0,0,0,0,0,0
</chunk>
  </data>
 </layer>
 <layer id="21" name="Lever" width="16" height="24">
  <data encoding="csv"/>
 </layer>
 <layer id="3" name="Walls" width="16" height="24">
  <data encoding="csv">
   <chunk x="0" y="-16" width="16" height="16">
0,0,0,0,0,0,0,0,0,0,0,0,0,0,0,0,
0,0,0,0,0,0,0,0,0,0,0,0,0,0,0,0,
0,0,0,0,0,0,0,0,0,0,0,0,0,0,0,0,
0,0,0,0,1074,1054,1076,1077,1054,1055,1056,1057,1054,1054,1075,1054,
0,0,0,0,1057,1074,784,822,1058,822,1059,1079,1078,1080,1078,822,
0,0,0,0,1055,1056,789,912,915,916,917,917,917,917,917,918,
0,0,0,0,822,1059,809,932,935,936,937,937,937,937,937,938,
0,0,0,0,842,842,829,0,0,0,0,0,0,0,0,0,
0,0,0,0,862,862,849,0,0,0,0,0,0,0,0,0,
0,0,0,0,0,0,0,0,0,0,0,0,0,0,0,0,
0,0,0,0,0,0,0,0,0,0,0,0,0,0,0,0,
0,0,0,0,0,0,0,0,0,0,0,0,0,0,0,0,
0,0,0,0,0,0,0,0,0,0,0,0,0,0,0,0,
0,0,0,0,0,0,0,0,0,0,0,0,0,0,0,0,
0,0,0,0,0,0,0,0,0,0,0,0,0,0,0,0,
0,0,0,0,0,0,0,0,0,0,0,0,0,0,0,0
</chunk>
   <chunk x="16" y="-16" width="16" height="16">
0,0,0,0,0,0,0,0,0,0,0,0,0,0,0,0,
0,0,0,0,0,0,0,0,0,0,0,0,0,0,0,0,
0,0,0,0,0,0,0,0,0,0,0,0,0,0,0,0,
1056,1054,1077,1054,1074,0,0,0,0,0,0,0,0,0,0,0,
1079,822,785,1055,1056,0,0,0,0,0,0,0,0,0,0,0,
919,913,790,1075,1076,0,0,0,0,0,0,0,0,0,0,0,
939,933,810,1058,1060,0,0,0,0,0,0,0,0,0,0,0,
0,0,830,842,842,0,0,0,0,0,0,0,0,0,0,0,
0,0,850,862,862,0,0,0,0,0,0,0,0,0,0,0,
0,0,0,0,0,0,0,0,0,0,0,0,0,0,0,0,
0,0,0,0,0,0,0,0,0,0,0,0,0,0,0,0,
0,0,0,0,0,0,0,0,0,0,0,0,0,0,0,0,
0,0,0,0,0,0,0,0,0,0,0,0,0,0,0,0,
0,0,0,0,0,0,0,0,0,0,0,0,0,0,0,0,
0,0,0,0,0,0,0,0,0,0,0,0,0,0,0,0,
0,0,0,0,0,0,0,0,0,0,0,0,0,0,0,0
</chunk>
  </data>
 </layer>
 <layer id="19" name="Door_water" width="16" height="24">
  <data encoding="csv">
   <chunk x="0" y="-16" width="16" height="16">
0,0,0,0,0,0,0,0,0,0,0,0,0,0,0,0,
0,0,0,0,0,0,0,0,0,0,0,0,0,0,0,0,
0,0,0,0,0,0,0,0,0,0,0,0,0,0,0,0,
0,0,0,0,0,0,0,0,0,0,0,0,0,0,0,0,
0,0,0,0,0,0,0,0,0,0,0,0,0,0,0,0,
0,0,0,0,0,0,0,0,0,0,4595,4596,4597,4598,4599,0,
0,0,0,0,0,0,0,0,0,0,4625,4626,4627,4628,4629,0,
0,0,0,0,0,0,0,0,0,0,4655,4656,4657,4658,4659,0,
0,0,0,0,0,0,0,0,0,0,4685,4686,4687,4688,4689,0,
0,0,0,0,0,0,0,0,0,0,4715,4716,4717,4718,4719,0,
0,0,0,0,0,0,0,0,0,0,0,0,0,0,0,0,
0,0,0,0,0,0,0,0,0,0,0,0,0,0,0,0,
0,0,0,0,0,0,0,0,0,0,0,0,0,0,0,0,
0,0,0,0,0,0,0,0,0,0,0,0,0,0,0,0,
0,0,0,0,0,0,0,0,0,0,0,0,0,0,0,0,
0,0,0,0,0,0,0,0,0,0,0,0,0,0,0,0
</chunk>
  </data>
 </layer>
 <layer id="20" name="Door_lattice" width="16" height="24">
  <data encoding="csv">
   <chunk x="0" y="-16" width="16" height="16">
0,0,0,0,0,0,0,0,0,0,0,0,0,0,0,0,
0,0,0,0,0,0,0,0,0,0,0,0,0,0,0,0,
0,0,0,0,0,0,0,0,0,0,0,0,0,0,0,0,
0,0,0,0,0,0,0,0,0,0,0,0,0,0,0,0,
0,0,0,0,0,0,0,0,0,0,0,0,0,0,0,0,
0,0,0,0,0,0,0,0,0,0,4745,4746,4747,4748,4749,0,
0,0,0,0,0,0,0,0,0,0,4775,4776,4777,4778,4779,0,
0,0,0,0,0,0,0,0,0,0,4805,4806,4807,4808,4809,0,
0,0,0,0,0,0,0,0,0,0,4835,4836,4837,4838,4839,0,
0,0,0,0,0,0,0,0,0,0,0,0,0,0,0,0,
0,0,0,0,0,0,0,0,0,0,0,0,0,0,0,0,
0,0,0,0,0,0,0,0,0,0,0,0,0,0,0,0,
0,0,0,0,0,0,0,0,0,0,0,0,0,0,0,0,
0,0,0,0,0,0,0,0,0,0,0,0,0,0,0,0,
0,0,0,0,0,0,0,0,0,0,0,0,0,0,0,0,
0,0,0,0,0,0,0,0,0,0,0,0,0,0,0,0
</chunk>
  </data>
 </layer>
 <layer id="23" name="Objects1" width="16" height="24">
  <data encoding="csv">
   <chunk x="0" y="-16" width="16" height="16">
0,0,0,0,0,0,0,0,0,0,0,0,0,0,0,0,
0,0,0,0,0,0,0,0,0,0,0,0,0,0,0,0,
0,0,0,0,0,0,0,0,0,0,0,0,0,0,0,0,
0,0,0,0,0,0,0,0,0,0,0,0,0,0,0,0,
0,0,0,0,0,0,0,0,0,0,0,0,0,0,0,0,
0,0,0,0,0,0,0,0,0,0,4942,4943,4944,4945,4946,0,
0,0,0,0,0,0,4935,4936,4937,0,4967,0,0,0,4971,0,
0,0,0,0,0,0,4960,4961,4962,0,0,0,0,0,0,0,
0,0,0,0,0,0,4985,4986,4987,0,0,0,0,0,0,0,
0,0,0,0,0,0,0,0,0,0,0,0,0,0,0,0,
0,0,0,0,0,0,0,0,0,4952,4953,0,0,0,0,0,
0,0,0,0,0,0,0,0,0,4977,4978,0,0,0,0,0,
0,0,0,0,0,0,0,0,0,0,0,0,0,0,0,0,
0,0,0,0,0,0,0,0,0,0,0,0,0,0,0,0,
0,0,0,0,0,0,0,0,0,0,0,0,0,0,0,0,
0,0,0,0,0,0,0,0,0,0,0,0,0,0,0,0
</chunk>
   <chunk x="16" y="-16" width="16" height="16">
0,0,0,0,0,0,0,0,0,0,0,0,0,0,0,0,
0,0,0,0,0,0,0,0,0,0,0,0,0,0,0,0,
0,0,0,0,0,0,0,0,0,0,0,0,0,0,0,0,
0,0,0,0,0,0,0,0,0,0,0,0,0,0,0,0,
0,0,0,0,0,0,0,0,0,0,0,0,0,0,0,0,
0,0,0,0,0,0,0,0,0,0,0,0,0,0,0,0,
0,4950,4951,0,0,0,0,0,0,0,0,0,0,0,0,0,
0,4975,4976,0,0,0,0,0,0,0,0,0,0,0,0,0,
0,0,0,0,0,0,0,0,0,0,0,0,0,0,0,0,
4954,4955,0,0,0,0,0,0,0,0,0,0,0,0,0,0,
4979,4980,0,0,0,0,0,0,0,0,0,0,0,0,0,0,
0,0,0,0,0,0,0,0,0,0,0,0,0,0,0,0,
0,0,0,0,0,0,0,0,0,0,0,0,0,0,0,0,
0,0,0,0,0,0,0,0,0,0,0,0,0,0,0,0,
0,0,0,0,0,0,0,0,0,0,0,0,0,0,0,0,
0,0,0,0,0,0,0,0,0,0,0,0,0,0,0,0
</chunk>
  </data>
 </layer>
 <layer id="24" name="Objects2" width="16" height="24">
  <data encoding="csv">
   <chunk x="0" y="-16" width="16" height="16">
0,0,0,0,0,0,0,0,0,0,0,0,0,0,0,0,
0,0,0,0,0,0,0,0,0,0,0,0,0,0,0,0,
0,0,0,0,0,0,0,0,0,0,0,0,0,0,0,0,
0,0,0,0,0,0,0,0,0,0,0,0,0,0,0,0,
0,0,0,0,0,0,0,0,0,0,0,0,0,0,0,0,
0,0,0,0,0,0,0,0,0,0,0,0,0,0,0,0,
0,0,0,0,0,0,0,0,0,0,0,0,0,0,4938,4939,
0,0,0,0,0,0,0,0,0,0,0,0,0,0,4963,4964,
0,0,0,0,4947,4948,4949,0,0,0,0,0,0,0,4988,4989,
0,0,0,0,4972,4973,4974,0,0,0,0,0,0,0,0,0,
0,0,0,0,0,0,0,0,0,0,0,0,0,0,0,0,
0,0,0,0,0,0,0,0,0,0,0,0,0,0,0,0,
0,0,0,0,0,0,0,0,0,0,0,0,0,0,0,0,
0,0,0,0,0,0,0,0,0,0,0,0,0,0,0,0,
0,0,0,0,0,0,0,0,0,0,0,0,0,0,0,0,
0,0,0,0,0,0,0,0,0,0,0,0,0,0,0,0
</chunk>
   <chunk x="16" y="-16" width="16" height="16">
0,0,0,0,0,0,0,0,0,0,0,0,0,0,0,0,
0,0,0,0,0,0,0,0,0,0,0,0,0,0,0,0,
0,0,0,0,0,0,0,0,0,0,0,0,0,0,0,0,
0,0,0,0,0,0,0,0,0,0,0,0,0,0,0,0,
0,0,0,0,0,0,0,0,0,0,0,0,0,0,0,0,
0,0,0,0,0,0,0,0,0,0,0,0,0,0,0,0,
4940,4941,0,0,0,0,0,0,0,0,0,0,0,0,0,0,
4965,4966,0,0,0,0,0,0,0,0,0,0,0,0,0,0,
4990,4991,0,0,0,0,0,0,0,0,0,0,0,0,0,0,
0,0,0,0,0,0,0,0,0,0,0,0,0,0,0,0,
0,0,0,0,0,0,0,0,0,0,0,0,0,0,0,0,
0,0,0,0,0,0,0,0,0,0,0,0,0,0,0,0,
0,0,0,0,0,0,0,0,0,0,0,0,0,0,0,0,
0,0,0,0,0,0,0,0,0,0,0,0,0,0,0,0,
0,0,0,0,0,0,0,0,0,0,0,0,0,0,0,0,
0,0,0,0,0,0,0,0,0,0,0,0,0,0,0,0
</chunk>
  </data>
 </layer>
 <layer id="25" name="Objects3" width="16" height="24">
  <data encoding="csv">
   <chunk x="0" y="-16" width="16" height="16">
0,0,0,0,0,0,0,0,0,0,0,0,0,0,0,0,
0,0,0,0,0,0,0,0,0,0,0,0,0,0,0,0,
0,0,0,0,0,0,0,0,0,0,0,0,0,0,0,0,
0,0,0,0,0,0,0,0,0,0,0,0,0,0,0,0,
0,0,0,0,0,0,0,0,0,0,0,0,0,0,0,0,
0,0,0,0,0,0,0,0,0,0,0,0,0,0,0,0,
0,0,0,0,0,0,4991,4992,4993,0,0,0,0,0,0,5000,
0,0,0,0,0,0,5016,5017,5018,0,0,0,0,0,0,5025,
0,0,0,0,0,0,5041,5042,5043,0,0,0,0,0,0,5015,
0,0,0,0,0,0,0,0,0,0,0,0,0,0,0,5040,
0,0,0,0,0,0,0,0,4994,4995,0,0,0,0,0,0,
0,0,0,0,0,0,0,0,5019,5020,0,0,0,0,0,0,
0,0,0,0,0,0,0,0,5044,5045,0,0,0,0,0,0,
0,0,0,0,0,0,0,0,0,0,0,0,0,0,0,0,
0,0,0,0,0,0,0,0,0,0,0,0,0,0,0,0,
0,0,0,0,0,0,0,0,0,0,0,0,0,0,0,0
</chunk>
   <chunk x="16" y="-16" width="16" height="16">
0,0,0,0,0,0,0,0,0,0,0,0,0,0,0,0,
0,0,0,0,0,0,0,0,0,0,0,0,0,0,0,0,
0,0,0,0,0,0,0,0,0,0,0,0,0,0,0,0,
0,0,0,0,0,0,0,0,0,0,0,0,0,0,0,0,
0,0,0,0,0,0,0,0,0,0,0,0,0,0,0,0,
0,0,0,0,0,0,0,0,0,0,0,0,0,0,0,0,
5001,0,0,0,0,0,0,0,0,0,0,0,0,0,0,0,
5026,0,5013,0,0,0,0,0,0,0,0,0,0,0,0,0,
0,0,5038,0,0,0,0,0,0,0,0,0,0,0,0,0,
0,0,0,0,0,0,0,0,0,0,0,0,0,0,0,0,
0,0,0,0,0,0,0,0,0,0,0,0,0,0,0,0,
5002,5003,0,0,0,0,0,0,0,0,0,0,0,0,0,0,
5027,5028,0,0,0,0,0,0,0,0,0,0,0,0,0,0,
0,0,0,0,0,0,0,0,0,0,0,0,0,0,0,0,
0,0,0,0,0,0,0,0,0,0,0,0,0,0,0,0,
0,0,0,0,0,0,0,0,0,0,0,0,0,0,0,0
</chunk>
  </data>
 </layer>
 <layer id="1" name="Lever" width="16" height="24">
  <data encoding="csv">
   <chunk x="16" y="-16" width="16" height="16">
0,0,0,0,0,0,0,0,0,0,0,0,0,0,0,0,
0,0,0,0,0,0,0,0,0,0,0,0,0,0,0,0,
0,0,0,0,0,0,0,0,0,0,0,0,0,0,0,0,
0,0,0,0,0,0,0,0,0,0,0,0,0,0,0,0,
0,0,0,0,0,0,0,0,0,0,0,0,0,0,0,0,
0,0,0,0,0,0,0,0,0,0,0,0,0,0,0,0,
0,0,0,0,0,0,0,0,0,0,0,0,0,0,0,0,
4895,4896,0,0,0,0,0,0,0,0,0,0,0,0,0,0,
4915,4916,0,0,0,0,0,0,0,0,0,0,0,0,0,0,
0,0,0,0,0,0,0,0,0,0,0,0,0,0,0,0,
0,0,0,0,0,0,0,0,0,0,0,0,0,0,0,0,
0,0,0,0,0,0,0,0,0,0,0,0,0,0,0,0,
0,0,0,0,0,0,0,0,0,0,0,0,0,0,0,0,
0,0,0,0,0,0,0,0,0,0,0,0,0,0,0,0,
0,0,0,0,0,0,0,0,0,0,0,0,0,0,0,0,
0,0,0,0,0,0,0,0,0,0,0,0,0,0,0,0
</chunk>
  </data>
 </layer>
 <layer id="26" name="Web" width="16" height="24">
  <data encoding="csv">
   <chunk x="0" y="-16" width="16" height="16">
0,0,0,0,0,0,0,0,0,0,0,0,0,0,0,0,
0,0,0,0,0,0,0,0,0,0,0,0,0,0,0,0,
0,0,0,0,0,0,0,0,0,0,0,0,0,0,0,0,
0,0,0,0,0,0,0,0,0,0,0,0,0,0,0,0,
0,0,0,0,0,0,0,5188,5189,5190,5191,5192,0,0,0,0,
0,0,0,0,0,0,0,5207,5208,5209,5210,5211,0,0,0,0,
0,0,0,0,0,0,0,5226,5227,5228,5229,5230,0,0,0,0,
0,0,0,0,0,0,0,0,5246,5247,5248,5249,0,0,5260,5261,
0,0,0,0,0,0,0,0,5265,5266,5267,5268,0,0,5279,5280,
0,0,0,0,0,0,0,0,5284,5285,5286,5287,0,0,0,0,
0,0,0,0,0,0,0,0,0,0,0,0,0,0,0,0,
0,0,0,0,0,0,0,0,0,0,0,0,0,0,0,0,
0,0,0,0,0,0,0,0,0,0,0,0,0,0,0,0,
0,0,0,0,0,0,0,0,0,0,0,0,0,0,0,0,
0,0,0,0,0,0,0,0,0,0,0,0,0,0,0,0,
0,0,0,0,0,0,0,0,0,0,0,0,0,0,0,0
</chunk>
  </data>
 </layer>
 <layer id="27" name="Poor_man" width="16" height="24">
  <data encoding="csv">
   <chunk x="0" y="-16" width="16" height="16">
0,0,0,0,0,0,0,0,0,0,0,0,0,0,0,0,
0,0,0,0,0,0,0,0,0,0,0,0,0,0,0,0,
0,0,0,0,0,0,0,0,0,0,0,0,0,0,0,0,
0,0,0,0,0,0,0,0,0,0,0,0,0,0,0,0,
0,0,0,0,0,0,0,0,0,0,0,0,0,0,0,0,
0,0,0,0,0,0,0,0,0,0,0,0,0,0,0,0,
0,0,0,0,0,0,0,0,0,0,0,0,0,0,0,0,
0,0,0,0,0,0,0,0,0,0,0,0,0,0,0,0,
0,0,0,0,0,0,0,0,0,0,0,0,0,0,0,0,
0,0,0,0,0,0,0,5288,5289,0,0,0,0,0,0,0,
0,0,0,0,0,0,0,5294,5295,0,0,0,0,0,0,0,
0,0,0,0,0,0,0,0,0,0,0,0,0,0,0,0,
0,0,0,0,0,0,0,0,0,0,0,0,0,0,0,0,
0,0,0,0,0,0,0,0,0,0,0,0,0,0,0,0,
0,0,0,0,0,0,0,0,0,0,0,0,0,0,0,0,
0,0,0,0,0,0,0,0,0,0,0,0,0,0,0,0
</chunk>
  </data>
 </layer>
</map>
