<?xml version="1.0" encoding="UTF-8"?>
<map version="1.10" tiledversion="1.10.2" orientation="orthogonal" renderorder="right-down" width="16" height="24" tilewidth="16" tileheight="16" infinite="1" nextlayerid="2" nextobjectid="1">
 <tileset firstgid="1" name="chests" tilewidth="16" tileheight="16" tilecount="160" columns="20">
  <image source="../sheets/chests.png" width="320" height="128"/>
  <tile id="0">
   <animation>
    <frame tileid="0" duration="150"/>
    <frame tileid="0" duration="150"/>
    <frame tileid="0" duration="150"/>
    <frame tileid="0" duration="150"/>
    <frame tileid="40" duration="150"/>
    <frame tileid="80" duration="150"/>
    <frame tileid="120" duration="150"/>
    <frame tileid="120" duration="150"/>
    <frame tileid="120" duration="150"/>
    <frame tileid="120" duration="150"/>
    <frame tileid="80" duration="150"/>
    <frame tileid="40" duration="150"/>
   </animation>
  </tile>
  <tile id="1">
   <animation>
    <frame tileid="1" duration="150"/>
    <frame tileid="1" duration="150"/>
    <frame tileid="1" duration="150"/>
    <frame tileid="1" duration="150"/>
    <frame tileid="41" duration="150"/>
    <frame tileid="81" duration="150"/>
    <frame tileid="121" duration="150"/>
    <frame tileid="121" duration="150"/>
    <frame tileid="121" duration="150"/>
    <frame tileid="121" duration="150"/>
    <frame tileid="81" duration="150"/>
    <frame tileid="41" duration="150"/>
   </animation>
  </tile>
  <tile id="2">
   <animation>
    <frame tileid="2" duration="150"/>
    <frame tileid="2" duration="150"/>
    <frame tileid="2" duration="150"/>
    <frame tileid="2" duration="150"/>
    <frame tileid="42" duration="150"/>
    <frame tileid="82" duration="150"/>
    <frame tileid="122" duration="150"/>
    <frame tileid="122" duration="150"/>
    <frame tileid="122" duration="150"/>
    <frame tileid="122" duration="150"/>
    <frame tileid="82" duration="150"/>
    <frame tileid="42" duration="150"/>
   </animation>
  </tile>
  <tile id="3">
   <animation>
    <frame tileid="3" duration="150"/>
    <frame tileid="3" duration="150"/>
    <frame tileid="3" duration="150"/>
    <frame tileid="3" duration="150"/>
    <frame tileid="43" duration="150"/>
    <frame tileid="83" duration="150"/>
    <frame tileid="123" duration="150"/>
    <frame tileid="123" duration="150"/>
    <frame tileid="123" duration="150"/>
    <frame tileid="123" duration="150"/>
    <frame tileid="83" duration="150"/>
    <frame tileid="43" duration="150"/>
   </animation>
  </tile>
  <tile id="4">
   <animation>
    <frame tileid="4" duration="150"/>
    <frame tileid="4" duration="150"/>
    <frame tileid="4" duration="150"/>
    <frame tileid="4" duration="150"/>
    <frame tileid="44" duration="150"/>
    <frame tileid="84" duration="150"/>
    <frame tileid="124" duration="150"/>
    <frame tileid="124" duration="150"/>
    <frame tileid="124" duration="150"/>
    <frame tileid="124" duration="150"/>
    <frame tileid="84" duration="150"/>
    <frame tileid="44" duration="150"/>
   </animation>
  </tile>
  <tile id="5">
   <animation>
    <frame tileid="5" duration="150"/>
    <frame tileid="5" duration="150"/>
    <frame tileid="5" duration="150"/>
    <frame tileid="5" duration="150"/>
    <frame tileid="45" duration="150"/>
    <frame tileid="85" duration="150"/>
    <frame tileid="125" duration="150"/>
    <frame tileid="125" duration="150"/>
    <frame tileid="125" duration="150"/>
    <frame tileid="125" duration="150"/>
    <frame tileid="85" duration="150"/>
    <frame tileid="45" duration="150"/>
   </animation>
  </tile>
  <tile id="6">
   <animation>
    <frame tileid="6" duration="150"/>
    <frame tileid="6" duration="150"/>
    <frame tileid="6" duration="150"/>
    <frame tileid="6" duration="150"/>
    <frame tileid="46" duration="150"/>
    <frame tileid="86" duration="150"/>
    <frame tileid="126" duration="150"/>
    <frame tileid="126" duration="150"/>
    <frame tileid="126" duration="150"/>
    <frame tileid="126" duration="150"/>
    <frame tileid="86" duration="150"/>
    <frame tileid="46" duration="150"/>
   </animation>
  </tile>
  <tile id="7">
   <animation>
    <frame tileid="7" duration="150"/>
    <frame tileid="7" duration="150"/>
    <frame tileid="7" duration="150"/>
    <frame tileid="7" duration="150"/>
    <frame tileid="47" duration="150"/>
    <frame tileid="87" duration="150"/>
    <frame tileid="127" duration="150"/>
    <frame tileid="127" duration="150"/>
    <frame tileid="127" duration="150"/>
    <frame tileid="127" duration="150"/>
    <frame tileid="87" duration="150"/>
    <frame tileid="47" duration="150"/>
   </animation>
  </tile>
  <tile id="8">
   <animation>
    <frame tileid="8" duration="150"/>
    <frame tileid="8" duration="150"/>
    <frame tileid="8" duration="150"/>
    <frame tileid="8" duration="150"/>
    <frame tileid="48" duration="150"/>
    <frame tileid="88" duration="150"/>
    <frame tileid="128" duration="150"/>
    <frame tileid="128" duration="150"/>
    <frame tileid="128" duration="150"/>
    <frame tileid="128" duration="150"/>
    <frame tileid="88" duration="150"/>
    <frame tileid="48" duration="150"/>
   </animation>
  </tile>
  <tile id="9">
   <animation>
    <frame tileid="9" duration="150"/>
    <frame tileid="9" duration="150"/>
    <frame tileid="9" duration="150"/>
    <frame tileid="9" duration="150"/>
    <frame tileid="49" duration="150"/>
    <frame tileid="89" duration="150"/>
    <frame tileid="129" duration="150"/>
    <frame tileid="129" duration="150"/>
    <frame tileid="129" duration="150"/>
    <frame tileid="129" duration="150"/>
    <frame tileid="89" duration="150"/>
    <frame tileid="49" duration="150"/>
   </animation>
  </tile>
  <tile id="10">
   <animation>
    <frame tileid="10" duration="150"/>
    <frame tileid="10" duration="150"/>
    <frame tileid="10" duration="150"/>
    <frame tileid="10" duration="150"/>
    <frame tileid="50" duration="150"/>
    <frame tileid="90" duration="150"/>
    <frame tileid="130" duration="150"/>
    <frame tileid="130" duration="150"/>
    <frame tileid="130" duration="150"/>
    <frame tileid="130" duration="150"/>
    <frame tileid="90" duration="150"/>
    <frame tileid="50" duration="150"/>
   </animation>
  </tile>
  <tile id="11">
   <animation>
    <frame tileid="11" duration="150"/>
    <frame tileid="11" duration="150"/>
    <frame tileid="11" duration="150"/>
    <frame tileid="11" duration="150"/>
    <frame tileid="51" duration="150"/>
    <frame tileid="91" duration="150"/>
    <frame tileid="131" duration="150"/>
    <frame tileid="131" duration="150"/>
    <frame tileid="131" duration="150"/>
    <frame tileid="131" duration="150"/>
    <frame tileid="91" duration="150"/>
    <frame tileid="51" duration="150"/>
   </animation>
  </tile>
  <tile id="12">
   <animation>
    <frame tileid="12" duration="150"/>
    <frame tileid="12" duration="150"/>
    <frame tileid="12" duration="150"/>
    <frame tileid="12" duration="150"/>
    <frame tileid="52" duration="150"/>
    <frame tileid="92" duration="150"/>
    <frame tileid="132" duration="150"/>
    <frame tileid="132" duration="150"/>
    <frame tileid="132" duration="150"/>
    <frame tileid="132" duration="150"/>
    <frame tileid="92" duration="150"/>
    <frame tileid="52" duration="150"/>
   </animation>
  </tile>
  <tile id="13">
   <animation>
    <frame tileid="13" duration="150"/>
    <frame tileid="13" duration="150"/>
    <frame tileid="13" duration="150"/>
    <frame tileid="13" duration="150"/>
    <frame tileid="53" duration="150"/>
    <frame tileid="93" duration="150"/>
    <frame tileid="133" duration="150"/>
    <frame tileid="133" duration="150"/>
    <frame tileid="133" duration="150"/>
    <frame tileid="133" duration="150"/>
    <frame tileid="93" duration="150"/>
    <frame tileid="53" duration="150"/>
   </animation>
  </tile>
  <tile id="14">
   <animation>
    <frame tileid="14" duration="150"/>
    <frame tileid="14" duration="150"/>
    <frame tileid="14" duration="150"/>
    <frame tileid="14" duration="150"/>
    <frame tileid="54" duration="150"/>
    <frame tileid="94" duration="150"/>
    <frame tileid="134" duration="150"/>
    <frame tileid="134" duration="150"/>
    <frame tileid="134" duration="150"/>
    <frame tileid="134" duration="150"/>
    <frame tileid="94" duration="150"/>
    <frame tileid="54" duration="150"/>
   </animation>
  </tile>
  <tile id="15">
   <animation>
    <frame tileid="15" duration="150"/>
    <frame tileid="15" duration="150"/>
    <frame tileid="15" duration="150"/>
    <frame tileid="15" duration="150"/>
    <frame tileid="55" duration="150"/>
    <frame tileid="95" duration="150"/>
    <frame tileid="135" duration="150"/>
    <frame tileid="135" duration="150"/>
    <frame tileid="135" duration="150"/>
    <frame tileid="135" duration="150"/>
    <frame tileid="95" duration="150"/>
    <frame tileid="55" duration="150"/>
   </animation>
  </tile>
  <tile id="16">
   <animation>
    <frame tileid="16" duration="150"/>
    <frame tileid="16" duration="150"/>
    <frame tileid="16" duration="150"/>
    <frame tileid="16" duration="150"/>
    <frame tileid="56" duration="150"/>
    <frame tileid="96" duration="150"/>
    <frame tileid="136" duration="150"/>
    <frame tileid="136" duration="150"/>
    <frame tileid="136" duration="150"/>
    <frame tileid="136" duration="150"/>
    <frame tileid="96" duration="150"/>
    <frame tileid="56" duration="150"/>
   </animation>
  </tile>
  <tile id="17">
   <animation>
    <frame tileid="17" duration="150"/>
    <frame tileid="17" duration="150"/>
    <frame tileid="17" duration="150"/>
    <frame tileid="17" duration="150"/>
    <frame tileid="57" duration="150"/>
    <frame tileid="97" duration="150"/>
    <frame tileid="137" duration="150"/>
    <frame tileid="137" duration="150"/>
    <frame tileid="137" duration="150"/>
    <frame tileid="137" duration="150"/>
    <frame tileid="97" duration="150"/>
    <frame tileid="57" duration="150"/>
   </animation>
  </tile>
  <tile id="18">
   <animation>
    <frame tileid="18" duration="150"/>
    <frame tileid="18" duration="150"/>
    <frame tileid="18" duration="150"/>
    <frame tileid="18" duration="150"/>
    <frame tileid="58" duration="150"/>
    <frame tileid="98" duration="150"/>
    <frame tileid="138" duration="150"/>
    <frame tileid="138" duration="150"/>
    <frame tileid="138" duration="150"/>
    <frame tileid="138" duration="150"/>
    <frame tileid="98" duration="150"/>
    <frame tileid="58" duration="150"/>
   </animation>
  </tile>
  <tile id="19">
   <animation>
    <frame tileid="19" duration="150"/>
    <frame tileid="19" duration="150"/>
    <frame tileid="19" duration="150"/>
    <frame tileid="19" duration="150"/>
    <frame tileid="59" duration="150"/>
    <frame tileid="99" duration="150"/>
    <frame tileid="139" duration="150"/>
    <frame tileid="139" duration="150"/>
    <frame tileid="139" duration="150"/>
    <frame tileid="139" duration="150"/>
    <frame tileid="99" duration="150"/>
    <frame tileid="59" duration="150"/>
   </animation>
  </tile>
  <tile id="20">
   <animation>
    <frame tileid="20" duration="150"/>
    <frame tileid="20" duration="150"/>
    <frame tileid="20" duration="150"/>
    <frame tileid="20" duration="150"/>
    <frame tileid="60" duration="150"/>
    <frame tileid="100" duration="150"/>
    <frame tileid="140" duration="150"/>
    <frame tileid="140" duration="150"/>
    <frame tileid="140" duration="150"/>
    <frame tileid="140" duration="150"/>
    <frame tileid="100" duration="150"/>
    <frame tileid="60" duration="150"/>
   </animation>
  </tile>
  <tile id="21">
   <animation>
    <frame tileid="21" duration="150"/>
    <frame tileid="21" duration="150"/>
    <frame tileid="21" duration="150"/>
    <frame tileid="21" duration="150"/>
    <frame tileid="61" duration="150"/>
    <frame tileid="101" duration="150"/>
    <frame tileid="141" duration="150"/>
    <frame tileid="141" duration="150"/>
    <frame tileid="141" duration="150"/>
    <frame tileid="141" duration="150"/>
    <frame tileid="101" duration="150"/>
    <frame tileid="61" duration="150"/>
   </animation>
  </tile>
  <tile id="22">
   <animation>
    <frame tileid="22" duration="150"/>
    <frame tileid="22" duration="150"/>
    <frame tileid="22" duration="150"/>
    <frame tileid="22" duration="150"/>
    <frame tileid="62" duration="150"/>
    <frame tileid="102" duration="150"/>
    <frame tileid="142" duration="150"/>
    <frame tileid="142" duration="150"/>
    <frame tileid="142" duration="150"/>
    <frame tileid="142" duration="150"/>
    <frame tileid="102" duration="150"/>
    <frame tileid="62" duration="150"/>
   </animation>
  </tile>
  <tile id="23">
   <animation>
    <frame tileid="23" duration="150"/>
    <frame tileid="23" duration="150"/>
    <frame tileid="23" duration="150"/>
    <frame tileid="23" duration="150"/>
    <frame tileid="63" duration="150"/>
    <frame tileid="103" duration="150"/>
    <frame tileid="143" duration="150"/>
    <frame tileid="143" duration="150"/>
    <frame tileid="143" duration="150"/>
    <frame tileid="143" duration="150"/>
    <frame tileid="103" duration="150"/>
    <frame tileid="63" duration="150"/>
   </animation>
  </tile>
  <tile id="24">
   <animation>
    <frame tileid="24" duration="150"/>
    <frame tileid="24" duration="150"/>
    <frame tileid="24" duration="150"/>
    <frame tileid="24" duration="150"/>
    <frame tileid="64" duration="150"/>
    <frame tileid="104" duration="150"/>
    <frame tileid="144" duration="150"/>
    <frame tileid="144" duration="150"/>
    <frame tileid="144" duration="150"/>
    <frame tileid="144" duration="150"/>
    <frame tileid="104" duration="150"/>
    <frame tileid="64" duration="150"/>
   </animation>
  </tile>
  <tile id="25">
   <animation>
    <frame tileid="25" duration="150"/>
    <frame tileid="25" duration="150"/>
    <frame tileid="25" duration="150"/>
    <frame tileid="25" duration="150"/>
    <frame tileid="65" duration="150"/>
    <frame tileid="105" duration="150"/>
    <frame tileid="145" duration="150"/>
    <frame tileid="145" duration="150"/>
    <frame tileid="145" duration="150"/>
    <frame tileid="145" duration="150"/>
    <frame tileid="105" duration="150"/>
    <frame tileid="65" duration="150"/>
   </animation>
  </tile>
  <tile id="26">
   <animation>
    <frame tileid="26" duration="150"/>
    <frame tileid="26" duration="150"/>
    <frame tileid="26" duration="150"/>
    <frame tileid="26" duration="150"/>
    <frame tileid="66" duration="150"/>
    <frame tileid="106" duration="150"/>
    <frame tileid="146" duration="150"/>
    <frame tileid="146" duration="150"/>
    <frame tileid="146" duration="150"/>
    <frame tileid="146" duration="150"/>
    <frame tileid="106" duration="150"/>
    <frame tileid="66" duration="150"/>
   </animation>
  </tile>
  <tile id="27">
   <animation>
    <frame tileid="27" duration="150"/>
    <frame tileid="27" duration="150"/>
    <frame tileid="27" duration="150"/>
    <frame tileid="27" duration="150"/>
    <frame tileid="67" duration="150"/>
    <frame tileid="107" duration="150"/>
    <frame tileid="147" duration="150"/>
    <frame tileid="147" duration="150"/>
    <frame tileid="147" duration="150"/>
    <frame tileid="147" duration="150"/>
    <frame tileid="107" duration="150"/>
    <frame tileid="67" duration="150"/>
   </animation>
  </tile>
  <tile id="28">
   <animation>
    <frame tileid="28" duration="150"/>
    <frame tileid="28" duration="150"/>
    <frame tileid="28" duration="150"/>
    <frame tileid="28" duration="150"/>
    <frame tileid="68" duration="150"/>
    <frame tileid="108" duration="150"/>
    <frame tileid="148" duration="150"/>
    <frame tileid="148" duration="150"/>
    <frame tileid="148" duration="150"/>
    <frame tileid="148" duration="150"/>
    <frame tileid="108" duration="150"/>
    <frame tileid="68" duration="150"/>
   </animation>
  </tile>
  <tile id="29">
   <animation>
    <frame tileid="29" duration="150"/>
    <frame tileid="29" duration="150"/>
    <frame tileid="29" duration="150"/>
    <frame tileid="29" duration="150"/>
    <frame tileid="69" duration="150"/>
    <frame tileid="109" duration="150"/>
    <frame tileid="149" duration="150"/>
    <frame tileid="149" duration="150"/>
    <frame tileid="149" duration="150"/>
    <frame tileid="149" duration="150"/>
    <frame tileid="109" duration="150"/>
    <frame tileid="69" duration="150"/>
   </animation>
  </tile>
  <tile id="30">
   <animation>
    <frame tileid="30" duration="150"/>
    <frame tileid="30" duration="150"/>
    <frame tileid="30" duration="150"/>
    <frame tileid="30" duration="150"/>
    <frame tileid="70" duration="150"/>
    <frame tileid="110" duration="150"/>
    <frame tileid="150" duration="150"/>
    <frame tileid="150" duration="150"/>
    <frame tileid="150" duration="150"/>
    <frame tileid="150" duration="150"/>
    <frame tileid="110" duration="150"/>
    <frame tileid="70" duration="150"/>
   </animation>
  </tile>
  <tile id="31">
   <animation>
    <frame tileid="31" duration="150"/>
    <frame tileid="31" duration="150"/>
    <frame tileid="31" duration="150"/>
    <frame tileid="31" duration="150"/>
    <frame tileid="71" duration="150"/>
    <frame tileid="111" duration="150"/>
    <frame tileid="151" duration="150"/>
    <frame tileid="151" duration="150"/>
    <frame tileid="151" duration="150"/>
    <frame tileid="151" duration="150"/>
    <frame tileid="111" duration="150"/>
    <frame tileid="71" duration="150"/>
   </animation>
  </tile>
  <tile id="32">
   <animation>
    <frame tileid="32" duration="150"/>
    <frame tileid="32" duration="150"/>
    <frame tileid="32" duration="150"/>
    <frame tileid="32" duration="150"/>
    <frame tileid="72" duration="150"/>
    <frame tileid="112" duration="150"/>
    <frame tileid="152" duration="150"/>
    <frame tileid="152" duration="150"/>
    <frame tileid="152" duration="150"/>
    <frame tileid="152" duration="150"/>
    <frame tileid="112" duration="150"/>
    <frame tileid="72" duration="150"/>
   </animation>
  </tile>
  <tile id="33">
   <animation>
    <frame tileid="33" duration="150"/>
    <frame tileid="33" duration="150"/>
    <frame tileid="33" duration="150"/>
    <frame tileid="33" duration="150"/>
    <frame tileid="73" duration="150"/>
    <frame tileid="113" duration="150"/>
    <frame tileid="153" duration="150"/>
    <frame tileid="153" duration="150"/>
    <frame tileid="153" duration="150"/>
    <frame tileid="153" duration="150"/>
    <frame tileid="113" duration="150"/>
    <frame tileid="73" duration="150"/>
   </animation>
  </tile>
  <tile id="34">
   <animation>
    <frame tileid="34" duration="150"/>
    <frame tileid="34" duration="150"/>
    <frame tileid="34" duration="150"/>
    <frame tileid="34" duration="150"/>
    <frame tileid="74" duration="150"/>
    <frame tileid="114" duration="150"/>
    <frame tileid="154" duration="150"/>
    <frame tileid="154" duration="150"/>
    <frame tileid="154" duration="150"/>
    <frame tileid="154" duration="150"/>
    <frame tileid="114" duration="150"/>
    <frame tileid="74" duration="150"/>
   </animation>
  </tile>
  <tile id="35">
   <animation>
    <frame tileid="35" duration="150"/>
    <frame tileid="35" duration="150"/>
    <frame tileid="35" duration="150"/>
    <frame tileid="35" duration="150"/>
    <frame tileid="75" duration="150"/>
    <frame tileid="115" duration="150"/>
    <frame tileid="155" duration="150"/>
    <frame tileid="155" duration="150"/>
    <frame tileid="155" duration="150"/>
    <frame tileid="155" duration="150"/>
    <frame tileid="115" duration="150"/>
    <frame tileid="75" duration="150"/>
   </animation>
  </tile>
  <tile id="36">
   <animation>
    <frame tileid="36" duration="150"/>
    <frame tileid="36" duration="150"/>
    <frame tileid="36" duration="150"/>
    <frame tileid="36" duration="150"/>
    <frame tileid="76" duration="150"/>
    <frame tileid="116" duration="150"/>
    <frame tileid="156" duration="150"/>
    <frame tileid="156" duration="150"/>
    <frame tileid="156" duration="150"/>
    <frame tileid="156" duration="150"/>
    <frame tileid="116" duration="150"/>
    <frame tileid="76" duration="150"/>
   </animation>
  </tile>
  <tile id="37">
   <animation>
    <frame tileid="37" duration="150"/>
    <frame tileid="37" duration="150"/>
    <frame tileid="37" duration="150"/>
    <frame tileid="37" duration="150"/>
    <frame tileid="77" duration="150"/>
    <frame tileid="117" duration="150"/>
    <frame tileid="157" duration="150"/>
    <frame tileid="157" duration="150"/>
    <frame tileid="157" duration="150"/>
    <frame tileid="157" duration="150"/>
    <frame tileid="117" duration="150"/>
    <frame tileid="77" duration="150"/>
   </animation>
  </tile>
  <tile id="38">
   <animation>
    <frame tileid="38" duration="150"/>
    <frame tileid="38" duration="150"/>
    <frame tileid="38" duration="150"/>
    <frame tileid="38" duration="150"/>
    <frame tileid="78" duration="150"/>
    <frame tileid="118" duration="150"/>
    <frame tileid="158" duration="150"/>
    <frame tileid="158" duration="150"/>
    <frame tileid="158" duration="150"/>
    <frame tileid="158" duration="150"/>
    <frame tileid="118" duration="150"/>
    <frame tileid="78" duration="150"/>
   </animation>
  </tile>
  <tile id="39">
   <animation>
    <frame tileid="39" duration="150"/>
    <frame tileid="39" duration="150"/>
    <frame tileid="39" duration="150"/>
    <frame tileid="39" duration="150"/>
    <frame tileid="79" duration="150"/>
    <frame tileid="119" duration="150"/>
    <frame tileid="159" duration="150"/>
    <frame tileid="159" duration="150"/>
    <frame tileid="159" duration="150"/>
    <frame tileid="159" duration="150"/>
    <frame tileid="119" duration="150"/>
    <frame tileid="79" duration="150"/>
   </animation>
  </tile>
 </tileset>
 <layer id="1" name="Tile Layer 1" width="16" height="24">
  <data encoding="csv">
   <chunk x="0" y="0" width="16" height="16">
1,2,3,4,5,6,7,8,9,10,11,12,13,14,15,16,
21,22,23,24,25,26,27,28,29,30,31,32,33,34,35,36,
0,0,0,0,0,0,0,0,0,0,0,0,0,0,0,0,
0,0,0,0,0,0,0,0,0,0,0,0,0,0,0,0,
0,0,0,0,0,0,0,0,0,0,0,0,0,0,0,0,
0,0,0,0,0,0,0,0,0,0,0,0,0,0,0,0,
0,0,0,0,0,0,0,0,0,0,0,0,0,0,0,0,
0,0,0,0,0,0,0,0,0,0,0,0,0,0,0,0,
0,0,0,0,0,0,0,0,0,0,0,0,0,0,0,0,
0,0,0,0,0,0,0,0,0,0,0,0,0,0,0,0,
0,0,0,0,0,0,0,0,0,0,0,0,0,0,0,0,
0,0,0,0,0,0,0,0,0,0,0,0,0,0,0,0,
0,0,0,0,0,0,0,0,0,0,0,0,0,0,0,0,
0,0,0,0,0,0,0,0,0,0,0,0,0,0,0,0,
0,0,0,0,0,0,0,0,0,0,0,0,0,0,0,0,
0,0,0,0,0,0,0,0,0,0,0,0,0,0,0,0
</chunk>
   <chunk x="16" y="0" width="16" height="16">
17,18,19,20,0,0,0,0,0,0,0,0,0,0,0,0,
37,38,39,40,0,0,0,0,0,0,0,0,0,0,0,0,
0,0,0,0,0,0,0,0,0,0,0,0,0,0,0,0,
0,0,0,0,0,0,0,0,0,0,0,0,0,0,0,0,
0,0,0,0,0,0,0,0,0,0,0,0,0,0,0,0,
0,0,0,0,0,0,0,0,0,0,0,0,0,0,0,0,
0,0,0,0,0,0,0,0,0,0,0,0,0,0,0,0,
0,0,0,0,0,0,0,0,0,0,0,0,0,0,0,0,
0,0,0,0,0,0,0,0,0,0,0,0,0,0,0,0,
0,0,0,0,0,0,0,0,0,0,0,0,0,0,0,0,
0,0,0,0,0,0,0,0,0,0,0,0,0,0,0,0,
0,0,0,0,0,0,0,0,0,0,0,0,0,0,0,0,
0,0,0,0,0,0,0,0,0,0,0,0,0,0,0,0,
0,0,0,0,0,0,0,0,0,0,0,0,0,0,0,0,
0,0,0,0,0,0,0,0,0,0,0,0,0,0,0,0,
0,0,0,0,0,0,0,0,0,0,0,0,0,0,0,0
</chunk>
  </data>
 </layer>
</map>
