<?xml version="1.0" encoding="UTF-8"?>
<map version="1.10" tiledversion="1.10.2" orientation="orthogonal" renderorder="right-down" width="16" height="24" tilewidth="16" tileheight="16" infinite="1" nextlayerid="7" nextobjectid="1">
 <tileset firstgid="1" name="Small_boat_v1_1" tilewidth="16" tileheight="16" tilecount="216" columns="36">
  <image source="Small_boat_v1_1.png" width="576" height="96"/>
  <tile id="1">
   <animation>
    <frame tileid="1" duration="150"/>
    <frame tileid="4" duration="150"/>
    <frame tileid="7" duration="150"/>
    <frame tileid="10" duration="150"/>
    <frame tileid="13" duration="150"/>
    <frame tileid="16" duration="150"/>
    <frame tileid="19" duration="150"/>
    <frame tileid="22" duration="150"/>
    <frame tileid="25" duration="150"/>
    <frame tileid="28" duration="150"/>
    <frame tileid="31" duration="150"/>
    <frame tileid="34" duration="150"/>
   </animation>
  </tile>
  <tile id="36">
   <animation>
    <frame tileid="36" duration="150"/>
    <frame tileid="39" duration="150"/>
    <frame tileid="42" duration="150"/>
    <frame tileid="45" duration="150"/>
    <frame tileid="48" duration="150"/>
    <frame tileid="51" duration="150"/>
    <frame tileid="54" duration="150"/>
    <frame tileid="57" duration="150"/>
    <frame tileid="60" duration="150"/>
    <frame tileid="63" duration="150"/>
    <frame tileid="66" duration="150"/>
    <frame tileid="69" duration="150"/>
   </animation>
  </tile>
  <tile id="37">
   <animation>
    <frame tileid="37" duration="150"/>
    <frame tileid="40" duration="150"/>
    <frame tileid="43" duration="150"/>
    <frame tileid="46" duration="150"/>
    <frame tileid="49" duration="150"/>
    <frame tileid="52" duration="150"/>
    <frame tileid="55" duration="150"/>
    <frame tileid="58" duration="150"/>
    <frame tileid="61" duration="150"/>
    <frame tileid="64" duration="150"/>
    <frame tileid="67" duration="150"/>
    <frame tileid="70" duration="150"/>
   </animation>
  </tile>
  <tile id="38">
   <animation>
    <frame tileid="38" duration="150"/>
    <frame tileid="41" duration="150"/>
    <frame tileid="44" duration="150"/>
    <frame tileid="47" duration="150"/>
    <frame tileid="50" duration="150"/>
    <frame tileid="53" duration="150"/>
    <frame tileid="56" duration="150"/>
    <frame tileid="59" duration="150"/>
    <frame tileid="62" duration="150"/>
    <frame tileid="65" duration="150"/>
    <frame tileid="68" duration="150"/>
    <frame tileid="71" duration="150"/>
   </animation>
  </tile>
  <tile id="72">
   <animation>
    <frame tileid="72" duration="150"/>
    <frame tileid="75" duration="150"/>
    <frame tileid="78" duration="150"/>
    <frame tileid="81" duration="150"/>
    <frame tileid="84" duration="150"/>
    <frame tileid="87" duration="150"/>
    <frame tileid="90" duration="150"/>
    <frame tileid="93" duration="150"/>
    <frame tileid="96" duration="150"/>
    <frame tileid="99" duration="150"/>
    <frame tileid="102" duration="150"/>
    <frame tileid="105" duration="150"/>
   </animation>
  </tile>
  <tile id="73">
   <animation>
    <frame tileid="73" duration="150"/>
    <frame tileid="76" duration="150"/>
    <frame tileid="79" duration="150"/>
    <frame tileid="82" duration="150"/>
    <frame tileid="85" duration="150"/>
    <frame tileid="88" duration="150"/>
    <frame tileid="91" duration="150"/>
    <frame tileid="94" duration="150"/>
    <frame tileid="97" duration="150"/>
    <frame tileid="100" duration="150"/>
    <frame tileid="103" duration="150"/>
    <frame tileid="106" duration="150"/>
   </animation>
  </tile>
  <tile id="74">
   <animation>
    <frame tileid="74" duration="150"/>
    <frame tileid="77" duration="150"/>
    <frame tileid="80" duration="150"/>
    <frame tileid="83" duration="150"/>
    <frame tileid="86" duration="150"/>
    <frame tileid="89" duration="150"/>
    <frame tileid="92" duration="150"/>
    <frame tileid="95" duration="150"/>
    <frame tileid="98" duration="150"/>
    <frame tileid="101" duration="150"/>
    <frame tileid="104" duration="150"/>
    <frame tileid="107" duration="150"/>
   </animation>
  </tile>
  <tile id="108">
   <animation>
    <frame tileid="108" duration="150"/>
    <frame tileid="111" duration="150"/>
    <frame tileid="114" duration="150"/>
    <frame tileid="117" duration="150"/>
    <frame tileid="120" duration="150"/>
    <frame tileid="123" duration="150"/>
    <frame tileid="126" duration="150"/>
    <frame tileid="129" duration="150"/>
    <frame tileid="132" duration="150"/>
    <frame tileid="135" duration="150"/>
    <frame tileid="138" duration="150"/>
    <frame tileid="141" duration="150"/>
   </animation>
  </tile>
  <tile id="109">
   <animation>
    <frame tileid="109" duration="150"/>
    <frame tileid="112" duration="150"/>
    <frame tileid="115" duration="150"/>
    <frame tileid="118" duration="150"/>
    <frame tileid="121" duration="150"/>
    <frame tileid="124" duration="150"/>
    <frame tileid="127" duration="150"/>
    <frame tileid="130" duration="150"/>
    <frame tileid="133" duration="150"/>
    <frame tileid="136" duration="150"/>
    <frame tileid="139" duration="150"/>
    <frame tileid="142" duration="150"/>
   </animation>
  </tile>
  <tile id="110">
   <animation>
    <frame tileid="110" duration="150"/>
    <frame tileid="113" duration="150"/>
    <frame tileid="116" duration="150"/>
    <frame tileid="119" duration="150"/>
    <frame tileid="122" duration="150"/>
    <frame tileid="125" duration="150"/>
    <frame tileid="128" duration="150"/>
    <frame tileid="131" duration="150"/>
    <frame tileid="134" duration="150"/>
    <frame tileid="137" duration="150"/>
    <frame tileid="140" duration="150"/>
    <frame tileid="143" duration="150"/>
   </animation>
  </tile>
  <tile id="144">
   <animation>
    <frame tileid="144" duration="150"/>
    <frame tileid="147" duration="150"/>
    <frame tileid="150" duration="150"/>
    <frame tileid="153" duration="150"/>
    <frame tileid="156" duration="150"/>
    <frame tileid="159" duration="150"/>
    <frame tileid="162" duration="150"/>
    <frame tileid="165" duration="150"/>
    <frame tileid="168" duration="150"/>
    <frame tileid="171" duration="150"/>
    <frame tileid="174" duration="150"/>
    <frame tileid="177" duration="150"/>
   </animation>
  </tile>
  <tile id="145">
   <animation>
    <frame tileid="145" duration="150"/>
    <frame tileid="148" duration="150"/>
    <frame tileid="151" duration="150"/>
    <frame tileid="154" duration="150"/>
    <frame tileid="157" duration="150"/>
    <frame tileid="160" duration="150"/>
    <frame tileid="163" duration="150"/>
    <frame tileid="166" duration="150"/>
    <frame tileid="169" duration="150"/>
    <frame tileid="172" duration="150"/>
    <frame tileid="175" duration="150"/>
    <frame tileid="178" duration="150"/>
   </animation>
  </tile>
  <tile id="146">
   <animation>
    <frame tileid="146" duration="150"/>
    <frame tileid="149" duration="150"/>
    <frame tileid="152" duration="150"/>
    <frame tileid="155" duration="150"/>
    <frame tileid="158" duration="150"/>
    <frame tileid="161" duration="150"/>
    <frame tileid="164" duration="150"/>
    <frame tileid="167" duration="150"/>
    <frame tileid="170" duration="150"/>
    <frame tileid="173" duration="150"/>
    <frame tileid="176" duration="150"/>
    <frame tileid="179" duration="150"/>
   </animation>
  </tile>
  <tile id="180">
   <animation>
    <frame tileid="180" duration="150"/>
    <frame tileid="183" duration="150"/>
    <frame tileid="186" duration="150"/>
    <frame tileid="189" duration="150"/>
    <frame tileid="192" duration="150"/>
    <frame tileid="195" duration="150"/>
    <frame tileid="198" duration="150"/>
    <frame tileid="201" duration="150"/>
    <frame tileid="204" duration="150"/>
    <frame tileid="207" duration="150"/>
    <frame tileid="210" duration="150"/>
    <frame tileid="213" duration="150"/>
   </animation>
  </tile>
  <tile id="181">
   <animation>
    <frame tileid="181" duration="150"/>
    <frame tileid="184" duration="150"/>
    <frame tileid="187" duration="150"/>
    <frame tileid="190" duration="150"/>
    <frame tileid="193" duration="150"/>
    <frame tileid="196" duration="150"/>
    <frame tileid="199" duration="150"/>
    <frame tileid="202" duration="150"/>
    <frame tileid="205" duration="150"/>
    <frame tileid="208" duration="150"/>
    <frame tileid="211" duration="150"/>
    <frame tileid="214" duration="150"/>
   </animation>
  </tile>
  <tile id="182">
   <animation>
    <frame tileid="182" duration="150"/>
    <frame tileid="185" duration="150"/>
    <frame tileid="188" duration="150"/>
    <frame tileid="191" duration="150"/>
    <frame tileid="194" duration="150"/>
    <frame tileid="197" duration="150"/>
    <frame tileid="200" duration="150"/>
    <frame tileid="203" duration="150"/>
    <frame tileid="206" duration="150"/>
    <frame tileid="209" duration="150"/>
    <frame tileid="212" duration="150"/>
    <frame tileid="215" duration="150"/>
   </animation>
  </tile>
 </tileset>
 <tileset firstgid="217" name="Small_boat_v1_1" tilewidth="16" tileheight="16" tilecount="216" columns="36">
  <image source="Small_boat_v1_2.png" width="576" height="96"/>
  <tile id="1">
   <animation>
    <frame tileid="1" duration="150"/>
    <frame tileid="4" duration="150"/>
    <frame tileid="7" duration="150"/>
    <frame tileid="10" duration="150"/>
    <frame tileid="13" duration="150"/>
    <frame tileid="16" duration="150"/>
    <frame tileid="19" duration="150"/>
    <frame tileid="22" duration="150"/>
    <frame tileid="25" duration="150"/>
    <frame tileid="28" duration="150"/>
    <frame tileid="31" duration="150"/>
    <frame tileid="34" duration="150"/>
   </animation>
  </tile>
  <tile id="36">
   <animation>
    <frame tileid="36" duration="150"/>
    <frame tileid="39" duration="150"/>
    <frame tileid="42" duration="150"/>
    <frame tileid="45" duration="150"/>
    <frame tileid="48" duration="150"/>
    <frame tileid="51" duration="150"/>
    <frame tileid="54" duration="150"/>
    <frame tileid="57" duration="150"/>
    <frame tileid="60" duration="150"/>
    <frame tileid="63" duration="150"/>
    <frame tileid="66" duration="150"/>
    <frame tileid="69" duration="150"/>
   </animation>
  </tile>
  <tile id="37">
   <animation>
    <frame tileid="37" duration="150"/>
    <frame tileid="40" duration="150"/>
    <frame tileid="43" duration="150"/>
    <frame tileid="46" duration="150"/>
    <frame tileid="49" duration="150"/>
    <frame tileid="52" duration="150"/>
    <frame tileid="55" duration="150"/>
    <frame tileid="58" duration="150"/>
    <frame tileid="61" duration="150"/>
    <frame tileid="64" duration="150"/>
    <frame tileid="67" duration="150"/>
    <frame tileid="70" duration="150"/>
   </animation>
  </tile>
  <tile id="38">
   <animation>
    <frame tileid="38" duration="150"/>
    <frame tileid="41" duration="150"/>
    <frame tileid="44" duration="150"/>
    <frame tileid="47" duration="150"/>
    <frame tileid="50" duration="150"/>
    <frame tileid="53" duration="150"/>
    <frame tileid="56" duration="150"/>
    <frame tileid="59" duration="150"/>
    <frame tileid="62" duration="150"/>
    <frame tileid="65" duration="150"/>
    <frame tileid="68" duration="150"/>
    <frame tileid="71" duration="150"/>
   </animation>
  </tile>
  <tile id="72">
   <animation>
    <frame tileid="72" duration="150"/>
    <frame tileid="75" duration="150"/>
    <frame tileid="78" duration="150"/>
    <frame tileid="81" duration="150"/>
    <frame tileid="84" duration="150"/>
    <frame tileid="87" duration="150"/>
    <frame tileid="90" duration="150"/>
    <frame tileid="93" duration="150"/>
    <frame tileid="96" duration="150"/>
    <frame tileid="99" duration="150"/>
    <frame tileid="102" duration="150"/>
    <frame tileid="105" duration="150"/>
   </animation>
  </tile>
  <tile id="73">
   <animation>
    <frame tileid="73" duration="150"/>
    <frame tileid="76" duration="150"/>
    <frame tileid="79" duration="150"/>
    <frame tileid="82" duration="150"/>
    <frame tileid="85" duration="150"/>
    <frame tileid="88" duration="150"/>
    <frame tileid="91" duration="150"/>
    <frame tileid="94" duration="150"/>
    <frame tileid="97" duration="150"/>
    <frame tileid="100" duration="150"/>
    <frame tileid="103" duration="150"/>
    <frame tileid="106" duration="150"/>
   </animation>
  </tile>
  <tile id="74">
   <animation>
    <frame tileid="74" duration="150"/>
    <frame tileid="77" duration="150"/>
    <frame tileid="80" duration="150"/>
    <frame tileid="83" duration="150"/>
    <frame tileid="86" duration="150"/>
    <frame tileid="89" duration="150"/>
    <frame tileid="92" duration="150"/>
    <frame tileid="95" duration="150"/>
    <frame tileid="98" duration="150"/>
    <frame tileid="101" duration="150"/>
    <frame tileid="104" duration="150"/>
    <frame tileid="107" duration="150"/>
   </animation>
  </tile>
  <tile id="108">
   <animation>
    <frame tileid="108" duration="150"/>
    <frame tileid="111" duration="150"/>
    <frame tileid="114" duration="150"/>
    <frame tileid="117" duration="150"/>
    <frame tileid="120" duration="150"/>
    <frame tileid="123" duration="150"/>
    <frame tileid="126" duration="150"/>
    <frame tileid="129" duration="150"/>
    <frame tileid="132" duration="150"/>
    <frame tileid="135" duration="150"/>
    <frame tileid="138" duration="150"/>
    <frame tileid="141" duration="150"/>
   </animation>
  </tile>
  <tile id="109">
   <animation>
    <frame tileid="109" duration="150"/>
    <frame tileid="112" duration="150"/>
    <frame tileid="115" duration="150"/>
    <frame tileid="118" duration="150"/>
    <frame tileid="121" duration="150"/>
    <frame tileid="124" duration="150"/>
    <frame tileid="127" duration="150"/>
    <frame tileid="130" duration="150"/>
    <frame tileid="133" duration="150"/>
    <frame tileid="136" duration="150"/>
    <frame tileid="139" duration="150"/>
    <frame tileid="142" duration="150"/>
   </animation>
  </tile>
  <tile id="110">
   <animation>
    <frame tileid="110" duration="150"/>
    <frame tileid="113" duration="150"/>
    <frame tileid="116" duration="150"/>
    <frame tileid="119" duration="150"/>
    <frame tileid="122" duration="150"/>
    <frame tileid="125" duration="150"/>
    <frame tileid="128" duration="150"/>
    <frame tileid="131" duration="150"/>
    <frame tileid="134" duration="150"/>
    <frame tileid="137" duration="150"/>
    <frame tileid="140" duration="150"/>
    <frame tileid="143" duration="150"/>
   </animation>
  </tile>
  <tile id="144">
   <animation>
    <frame tileid="144" duration="150"/>
    <frame tileid="147" duration="150"/>
    <frame tileid="150" duration="150"/>
    <frame tileid="153" duration="150"/>
    <frame tileid="156" duration="150"/>
    <frame tileid="159" duration="150"/>
    <frame tileid="162" duration="150"/>
    <frame tileid="165" duration="150"/>
    <frame tileid="168" duration="150"/>
    <frame tileid="171" duration="150"/>
    <frame tileid="174" duration="150"/>
    <frame tileid="177" duration="150"/>
   </animation>
  </tile>
  <tile id="145">
   <animation>
    <frame tileid="145" duration="150"/>
    <frame tileid="148" duration="150"/>
    <frame tileid="151" duration="150"/>
    <frame tileid="154" duration="150"/>
    <frame tileid="157" duration="150"/>
    <frame tileid="160" duration="150"/>
    <frame tileid="163" duration="150"/>
    <frame tileid="166" duration="150"/>
    <frame tileid="169" duration="150"/>
    <frame tileid="172" duration="150"/>
    <frame tileid="175" duration="150"/>
    <frame tileid="178" duration="150"/>
   </animation>
  </tile>
  <tile id="146">
   <animation>
    <frame tileid="146" duration="150"/>
    <frame tileid="149" duration="150"/>
    <frame tileid="152" duration="150"/>
    <frame tileid="155" duration="150"/>
    <frame tileid="158" duration="150"/>
    <frame tileid="161" duration="150"/>
    <frame tileid="164" duration="150"/>
    <frame tileid="167" duration="150"/>
    <frame tileid="170" duration="150"/>
    <frame tileid="173" duration="150"/>
    <frame tileid="176" duration="150"/>
    <frame tileid="179" duration="150"/>
   </animation>
  </tile>
  <tile id="180">
   <animation>
    <frame tileid="180" duration="150"/>
    <frame tileid="183" duration="150"/>
    <frame tileid="186" duration="150"/>
    <frame tileid="189" duration="150"/>
    <frame tileid="192" duration="150"/>
    <frame tileid="195" duration="150"/>
    <frame tileid="198" duration="150"/>
    <frame tileid="201" duration="150"/>
    <frame tileid="204" duration="150"/>
    <frame tileid="207" duration="150"/>
    <frame tileid="210" duration="150"/>
    <frame tileid="213" duration="150"/>
   </animation>
  </tile>
  <tile id="181">
   <animation>
    <frame tileid="181" duration="150"/>
    <frame tileid="184" duration="150"/>
    <frame tileid="187" duration="150"/>
    <frame tileid="190" duration="150"/>
    <frame tileid="193" duration="150"/>
    <frame tileid="196" duration="150"/>
    <frame tileid="199" duration="150"/>
    <frame tileid="202" duration="150"/>
    <frame tileid="205" duration="150"/>
    <frame tileid="208" duration="150"/>
    <frame tileid="211" duration="150"/>
    <frame tileid="214" duration="150"/>
   </animation>
  </tile>
  <tile id="182">
   <animation>
    <frame tileid="182" duration="150"/>
    <frame tileid="185" duration="150"/>
    <frame tileid="188" duration="150"/>
    <frame tileid="191" duration="150"/>
    <frame tileid="194" duration="150"/>
    <frame tileid="197" duration="150"/>
    <frame tileid="200" duration="150"/>
    <frame tileid="203" duration="150"/>
    <frame tileid="206" duration="150"/>
    <frame tileid="209" duration="150"/>
    <frame tileid="212" duration="150"/>
    <frame tileid="215" duration="150"/>
   </animation>
  </tile>
 </tileset>
 <tileset firstgid="433" name="Small_boat_v1_1" tilewidth="16" tileheight="16" tilecount="216" columns="36">
  <image source="Small_boat_v1_3.png" width="576" height="96"/>
  <tile id="1">
   <animation>
    <frame tileid="1" duration="150"/>
    <frame tileid="4" duration="150"/>
    <frame tileid="7" duration="150"/>
    <frame tileid="10" duration="150"/>
    <frame tileid="13" duration="150"/>
    <frame tileid="16" duration="150"/>
    <frame tileid="19" duration="150"/>
    <frame tileid="22" duration="150"/>
    <frame tileid="25" duration="150"/>
    <frame tileid="28" duration="150"/>
    <frame tileid="31" duration="150"/>
    <frame tileid="34" duration="150"/>
   </animation>
  </tile>
  <tile id="36">
   <animation>
    <frame tileid="36" duration="150"/>
    <frame tileid="39" duration="150"/>
    <frame tileid="42" duration="150"/>
    <frame tileid="45" duration="150"/>
    <frame tileid="48" duration="150"/>
    <frame tileid="51" duration="150"/>
    <frame tileid="54" duration="150"/>
    <frame tileid="57" duration="150"/>
    <frame tileid="60" duration="150"/>
    <frame tileid="63" duration="150"/>
    <frame tileid="66" duration="150"/>
    <frame tileid="69" duration="150"/>
   </animation>
  </tile>
  <tile id="37">
   <animation>
    <frame tileid="37" duration="150"/>
    <frame tileid="40" duration="150"/>
    <frame tileid="43" duration="150"/>
    <frame tileid="46" duration="150"/>
    <frame tileid="49" duration="150"/>
    <frame tileid="52" duration="150"/>
    <frame tileid="55" duration="150"/>
    <frame tileid="58" duration="150"/>
    <frame tileid="61" duration="150"/>
    <frame tileid="64" duration="150"/>
    <frame tileid="67" duration="150"/>
    <frame tileid="70" duration="150"/>
   </animation>
  </tile>
  <tile id="38">
   <animation>
    <frame tileid="38" duration="150"/>
    <frame tileid="41" duration="150"/>
    <frame tileid="44" duration="150"/>
    <frame tileid="47" duration="150"/>
    <frame tileid="50" duration="150"/>
    <frame tileid="53" duration="150"/>
    <frame tileid="56" duration="150"/>
    <frame tileid="59" duration="150"/>
    <frame tileid="62" duration="150"/>
    <frame tileid="65" duration="150"/>
    <frame tileid="68" duration="150"/>
    <frame tileid="71" duration="150"/>
   </animation>
  </tile>
  <tile id="72">
   <animation>
    <frame tileid="72" duration="150"/>
    <frame tileid="75" duration="150"/>
    <frame tileid="78" duration="150"/>
    <frame tileid="81" duration="150"/>
    <frame tileid="84" duration="150"/>
    <frame tileid="87" duration="150"/>
    <frame tileid="90" duration="150"/>
    <frame tileid="93" duration="150"/>
    <frame tileid="96" duration="150"/>
    <frame tileid="99" duration="150"/>
    <frame tileid="102" duration="150"/>
    <frame tileid="105" duration="150"/>
   </animation>
  </tile>
  <tile id="73">
   <animation>
    <frame tileid="73" duration="150"/>
    <frame tileid="76" duration="150"/>
    <frame tileid="79" duration="150"/>
    <frame tileid="82" duration="150"/>
    <frame tileid="85" duration="150"/>
    <frame tileid="88" duration="150"/>
    <frame tileid="91" duration="150"/>
    <frame tileid="94" duration="150"/>
    <frame tileid="97" duration="150"/>
    <frame tileid="100" duration="150"/>
    <frame tileid="103" duration="150"/>
    <frame tileid="106" duration="150"/>
   </animation>
  </tile>
  <tile id="74">
   <animation>
    <frame tileid="74" duration="150"/>
    <frame tileid="77" duration="150"/>
    <frame tileid="80" duration="150"/>
    <frame tileid="83" duration="150"/>
    <frame tileid="86" duration="150"/>
    <frame tileid="89" duration="150"/>
    <frame tileid="92" duration="150"/>
    <frame tileid="95" duration="150"/>
    <frame tileid="98" duration="150"/>
    <frame tileid="101" duration="150"/>
    <frame tileid="104" duration="150"/>
    <frame tileid="107" duration="150"/>
   </animation>
  </tile>
  <tile id="108">
   <animation>
    <frame tileid="108" duration="150"/>
    <frame tileid="111" duration="150"/>
    <frame tileid="114" duration="150"/>
    <frame tileid="117" duration="150"/>
    <frame tileid="120" duration="150"/>
    <frame tileid="123" duration="150"/>
    <frame tileid="126" duration="150"/>
    <frame tileid="129" duration="150"/>
    <frame tileid="132" duration="150"/>
    <frame tileid="135" duration="150"/>
    <frame tileid="138" duration="150"/>
    <frame tileid="141" duration="150"/>
   </animation>
  </tile>
  <tile id="109">
   <animation>
    <frame tileid="109" duration="150"/>
    <frame tileid="112" duration="150"/>
    <frame tileid="115" duration="150"/>
    <frame tileid="118" duration="150"/>
    <frame tileid="121" duration="150"/>
    <frame tileid="124" duration="150"/>
    <frame tileid="127" duration="150"/>
    <frame tileid="130" duration="150"/>
    <frame tileid="133" duration="150"/>
    <frame tileid="136" duration="150"/>
    <frame tileid="139" duration="150"/>
    <frame tileid="142" duration="150"/>
   </animation>
  </tile>
  <tile id="110">
   <animation>
    <frame tileid="110" duration="150"/>
    <frame tileid="113" duration="150"/>
    <frame tileid="116" duration="150"/>
    <frame tileid="119" duration="150"/>
    <frame tileid="122" duration="150"/>
    <frame tileid="125" duration="150"/>
    <frame tileid="128" duration="150"/>
    <frame tileid="131" duration="150"/>
    <frame tileid="134" duration="150"/>
    <frame tileid="137" duration="150"/>
    <frame tileid="140" duration="150"/>
    <frame tileid="143" duration="150"/>
   </animation>
  </tile>
  <tile id="144">
   <animation>
    <frame tileid="144" duration="150"/>
    <frame tileid="147" duration="150"/>
    <frame tileid="150" duration="150"/>
    <frame tileid="153" duration="150"/>
    <frame tileid="156" duration="150"/>
    <frame tileid="159" duration="150"/>
    <frame tileid="162" duration="150"/>
    <frame tileid="165" duration="150"/>
    <frame tileid="168" duration="150"/>
    <frame tileid="171" duration="150"/>
    <frame tileid="174" duration="150"/>
    <frame tileid="177" duration="150"/>
   </animation>
  </tile>
  <tile id="145">
   <animation>
    <frame tileid="145" duration="150"/>
    <frame tileid="148" duration="150"/>
    <frame tileid="151" duration="150"/>
    <frame tileid="154" duration="150"/>
    <frame tileid="157" duration="150"/>
    <frame tileid="160" duration="150"/>
    <frame tileid="163" duration="150"/>
    <frame tileid="166" duration="150"/>
    <frame tileid="169" duration="150"/>
    <frame tileid="172" duration="150"/>
    <frame tileid="175" duration="150"/>
    <frame tileid="178" duration="150"/>
   </animation>
  </tile>
  <tile id="146">
   <animation>
    <frame tileid="146" duration="150"/>
    <frame tileid="149" duration="150"/>
    <frame tileid="152" duration="150"/>
    <frame tileid="155" duration="150"/>
    <frame tileid="158" duration="150"/>
    <frame tileid="161" duration="150"/>
    <frame tileid="164" duration="150"/>
    <frame tileid="167" duration="150"/>
    <frame tileid="170" duration="150"/>
    <frame tileid="173" duration="150"/>
    <frame tileid="176" duration="150"/>
    <frame tileid="179" duration="150"/>
   </animation>
  </tile>
  <tile id="180">
   <animation>
    <frame tileid="180" duration="150"/>
    <frame tileid="183" duration="150"/>
    <frame tileid="186" duration="150"/>
    <frame tileid="189" duration="150"/>
    <frame tileid="192" duration="150"/>
    <frame tileid="195" duration="150"/>
    <frame tileid="198" duration="150"/>
    <frame tileid="201" duration="150"/>
    <frame tileid="204" duration="150"/>
    <frame tileid="207" duration="150"/>
    <frame tileid="210" duration="150"/>
    <frame tileid="213" duration="150"/>
   </animation>
  </tile>
  <tile id="181">
   <animation>
    <frame tileid="181" duration="150"/>
    <frame tileid="184" duration="150"/>
    <frame tileid="187" duration="150"/>
    <frame tileid="190" duration="150"/>
    <frame tileid="193" duration="150"/>
    <frame tileid="196" duration="150"/>
    <frame tileid="199" duration="150"/>
    <frame tileid="202" duration="150"/>
    <frame tileid="205" duration="150"/>
    <frame tileid="208" duration="150"/>
    <frame tileid="211" duration="150"/>
    <frame tileid="214" duration="150"/>
   </animation>
  </tile>
  <tile id="182">
   <animation>
    <frame tileid="182" duration="150"/>
    <frame tileid="185" duration="150"/>
    <frame tileid="188" duration="150"/>
    <frame tileid="191" duration="150"/>
    <frame tileid="194" duration="150"/>
    <frame tileid="197" duration="150"/>
    <frame tileid="200" duration="150"/>
    <frame tileid="203" duration="150"/>
    <frame tileid="206" duration="150"/>
    <frame tileid="209" duration="150"/>
    <frame tileid="212" duration="150"/>
    <frame tileid="215" duration="150"/>
   </animation>
  </tile>
 </tileset>
 <tileset firstgid="649" name="Small_boat_v1_1" tilewidth="16" tileheight="16" tilecount="216" columns="36">
  <image source="Small_boat_v1_4.png" width="576" height="96"/>
  <tile id="1">
   <animation>
    <frame tileid="1" duration="150"/>
    <frame tileid="4" duration="150"/>
    <frame tileid="7" duration="150"/>
    <frame tileid="10" duration="150"/>
    <frame tileid="13" duration="150"/>
    <frame tileid="16" duration="150"/>
    <frame tileid="19" duration="150"/>
    <frame tileid="22" duration="150"/>
    <frame tileid="25" duration="150"/>
    <frame tileid="28" duration="150"/>
    <frame tileid="31" duration="150"/>
    <frame tileid="34" duration="150"/>
   </animation>
  </tile>
  <tile id="36">
   <animation>
    <frame tileid="36" duration="150"/>
    <frame tileid="39" duration="150"/>
    <frame tileid="42" duration="150"/>
    <frame tileid="45" duration="150"/>
    <frame tileid="48" duration="150"/>
    <frame tileid="51" duration="150"/>
    <frame tileid="54" duration="150"/>
    <frame tileid="57" duration="150"/>
    <frame tileid="60" duration="150"/>
    <frame tileid="63" duration="150"/>
    <frame tileid="66" duration="150"/>
    <frame tileid="69" duration="150"/>
   </animation>
  </tile>
  <tile id="37">
   <animation>
    <frame tileid="37" duration="150"/>
    <frame tileid="40" duration="150"/>
    <frame tileid="43" duration="150"/>
    <frame tileid="46" duration="150"/>
    <frame tileid="49" duration="150"/>
    <frame tileid="52" duration="150"/>
    <frame tileid="55" duration="150"/>
    <frame tileid="58" duration="150"/>
    <frame tileid="61" duration="150"/>
    <frame tileid="64" duration="150"/>
    <frame tileid="67" duration="150"/>
    <frame tileid="70" duration="150"/>
   </animation>
  </tile>
  <tile id="38">
   <animation>
    <frame tileid="38" duration="150"/>
    <frame tileid="41" duration="150"/>
    <frame tileid="44" duration="150"/>
    <frame tileid="47" duration="150"/>
    <frame tileid="50" duration="150"/>
    <frame tileid="53" duration="150"/>
    <frame tileid="56" duration="150"/>
    <frame tileid="59" duration="150"/>
    <frame tileid="62" duration="150"/>
    <frame tileid="65" duration="150"/>
    <frame tileid="68" duration="150"/>
    <frame tileid="71" duration="150"/>
   </animation>
  </tile>
  <tile id="72">
   <animation>
    <frame tileid="72" duration="150"/>
    <frame tileid="75" duration="150"/>
    <frame tileid="78" duration="150"/>
    <frame tileid="81" duration="150"/>
    <frame tileid="84" duration="150"/>
    <frame tileid="87" duration="150"/>
    <frame tileid="90" duration="150"/>
    <frame tileid="93" duration="150"/>
    <frame tileid="96" duration="150"/>
    <frame tileid="99" duration="150"/>
    <frame tileid="102" duration="150"/>
    <frame tileid="105" duration="150"/>
   </animation>
  </tile>
  <tile id="73">
   <animation>
    <frame tileid="73" duration="150"/>
    <frame tileid="76" duration="150"/>
    <frame tileid="79" duration="150"/>
    <frame tileid="82" duration="150"/>
    <frame tileid="85" duration="150"/>
    <frame tileid="88" duration="150"/>
    <frame tileid="91" duration="150"/>
    <frame tileid="94" duration="150"/>
    <frame tileid="97" duration="150"/>
    <frame tileid="100" duration="150"/>
    <frame tileid="103" duration="150"/>
    <frame tileid="106" duration="150"/>
   </animation>
  </tile>
  <tile id="74">
   <animation>
    <frame tileid="74" duration="150"/>
    <frame tileid="77" duration="150"/>
    <frame tileid="80" duration="150"/>
    <frame tileid="83" duration="150"/>
    <frame tileid="86" duration="150"/>
    <frame tileid="89" duration="150"/>
    <frame tileid="92" duration="150"/>
    <frame tileid="95" duration="150"/>
    <frame tileid="98" duration="150"/>
    <frame tileid="101" duration="150"/>
    <frame tileid="104" duration="150"/>
    <frame tileid="107" duration="150"/>
   </animation>
  </tile>
  <tile id="108">
   <animation>
    <frame tileid="108" duration="150"/>
    <frame tileid="111" duration="150"/>
    <frame tileid="114" duration="150"/>
    <frame tileid="117" duration="150"/>
    <frame tileid="120" duration="150"/>
    <frame tileid="123" duration="150"/>
    <frame tileid="126" duration="150"/>
    <frame tileid="129" duration="150"/>
    <frame tileid="132" duration="150"/>
    <frame tileid="135" duration="150"/>
    <frame tileid="138" duration="150"/>
    <frame tileid="141" duration="150"/>
   </animation>
  </tile>
  <tile id="109">
   <animation>
    <frame tileid="109" duration="150"/>
    <frame tileid="112" duration="150"/>
    <frame tileid="115" duration="150"/>
    <frame tileid="118" duration="150"/>
    <frame tileid="121" duration="150"/>
    <frame tileid="124" duration="150"/>
    <frame tileid="127" duration="150"/>
    <frame tileid="130" duration="150"/>
    <frame tileid="133" duration="150"/>
    <frame tileid="136" duration="150"/>
    <frame tileid="139" duration="150"/>
    <frame tileid="142" duration="150"/>
   </animation>
  </tile>
  <tile id="110">
   <animation>
    <frame tileid="110" duration="150"/>
    <frame tileid="113" duration="150"/>
    <frame tileid="116" duration="150"/>
    <frame tileid="119" duration="150"/>
    <frame tileid="122" duration="150"/>
    <frame tileid="125" duration="150"/>
    <frame tileid="128" duration="150"/>
    <frame tileid="131" duration="150"/>
    <frame tileid="134" duration="150"/>
    <frame tileid="137" duration="150"/>
    <frame tileid="140" duration="150"/>
    <frame tileid="143" duration="150"/>
   </animation>
  </tile>
  <tile id="144">
   <animation>
    <frame tileid="144" duration="150"/>
    <frame tileid="147" duration="150"/>
    <frame tileid="150" duration="150"/>
    <frame tileid="153" duration="150"/>
    <frame tileid="156" duration="150"/>
    <frame tileid="159" duration="150"/>
    <frame tileid="162" duration="150"/>
    <frame tileid="165" duration="150"/>
    <frame tileid="168" duration="150"/>
    <frame tileid="171" duration="150"/>
    <frame tileid="174" duration="150"/>
    <frame tileid="177" duration="150"/>
   </animation>
  </tile>
  <tile id="145">
   <animation>
    <frame tileid="145" duration="150"/>
    <frame tileid="148" duration="150"/>
    <frame tileid="151" duration="150"/>
    <frame tileid="154" duration="150"/>
    <frame tileid="157" duration="150"/>
    <frame tileid="160" duration="150"/>
    <frame tileid="163" duration="150"/>
    <frame tileid="166" duration="150"/>
    <frame tileid="169" duration="150"/>
    <frame tileid="172" duration="150"/>
    <frame tileid="175" duration="150"/>
    <frame tileid="178" duration="150"/>
   </animation>
  </tile>
  <tile id="146">
   <animation>
    <frame tileid="146" duration="150"/>
    <frame tileid="149" duration="150"/>
    <frame tileid="152" duration="150"/>
    <frame tileid="155" duration="150"/>
    <frame tileid="158" duration="150"/>
    <frame tileid="161" duration="150"/>
    <frame tileid="164" duration="150"/>
    <frame tileid="167" duration="150"/>
    <frame tileid="170" duration="150"/>
    <frame tileid="173" duration="150"/>
    <frame tileid="176" duration="150"/>
    <frame tileid="179" duration="150"/>
   </animation>
  </tile>
  <tile id="180">
   <animation>
    <frame tileid="180" duration="150"/>
    <frame tileid="183" duration="150"/>
    <frame tileid="186" duration="150"/>
    <frame tileid="189" duration="150"/>
    <frame tileid="192" duration="150"/>
    <frame tileid="195" duration="150"/>
    <frame tileid="198" duration="150"/>
    <frame tileid="201" duration="150"/>
    <frame tileid="204" duration="150"/>
    <frame tileid="207" duration="150"/>
    <frame tileid="210" duration="150"/>
    <frame tileid="213" duration="150"/>
   </animation>
  </tile>
  <tile id="181">
   <animation>
    <frame tileid="181" duration="150"/>
    <frame tileid="184" duration="150"/>
    <frame tileid="187" duration="150"/>
    <frame tileid="190" duration="150"/>
    <frame tileid="193" duration="150"/>
    <frame tileid="196" duration="150"/>
    <frame tileid="199" duration="150"/>
    <frame tileid="202" duration="150"/>
    <frame tileid="205" duration="150"/>
    <frame tileid="208" duration="150"/>
    <frame tileid="211" duration="150"/>
    <frame tileid="214" duration="150"/>
   </animation>
  </tile>
  <tile id="182">
   <animation>
    <frame tileid="182" duration="150"/>
    <frame tileid="185" duration="150"/>
    <frame tileid="188" duration="150"/>
    <frame tileid="191" duration="150"/>
    <frame tileid="194" duration="150"/>
    <frame tileid="197" duration="150"/>
    <frame tileid="200" duration="150"/>
    <frame tileid="203" duration="150"/>
    <frame tileid="206" duration="150"/>
    <frame tileid="209" duration="150"/>
    <frame tileid="212" duration="150"/>
    <frame tileid="215" duration="150"/>
   </animation>
  </tile>
 </tileset>
 <tileset firstgid="865" name="Small_boat_v1_1" tilewidth="16" tileheight="16" tilecount="216" columns="36">
  <image source="Small_boat_v1_5.png" width="576" height="96"/>
  <tile id="1">
   <animation>
    <frame tileid="1" duration="150"/>
    <frame tileid="4" duration="150"/>
    <frame tileid="7" duration="150"/>
    <frame tileid="10" duration="150"/>
    <frame tileid="13" duration="150"/>
    <frame tileid="16" duration="150"/>
    <frame tileid="19" duration="150"/>
    <frame tileid="22" duration="150"/>
    <frame tileid="25" duration="150"/>
    <frame tileid="28" duration="150"/>
    <frame tileid="31" duration="150"/>
    <frame tileid="34" duration="150"/>
   </animation>
  </tile>
  <tile id="36">
   <animation>
    <frame tileid="36" duration="150"/>
    <frame tileid="39" duration="150"/>
    <frame tileid="42" duration="150"/>
    <frame tileid="45" duration="150"/>
    <frame tileid="48" duration="150"/>
    <frame tileid="51" duration="150"/>
    <frame tileid="54" duration="150"/>
    <frame tileid="57" duration="150"/>
    <frame tileid="60" duration="150"/>
    <frame tileid="63" duration="150"/>
    <frame tileid="66" duration="150"/>
    <frame tileid="69" duration="150"/>
   </animation>
  </tile>
  <tile id="37">
   <animation>
    <frame tileid="37" duration="150"/>
    <frame tileid="40" duration="150"/>
    <frame tileid="43" duration="150"/>
    <frame tileid="46" duration="150"/>
    <frame tileid="49" duration="150"/>
    <frame tileid="52" duration="150"/>
    <frame tileid="55" duration="150"/>
    <frame tileid="58" duration="150"/>
    <frame tileid="61" duration="150"/>
    <frame tileid="64" duration="150"/>
    <frame tileid="67" duration="150"/>
    <frame tileid="70" duration="150"/>
   </animation>
  </tile>
  <tile id="38">
   <animation>
    <frame tileid="38" duration="150"/>
    <frame tileid="41" duration="150"/>
    <frame tileid="44" duration="150"/>
    <frame tileid="47" duration="150"/>
    <frame tileid="50" duration="150"/>
    <frame tileid="53" duration="150"/>
    <frame tileid="56" duration="150"/>
    <frame tileid="59" duration="150"/>
    <frame tileid="62" duration="150"/>
    <frame tileid="65" duration="150"/>
    <frame tileid="68" duration="150"/>
    <frame tileid="71" duration="150"/>
   </animation>
  </tile>
  <tile id="72">
   <animation>
    <frame tileid="72" duration="150"/>
    <frame tileid="75" duration="150"/>
    <frame tileid="78" duration="150"/>
    <frame tileid="81" duration="150"/>
    <frame tileid="84" duration="150"/>
    <frame tileid="87" duration="150"/>
    <frame tileid="90" duration="150"/>
    <frame tileid="93" duration="150"/>
    <frame tileid="96" duration="150"/>
    <frame tileid="99" duration="150"/>
    <frame tileid="102" duration="150"/>
    <frame tileid="105" duration="150"/>
   </animation>
  </tile>
  <tile id="73">
   <animation>
    <frame tileid="73" duration="150"/>
    <frame tileid="76" duration="150"/>
    <frame tileid="79" duration="150"/>
    <frame tileid="82" duration="150"/>
    <frame tileid="85" duration="150"/>
    <frame tileid="88" duration="150"/>
    <frame tileid="91" duration="150"/>
    <frame tileid="94" duration="150"/>
    <frame tileid="97" duration="150"/>
    <frame tileid="100" duration="150"/>
    <frame tileid="103" duration="150"/>
    <frame tileid="106" duration="150"/>
   </animation>
  </tile>
  <tile id="74">
   <animation>
    <frame tileid="74" duration="150"/>
    <frame tileid="77" duration="150"/>
    <frame tileid="80" duration="150"/>
    <frame tileid="83" duration="150"/>
    <frame tileid="86" duration="150"/>
    <frame tileid="89" duration="150"/>
    <frame tileid="92" duration="150"/>
    <frame tileid="95" duration="150"/>
    <frame tileid="98" duration="150"/>
    <frame tileid="101" duration="150"/>
    <frame tileid="104" duration="150"/>
    <frame tileid="107" duration="150"/>
   </animation>
  </tile>
  <tile id="108">
   <animation>
    <frame tileid="108" duration="150"/>
    <frame tileid="111" duration="150"/>
    <frame tileid="114" duration="150"/>
    <frame tileid="117" duration="150"/>
    <frame tileid="120" duration="150"/>
    <frame tileid="123" duration="150"/>
    <frame tileid="126" duration="150"/>
    <frame tileid="129" duration="150"/>
    <frame tileid="132" duration="150"/>
    <frame tileid="135" duration="150"/>
    <frame tileid="138" duration="150"/>
    <frame tileid="141" duration="150"/>
   </animation>
  </tile>
  <tile id="109">
   <animation>
    <frame tileid="109" duration="150"/>
    <frame tileid="112" duration="150"/>
    <frame tileid="115" duration="150"/>
    <frame tileid="118" duration="150"/>
    <frame tileid="121" duration="150"/>
    <frame tileid="124" duration="150"/>
    <frame tileid="127" duration="150"/>
    <frame tileid="130" duration="150"/>
    <frame tileid="133" duration="150"/>
    <frame tileid="136" duration="150"/>
    <frame tileid="139" duration="150"/>
    <frame tileid="142" duration="150"/>
   </animation>
  </tile>
  <tile id="110">
   <animation>
    <frame tileid="110" duration="150"/>
    <frame tileid="113" duration="150"/>
    <frame tileid="116" duration="150"/>
    <frame tileid="119" duration="150"/>
    <frame tileid="122" duration="150"/>
    <frame tileid="125" duration="150"/>
    <frame tileid="128" duration="150"/>
    <frame tileid="131" duration="150"/>
    <frame tileid="134" duration="150"/>
    <frame tileid="137" duration="150"/>
    <frame tileid="140" duration="150"/>
    <frame tileid="143" duration="150"/>
   </animation>
  </tile>
  <tile id="144">
   <animation>
    <frame tileid="144" duration="150"/>
    <frame tileid="147" duration="150"/>
    <frame tileid="150" duration="150"/>
    <frame tileid="153" duration="150"/>
    <frame tileid="156" duration="150"/>
    <frame tileid="159" duration="150"/>
    <frame tileid="162" duration="150"/>
    <frame tileid="165" duration="150"/>
    <frame tileid="168" duration="150"/>
    <frame tileid="171" duration="150"/>
    <frame tileid="174" duration="150"/>
    <frame tileid="177" duration="150"/>
   </animation>
  </tile>
  <tile id="145">
   <animation>
    <frame tileid="145" duration="150"/>
    <frame tileid="148" duration="150"/>
    <frame tileid="151" duration="150"/>
    <frame tileid="154" duration="150"/>
    <frame tileid="157" duration="150"/>
    <frame tileid="160" duration="150"/>
    <frame tileid="163" duration="150"/>
    <frame tileid="166" duration="150"/>
    <frame tileid="169" duration="150"/>
    <frame tileid="172" duration="150"/>
    <frame tileid="175" duration="150"/>
    <frame tileid="178" duration="150"/>
   </animation>
  </tile>
  <tile id="146">
   <animation>
    <frame tileid="146" duration="150"/>
    <frame tileid="149" duration="150"/>
    <frame tileid="152" duration="150"/>
    <frame tileid="155" duration="150"/>
    <frame tileid="158" duration="150"/>
    <frame tileid="161" duration="150"/>
    <frame tileid="164" duration="150"/>
    <frame tileid="167" duration="150"/>
    <frame tileid="170" duration="150"/>
    <frame tileid="173" duration="150"/>
    <frame tileid="176" duration="150"/>
    <frame tileid="179" duration="150"/>
   </animation>
  </tile>
  <tile id="180">
   <animation>
    <frame tileid="180" duration="150"/>
    <frame tileid="183" duration="150"/>
    <frame tileid="186" duration="150"/>
    <frame tileid="189" duration="150"/>
    <frame tileid="192" duration="150"/>
    <frame tileid="195" duration="150"/>
    <frame tileid="198" duration="150"/>
    <frame tileid="201" duration="150"/>
    <frame tileid="204" duration="150"/>
    <frame tileid="207" duration="150"/>
    <frame tileid="210" duration="150"/>
    <frame tileid="213" duration="150"/>
   </animation>
  </tile>
  <tile id="181">
   <animation>
    <frame tileid="181" duration="150"/>
    <frame tileid="184" duration="150"/>
    <frame tileid="187" duration="150"/>
    <frame tileid="190" duration="150"/>
    <frame tileid="193" duration="150"/>
    <frame tileid="196" duration="150"/>
    <frame tileid="199" duration="150"/>
    <frame tileid="202" duration="150"/>
    <frame tileid="205" duration="150"/>
    <frame tileid="208" duration="150"/>
    <frame tileid="211" duration="150"/>
    <frame tileid="214" duration="150"/>
   </animation>
  </tile>
  <tile id="182">
   <animation>
    <frame tileid="182" duration="150"/>
    <frame tileid="185" duration="150"/>
    <frame tileid="188" duration="150"/>
    <frame tileid="191" duration="150"/>
    <frame tileid="194" duration="150"/>
    <frame tileid="197" duration="150"/>
    <frame tileid="200" duration="150"/>
    <frame tileid="203" duration="150"/>
    <frame tileid="206" duration="150"/>
    <frame tileid="209" duration="150"/>
    <frame tileid="212" duration="150"/>
    <frame tileid="215" duration="150"/>
   </animation>
  </tile>
 </tileset>
 <tileset firstgid="1081" name="Small_boat_v1_1" tilewidth="16" tileheight="16" tilecount="216" columns="36">
  <image source="Small_boat_v1_6.png" width="576" height="96"/>
  <tile id="1">
   <animation>
    <frame tileid="1" duration="150"/>
    <frame tileid="4" duration="150"/>
    <frame tileid="7" duration="150"/>
    <frame tileid="10" duration="150"/>
    <frame tileid="13" duration="150"/>
    <frame tileid="16" duration="150"/>
    <frame tileid="19" duration="150"/>
    <frame tileid="22" duration="150"/>
    <frame tileid="25" duration="150"/>
    <frame tileid="28" duration="150"/>
    <frame tileid="31" duration="150"/>
    <frame tileid="34" duration="150"/>
   </animation>
  </tile>
  <tile id="36">
   <animation>
    <frame tileid="36" duration="150"/>
    <frame tileid="39" duration="150"/>
    <frame tileid="42" duration="150"/>
    <frame tileid="45" duration="150"/>
    <frame tileid="48" duration="150"/>
    <frame tileid="51" duration="150"/>
    <frame tileid="54" duration="150"/>
    <frame tileid="57" duration="150"/>
    <frame tileid="60" duration="150"/>
    <frame tileid="63" duration="150"/>
    <frame tileid="66" duration="150"/>
    <frame tileid="69" duration="150"/>
   </animation>
  </tile>
  <tile id="37">
   <animation>
    <frame tileid="37" duration="150"/>
    <frame tileid="40" duration="150"/>
    <frame tileid="43" duration="150"/>
    <frame tileid="46" duration="150"/>
    <frame tileid="49" duration="150"/>
    <frame tileid="52" duration="150"/>
    <frame tileid="55" duration="150"/>
    <frame tileid="58" duration="150"/>
    <frame tileid="61" duration="150"/>
    <frame tileid="64" duration="150"/>
    <frame tileid="67" duration="150"/>
    <frame tileid="70" duration="150"/>
   </animation>
  </tile>
  <tile id="38">
   <animation>
    <frame tileid="38" duration="150"/>
    <frame tileid="41" duration="150"/>
    <frame tileid="44" duration="150"/>
    <frame tileid="47" duration="150"/>
    <frame tileid="50" duration="150"/>
    <frame tileid="53" duration="150"/>
    <frame tileid="56" duration="150"/>
    <frame tileid="59" duration="150"/>
    <frame tileid="62" duration="150"/>
    <frame tileid="65" duration="150"/>
    <frame tileid="68" duration="150"/>
    <frame tileid="71" duration="150"/>
   </animation>
  </tile>
  <tile id="72">
   <animation>
    <frame tileid="72" duration="150"/>
    <frame tileid="75" duration="150"/>
    <frame tileid="78" duration="150"/>
    <frame tileid="81" duration="150"/>
    <frame tileid="84" duration="150"/>
    <frame tileid="87" duration="150"/>
    <frame tileid="90" duration="150"/>
    <frame tileid="93" duration="150"/>
    <frame tileid="96" duration="150"/>
    <frame tileid="99" duration="150"/>
    <frame tileid="102" duration="150"/>
    <frame tileid="105" duration="150"/>
   </animation>
  </tile>
  <tile id="73">
   <animation>
    <frame tileid="73" duration="150"/>
    <frame tileid="76" duration="150"/>
    <frame tileid="79" duration="150"/>
    <frame tileid="82" duration="150"/>
    <frame tileid="85" duration="150"/>
    <frame tileid="88" duration="150"/>
    <frame tileid="91" duration="150"/>
    <frame tileid="94" duration="150"/>
    <frame tileid="97" duration="150"/>
    <frame tileid="100" duration="150"/>
    <frame tileid="103" duration="150"/>
    <frame tileid="106" duration="150"/>
   </animation>
  </tile>
  <tile id="74">
   <animation>
    <frame tileid="74" duration="150"/>
    <frame tileid="77" duration="150"/>
    <frame tileid="80" duration="150"/>
    <frame tileid="83" duration="150"/>
    <frame tileid="86" duration="150"/>
    <frame tileid="89" duration="150"/>
    <frame tileid="92" duration="150"/>
    <frame tileid="95" duration="150"/>
    <frame tileid="98" duration="150"/>
    <frame tileid="101" duration="150"/>
    <frame tileid="104" duration="150"/>
    <frame tileid="107" duration="150"/>
   </animation>
  </tile>
  <tile id="108">
   <animation>
    <frame tileid="108" duration="150"/>
    <frame tileid="111" duration="150"/>
    <frame tileid="114" duration="150"/>
    <frame tileid="117" duration="150"/>
    <frame tileid="120" duration="150"/>
    <frame tileid="123" duration="150"/>
    <frame tileid="126" duration="150"/>
    <frame tileid="129" duration="150"/>
    <frame tileid="132" duration="150"/>
    <frame tileid="135" duration="150"/>
    <frame tileid="138" duration="150"/>
    <frame tileid="141" duration="150"/>
   </animation>
  </tile>
  <tile id="109">
   <animation>
    <frame tileid="109" duration="150"/>
    <frame tileid="112" duration="150"/>
    <frame tileid="115" duration="150"/>
    <frame tileid="118" duration="150"/>
    <frame tileid="121" duration="150"/>
    <frame tileid="124" duration="150"/>
    <frame tileid="127" duration="150"/>
    <frame tileid="130" duration="150"/>
    <frame tileid="133" duration="150"/>
    <frame tileid="136" duration="150"/>
    <frame tileid="139" duration="150"/>
    <frame tileid="142" duration="150"/>
   </animation>
  </tile>
  <tile id="110">
   <animation>
    <frame tileid="110" duration="150"/>
    <frame tileid="113" duration="150"/>
    <frame tileid="116" duration="150"/>
    <frame tileid="119" duration="150"/>
    <frame tileid="122" duration="150"/>
    <frame tileid="125" duration="150"/>
    <frame tileid="128" duration="150"/>
    <frame tileid="131" duration="150"/>
    <frame tileid="134" duration="150"/>
    <frame tileid="137" duration="150"/>
    <frame tileid="140" duration="150"/>
    <frame tileid="143" duration="150"/>
   </animation>
  </tile>
  <tile id="144">
   <animation>
    <frame tileid="144" duration="150"/>
    <frame tileid="147" duration="150"/>
    <frame tileid="150" duration="150"/>
    <frame tileid="153" duration="150"/>
    <frame tileid="156" duration="150"/>
    <frame tileid="159" duration="150"/>
    <frame tileid="162" duration="150"/>
    <frame tileid="165" duration="150"/>
    <frame tileid="168" duration="150"/>
    <frame tileid="171" duration="150"/>
    <frame tileid="174" duration="150"/>
    <frame tileid="177" duration="150"/>
   </animation>
  </tile>
  <tile id="145">
   <animation>
    <frame tileid="145" duration="150"/>
    <frame tileid="148" duration="150"/>
    <frame tileid="151" duration="150"/>
    <frame tileid="154" duration="150"/>
    <frame tileid="157" duration="150"/>
    <frame tileid="160" duration="150"/>
    <frame tileid="163" duration="150"/>
    <frame tileid="166" duration="150"/>
    <frame tileid="169" duration="150"/>
    <frame tileid="172" duration="150"/>
    <frame tileid="175" duration="150"/>
    <frame tileid="178" duration="150"/>
   </animation>
  </tile>
  <tile id="146">
   <animation>
    <frame tileid="146" duration="150"/>
    <frame tileid="149" duration="150"/>
    <frame tileid="152" duration="150"/>
    <frame tileid="155" duration="150"/>
    <frame tileid="158" duration="150"/>
    <frame tileid="161" duration="150"/>
    <frame tileid="164" duration="150"/>
    <frame tileid="167" duration="150"/>
    <frame tileid="170" duration="150"/>
    <frame tileid="173" duration="150"/>
    <frame tileid="176" duration="150"/>
    <frame tileid="179" duration="150"/>
   </animation>
  </tile>
  <tile id="180">
   <animation>
    <frame tileid="180" duration="150"/>
    <frame tileid="183" duration="150"/>
    <frame tileid="186" duration="150"/>
    <frame tileid="189" duration="150"/>
    <frame tileid="192" duration="150"/>
    <frame tileid="195" duration="150"/>
    <frame tileid="198" duration="150"/>
    <frame tileid="201" duration="150"/>
    <frame tileid="204" duration="150"/>
    <frame tileid="207" duration="150"/>
    <frame tileid="210" duration="150"/>
    <frame tileid="213" duration="150"/>
   </animation>
  </tile>
  <tile id="181">
   <animation>
    <frame tileid="181" duration="150"/>
    <frame tileid="184" duration="150"/>
    <frame tileid="187" duration="150"/>
    <frame tileid="190" duration="150"/>
    <frame tileid="193" duration="150"/>
    <frame tileid="196" duration="150"/>
    <frame tileid="199" duration="150"/>
    <frame tileid="202" duration="150"/>
    <frame tileid="205" duration="150"/>
    <frame tileid="208" duration="150"/>
    <frame tileid="211" duration="150"/>
    <frame tileid="214" duration="150"/>
   </animation>
  </tile>
  <tile id="182">
   <animation>
    <frame tileid="182" duration="150"/>
    <frame tileid="185" duration="150"/>
    <frame tileid="188" duration="150"/>
    <frame tileid="191" duration="150"/>
    <frame tileid="194" duration="150"/>
    <frame tileid="197" duration="150"/>
    <frame tileid="200" duration="150"/>
    <frame tileid="203" duration="150"/>
    <frame tileid="206" duration="150"/>
    <frame tileid="209" duration="150"/>
    <frame tileid="212" duration="150"/>
    <frame tileid="215" duration="150"/>
   </animation>
  </tile>
 </tileset>
 <tileset firstgid="1297" name="Small_boat_v1_1" tilewidth="16" tileheight="16" tilecount="216" columns="36">
  <image source="Small_boat_v1_7.png" width="576" height="96"/>
  <tile id="1">
   <animation>
    <frame tileid="1" duration="150"/>
    <frame tileid="4" duration="150"/>
    <frame tileid="7" duration="150"/>
    <frame tileid="10" duration="150"/>
    <frame tileid="13" duration="150"/>
    <frame tileid="16" duration="150"/>
    <frame tileid="19" duration="150"/>
    <frame tileid="22" duration="150"/>
    <frame tileid="25" duration="150"/>
    <frame tileid="28" duration="150"/>
    <frame tileid="31" duration="150"/>
    <frame tileid="34" duration="150"/>
   </animation>
  </tile>
  <tile id="36">
   <animation>
    <frame tileid="36" duration="150"/>
    <frame tileid="39" duration="150"/>
    <frame tileid="42" duration="150"/>
    <frame tileid="45" duration="150"/>
    <frame tileid="48" duration="150"/>
    <frame tileid="51" duration="150"/>
    <frame tileid="54" duration="150"/>
    <frame tileid="57" duration="150"/>
    <frame tileid="60" duration="150"/>
    <frame tileid="63" duration="150"/>
    <frame tileid="66" duration="150"/>
    <frame tileid="69" duration="150"/>
   </animation>
  </tile>
  <tile id="37">
   <animation>
    <frame tileid="37" duration="150"/>
    <frame tileid="40" duration="150"/>
    <frame tileid="43" duration="150"/>
    <frame tileid="46" duration="150"/>
    <frame tileid="49" duration="150"/>
    <frame tileid="52" duration="150"/>
    <frame tileid="55" duration="150"/>
    <frame tileid="58" duration="150"/>
    <frame tileid="61" duration="150"/>
    <frame tileid="64" duration="150"/>
    <frame tileid="67" duration="150"/>
    <frame tileid="70" duration="150"/>
   </animation>
  </tile>
  <tile id="38">
   <animation>
    <frame tileid="38" duration="150"/>
    <frame tileid="41" duration="150"/>
    <frame tileid="44" duration="150"/>
    <frame tileid="47" duration="150"/>
    <frame tileid="50" duration="150"/>
    <frame tileid="53" duration="150"/>
    <frame tileid="56" duration="150"/>
    <frame tileid="59" duration="150"/>
    <frame tileid="62" duration="150"/>
    <frame tileid="65" duration="150"/>
    <frame tileid="68" duration="150"/>
    <frame tileid="71" duration="150"/>
   </animation>
  </tile>
  <tile id="72">
   <animation>
    <frame tileid="72" duration="150"/>
    <frame tileid="75" duration="150"/>
    <frame tileid="78" duration="150"/>
    <frame tileid="81" duration="150"/>
    <frame tileid="84" duration="150"/>
    <frame tileid="87" duration="150"/>
    <frame tileid="90" duration="150"/>
    <frame tileid="93" duration="150"/>
    <frame tileid="96" duration="150"/>
    <frame tileid="99" duration="150"/>
    <frame tileid="102" duration="150"/>
    <frame tileid="105" duration="150"/>
   </animation>
  </tile>
  <tile id="73">
   <animation>
    <frame tileid="73" duration="150"/>
    <frame tileid="76" duration="150"/>
    <frame tileid="79" duration="150"/>
    <frame tileid="82" duration="150"/>
    <frame tileid="85" duration="150"/>
    <frame tileid="88" duration="150"/>
    <frame tileid="91" duration="150"/>
    <frame tileid="94" duration="150"/>
    <frame tileid="97" duration="150"/>
    <frame tileid="100" duration="150"/>
    <frame tileid="103" duration="150"/>
    <frame tileid="106" duration="150"/>
   </animation>
  </tile>
  <tile id="74">
   <animation>
    <frame tileid="74" duration="150"/>
    <frame tileid="77" duration="150"/>
    <frame tileid="80" duration="150"/>
    <frame tileid="83" duration="150"/>
    <frame tileid="86" duration="150"/>
    <frame tileid="89" duration="150"/>
    <frame tileid="92" duration="150"/>
    <frame tileid="95" duration="150"/>
    <frame tileid="98" duration="150"/>
    <frame tileid="101" duration="150"/>
    <frame tileid="104" duration="150"/>
    <frame tileid="107" duration="150"/>
   </animation>
  </tile>
  <tile id="108">
   <animation>
    <frame tileid="108" duration="150"/>
    <frame tileid="111" duration="150"/>
    <frame tileid="114" duration="150"/>
    <frame tileid="117" duration="150"/>
    <frame tileid="120" duration="150"/>
    <frame tileid="123" duration="150"/>
    <frame tileid="126" duration="150"/>
    <frame tileid="129" duration="150"/>
    <frame tileid="132" duration="150"/>
    <frame tileid="135" duration="150"/>
    <frame tileid="138" duration="150"/>
    <frame tileid="141" duration="150"/>
   </animation>
  </tile>
  <tile id="109">
   <animation>
    <frame tileid="109" duration="150"/>
    <frame tileid="112" duration="150"/>
    <frame tileid="115" duration="150"/>
    <frame tileid="118" duration="150"/>
    <frame tileid="121" duration="150"/>
    <frame tileid="124" duration="150"/>
    <frame tileid="127" duration="150"/>
    <frame tileid="130" duration="150"/>
    <frame tileid="133" duration="150"/>
    <frame tileid="136" duration="150"/>
    <frame tileid="139" duration="150"/>
    <frame tileid="142" duration="150"/>
   </animation>
  </tile>
  <tile id="110">
   <animation>
    <frame tileid="110" duration="150"/>
    <frame tileid="113" duration="150"/>
    <frame tileid="116" duration="150"/>
    <frame tileid="119" duration="150"/>
    <frame tileid="122" duration="150"/>
    <frame tileid="125" duration="150"/>
    <frame tileid="128" duration="150"/>
    <frame tileid="131" duration="150"/>
    <frame tileid="134" duration="150"/>
    <frame tileid="137" duration="150"/>
    <frame tileid="140" duration="150"/>
    <frame tileid="143" duration="150"/>
   </animation>
  </tile>
  <tile id="144">
   <animation>
    <frame tileid="144" duration="150"/>
    <frame tileid="147" duration="150"/>
    <frame tileid="150" duration="150"/>
    <frame tileid="153" duration="150"/>
    <frame tileid="156" duration="150"/>
    <frame tileid="159" duration="150"/>
    <frame tileid="162" duration="150"/>
    <frame tileid="165" duration="150"/>
    <frame tileid="168" duration="150"/>
    <frame tileid="171" duration="150"/>
    <frame tileid="174" duration="150"/>
    <frame tileid="177" duration="150"/>
   </animation>
  </tile>
  <tile id="145">
   <animation>
    <frame tileid="145" duration="150"/>
    <frame tileid="148" duration="150"/>
    <frame tileid="151" duration="150"/>
    <frame tileid="154" duration="150"/>
    <frame tileid="157" duration="150"/>
    <frame tileid="160" duration="150"/>
    <frame tileid="163" duration="150"/>
    <frame tileid="166" duration="150"/>
    <frame tileid="169" duration="150"/>
    <frame tileid="172" duration="150"/>
    <frame tileid="175" duration="150"/>
    <frame tileid="178" duration="150"/>
   </animation>
  </tile>
  <tile id="146">
   <animation>
    <frame tileid="146" duration="150"/>
    <frame tileid="149" duration="150"/>
    <frame tileid="152" duration="150"/>
    <frame tileid="155" duration="150"/>
    <frame tileid="158" duration="150"/>
    <frame tileid="161" duration="150"/>
    <frame tileid="164" duration="150"/>
    <frame tileid="167" duration="150"/>
    <frame tileid="170" duration="150"/>
    <frame tileid="173" duration="150"/>
    <frame tileid="176" duration="150"/>
    <frame tileid="179" duration="150"/>
   </animation>
  </tile>
  <tile id="180">
   <animation>
    <frame tileid="180" duration="150"/>
    <frame tileid="183" duration="150"/>
    <frame tileid="186" duration="150"/>
    <frame tileid="189" duration="150"/>
    <frame tileid="192" duration="150"/>
    <frame tileid="195" duration="150"/>
    <frame tileid="198" duration="150"/>
    <frame tileid="201" duration="150"/>
    <frame tileid="204" duration="150"/>
    <frame tileid="207" duration="150"/>
    <frame tileid="210" duration="150"/>
    <frame tileid="213" duration="150"/>
   </animation>
  </tile>
  <tile id="181">
   <animation>
    <frame tileid="181" duration="150"/>
    <frame tileid="184" duration="150"/>
    <frame tileid="187" duration="150"/>
    <frame tileid="190" duration="150"/>
    <frame tileid="193" duration="150"/>
    <frame tileid="196" duration="150"/>
    <frame tileid="199" duration="150"/>
    <frame tileid="202" duration="150"/>
    <frame tileid="205" duration="150"/>
    <frame tileid="208" duration="150"/>
    <frame tileid="211" duration="150"/>
    <frame tileid="214" duration="150"/>
   </animation>
  </tile>
  <tile id="182">
   <animation>
    <frame tileid="182" duration="150"/>
    <frame tileid="185" duration="150"/>
    <frame tileid="188" duration="150"/>
    <frame tileid="191" duration="150"/>
    <frame tileid="194" duration="150"/>
    <frame tileid="197" duration="150"/>
    <frame tileid="200" duration="150"/>
    <frame tileid="203" duration="150"/>
    <frame tileid="206" duration="150"/>
    <frame tileid="209" duration="150"/>
    <frame tileid="212" duration="150"/>
    <frame tileid="215" duration="150"/>
   </animation>
  </tile>
 </tileset>
 <tileset firstgid="1513" name="Fish1" tilewidth="16" tileheight="16" tilecount="36" columns="18">
  <image source="Fish2_animation.png" width="288" height="32"/>
  <tile id="0">
   <animation>
    <frame tileid="0" duration="150"/>
    <frame tileid="2" duration="150"/>
    <frame tileid="4" duration="150"/>
    <frame tileid="6" duration="150"/>
    <frame tileid="8" duration="150"/>
    <frame tileid="10" duration="150"/>
    <frame tileid="12" duration="150"/>
    <frame tileid="14" duration="150"/>
    <frame tileid="16" duration="150"/>
    <frame tileid="0" duration="150"/>
    <frame tileid="0" duration="150"/>
    <frame tileid="0" duration="150"/>
   </animation>
  </tile>
  <tile id="1">
   <animation>
    <frame tileid="1" duration="150"/>
    <frame tileid="3" duration="150"/>
    <frame tileid="5" duration="150"/>
    <frame tileid="7" duration="150"/>
    <frame tileid="9" duration="150"/>
    <frame tileid="11" duration="150"/>
    <frame tileid="13" duration="150"/>
    <frame tileid="15" duration="150"/>
    <frame tileid="17" duration="150"/>
    <frame tileid="0" duration="150"/>
    <frame tileid="0" duration="150"/>
    <frame tileid="0" duration="150"/>
   </animation>
  </tile>
  <tile id="18">
   <animation>
    <frame tileid="18" duration="150"/>
    <frame tileid="20" duration="150"/>
    <frame tileid="22" duration="150"/>
    <frame tileid="24" duration="150"/>
    <frame tileid="26" duration="150"/>
    <frame tileid="28" duration="150"/>
    <frame tileid="30" duration="150"/>
    <frame tileid="32" duration="150"/>
    <frame tileid="34" duration="150"/>
    <frame tileid="18" duration="150"/>
    <frame tileid="18" duration="150"/>
    <frame tileid="18" duration="150"/>
   </animation>
  </tile>
  <tile id="19">
   <animation>
    <frame tileid="19" duration="150"/>
    <frame tileid="21" duration="150"/>
    <frame tileid="23" duration="150"/>
    <frame tileid="25" duration="150"/>
    <frame tileid="27" duration="150"/>
    <frame tileid="29" duration="150"/>
    <frame tileid="31" duration="150"/>
    <frame tileid="33" duration="150"/>
    <frame tileid="35" duration="150"/>
    <frame tileid="18" duration="150"/>
    <frame tileid="18" duration="150"/>
    <frame tileid="18" duration="150"/>
   </animation>
  </tile>
 </tileset>
 <tileset firstgid="1549" name="Fish3" tilewidth="16" tileheight="16" tilecount="54" columns="27">
  <image source="Fish4_animation.png" width="432" height="32"/>
  <tile id="0">
   <animation>
    <frame tileid="0" duration="150"/>
    <frame tileid="3" duration="150"/>
    <frame tileid="6" duration="150"/>
    <frame tileid="9" duration="150"/>
    <frame tileid="12" duration="150"/>
    <frame tileid="15" duration="150"/>
    <frame tileid="18" duration="150"/>
    <frame tileid="21" duration="150"/>
    <frame tileid="24" duration="150"/>
    <frame tileid="0" duration="150"/>
    <frame tileid="0" duration="150"/>
    <frame tileid="0" duration="150"/>
   </animation>
  </tile>
  <tile id="1">
   <animation>
    <frame tileid="1" duration="150"/>
    <frame tileid="4" duration="150"/>
    <frame tileid="7" duration="150"/>
    <frame tileid="10" duration="150"/>
    <frame tileid="13" duration="150"/>
    <frame tileid="16" duration="150"/>
    <frame tileid="19" duration="150"/>
    <frame tileid="22" duration="150"/>
    <frame tileid="25" duration="150"/>
    <frame tileid="0" duration="150"/>
    <frame tileid="0" duration="150"/>
    <frame tileid="0" duration="150"/>
   </animation>
  </tile>
  <tile id="2">
   <animation>
    <frame tileid="2" duration="150"/>
    <frame tileid="5" duration="150"/>
    <frame tileid="8" duration="150"/>
    <frame tileid="11" duration="150"/>
    <frame tileid="14" duration="150"/>
    <frame tileid="17" duration="150"/>
    <frame tileid="20" duration="150"/>
    <frame tileid="23" duration="150"/>
    <frame tileid="26" duration="150"/>
    <frame tileid="0" duration="150"/>
    <frame tileid="0" duration="150"/>
    <frame tileid="0" duration="150"/>
   </animation>
  </tile>
  <tile id="27">
   <animation>
    <frame tileid="27" duration="150"/>
    <frame tileid="30" duration="150"/>
    <frame tileid="33" duration="150"/>
    <frame tileid="36" duration="150"/>
    <frame tileid="39" duration="150"/>
    <frame tileid="42" duration="150"/>
    <frame tileid="45" duration="150"/>
    <frame tileid="48" duration="150"/>
    <frame tileid="51" duration="150"/>
    <frame tileid="27" duration="150"/>
    <frame tileid="27" duration="150"/>
    <frame tileid="27" duration="150"/>
   </animation>
  </tile>
  <tile id="28">
   <animation>
    <frame tileid="28" duration="150"/>
    <frame tileid="31" duration="150"/>
    <frame tileid="34" duration="150"/>
    <frame tileid="37" duration="150"/>
    <frame tileid="40" duration="150"/>
    <frame tileid="43" duration="150"/>
    <frame tileid="46" duration="150"/>
    <frame tileid="49" duration="150"/>
    <frame tileid="52" duration="150"/>
    <frame tileid="27" duration="150"/>
    <frame tileid="27" duration="150"/>
    <frame tileid="27" duration="150"/>
   </animation>
  </tile>
  <tile id="29">
   <animation>
    <frame tileid="29" duration="150"/>
    <frame tileid="32" duration="150"/>
    <frame tileid="35" duration="150"/>
    <frame tileid="38" duration="150"/>
    <frame tileid="41" duration="150"/>
    <frame tileid="44" duration="150"/>
    <frame tileid="47" duration="150"/>
    <frame tileid="50" duration="150"/>
    <frame tileid="53" duration="150"/>
    <frame tileid="27" duration="150"/>
    <frame tileid="27" duration="150"/>
    <frame tileid="27" duration="150"/>
   </animation>
  </tile>
 </tileset>
 <tileset firstgid="1603" name="Fish1" tilewidth="16" tileheight="16" tilecount="36" columns="18">
  <image source="Fish1_animation.png" width="288" height="32"/>
  <tile id="0">
   <animation>
    <frame tileid="0" duration="150"/>
    <frame tileid="2" duration="150"/>
    <frame tileid="4" duration="150"/>
    <frame tileid="6" duration="150"/>
    <frame tileid="8" duration="150"/>
    <frame tileid="10" duration="150"/>
    <frame tileid="12" duration="150"/>
    <frame tileid="14" duration="150"/>
    <frame tileid="16" duration="150"/>
    <frame tileid="0" duration="150"/>
    <frame tileid="0" duration="150"/>
    <frame tileid="0" duration="150"/>
   </animation>
  </tile>
  <tile id="1">
   <animation>
    <frame tileid="1" duration="150"/>
    <frame tileid="3" duration="150"/>
    <frame tileid="5" duration="150"/>
    <frame tileid="7" duration="150"/>
    <frame tileid="9" duration="150"/>
    <frame tileid="11" duration="150"/>
    <frame tileid="13" duration="150"/>
    <frame tileid="15" duration="150"/>
    <frame tileid="17" duration="150"/>
    <frame tileid="0" duration="150"/>
    <frame tileid="0" duration="150"/>
    <frame tileid="0" duration="150"/>
   </animation>
  </tile>
  <tile id="18">
   <animation>
    <frame tileid="18" duration="150"/>
    <frame tileid="20" duration="150"/>
    <frame tileid="22" duration="150"/>
    <frame tileid="24" duration="150"/>
    <frame tileid="26" duration="150"/>
    <frame tileid="28" duration="150"/>
    <frame tileid="30" duration="150"/>
    <frame tileid="32" duration="150"/>
    <frame tileid="34" duration="150"/>
    <frame tileid="18" duration="150"/>
    <frame tileid="18" duration="150"/>
    <frame tileid="18" duration="150"/>
   </animation>
  </tile>
  <tile id="19">
   <animation>
    <frame tileid="19" duration="150"/>
    <frame tileid="21" duration="150"/>
    <frame tileid="23" duration="150"/>
    <frame tileid="25" duration="150"/>
    <frame tileid="27" duration="150"/>
    <frame tileid="29" duration="150"/>
    <frame tileid="31" duration="150"/>
    <frame tileid="33" duration="150"/>
    <frame tileid="35" duration="150"/>
    <frame tileid="18" duration="150"/>
    <frame tileid="18" duration="150"/>
    <frame tileid="18" duration="150"/>
   </animation>
  </tile>
 </tileset>
 <tileset firstgid="1639" name="Fish3" tilewidth="16" tileheight="16" tilecount="54" columns="27">
  <image source="Fish3_animation.png" width="432" height="32"/>
  <tile id="0">
   <animation>
    <frame tileid="0" duration="150"/>
    <frame tileid="3" duration="150"/>
    <frame tileid="6" duration="150"/>
    <frame tileid="9" duration="150"/>
    <frame tileid="12" duration="150"/>
    <frame tileid="15" duration="150"/>
    <frame tileid="18" duration="150"/>
    <frame tileid="21" duration="150"/>
    <frame tileid="24" duration="150"/>
    <frame tileid="0" duration="150"/>
    <frame tileid="0" duration="150"/>
    <frame tileid="0" duration="150"/>
   </animation>
  </tile>
  <tile id="1">
   <animation>
    <frame tileid="1" duration="150"/>
    <frame tileid="4" duration="150"/>
    <frame tileid="7" duration="150"/>
    <frame tileid="10" duration="150"/>
    <frame tileid="13" duration="150"/>
    <frame tileid="16" duration="150"/>
    <frame tileid="19" duration="150"/>
    <frame tileid="22" duration="150"/>
    <frame tileid="25" duration="150"/>
    <frame tileid="0" duration="150"/>
    <frame tileid="0" duration="150"/>
    <frame tileid="0" duration="150"/>
   </animation>
  </tile>
  <tile id="2">
   <animation>
    <frame tileid="2" duration="150"/>
    <frame tileid="5" duration="150"/>
    <frame tileid="8" duration="150"/>
    <frame tileid="11" duration="150"/>
    <frame tileid="14" duration="150"/>
    <frame tileid="17" duration="150"/>
    <frame tileid="20" duration="150"/>
    <frame tileid="23" duration="150"/>
    <frame tileid="26" duration="150"/>
    <frame tileid="0" duration="150"/>
    <frame tileid="0" duration="150"/>
    <frame tileid="0" duration="150"/>
   </animation>
  </tile>
  <tile id="27">
   <animation>
    <frame tileid="27" duration="150"/>
    <frame tileid="30" duration="150"/>
    <frame tileid="33" duration="150"/>
    <frame tileid="36" duration="150"/>
    <frame tileid="39" duration="150"/>
    <frame tileid="42" duration="150"/>
    <frame tileid="45" duration="150"/>
    <frame tileid="48" duration="150"/>
    <frame tileid="51" duration="150"/>
    <frame tileid="27" duration="150"/>
    <frame tileid="27" duration="150"/>
    <frame tileid="27" duration="150"/>
   </animation>
  </tile>
  <tile id="28">
   <animation>
    <frame tileid="28" duration="150"/>
    <frame tileid="31" duration="150"/>
    <frame tileid="34" duration="150"/>
    <frame tileid="37" duration="150"/>
    <frame tileid="40" duration="150"/>
    <frame tileid="43" duration="150"/>
    <frame tileid="46" duration="150"/>
    <frame tileid="49" duration="150"/>
    <frame tileid="52" duration="150"/>
    <frame tileid="27" duration="150"/>
    <frame tileid="27" duration="150"/>
    <frame tileid="27" duration="150"/>
   </animation>
  </tile>
  <tile id="29">
   <animation>
    <frame tileid="29" duration="150"/>
    <frame tileid="32" duration="150"/>
    <frame tileid="35" duration="150"/>
    <frame tileid="38" duration="150"/>
    <frame tileid="41" duration="150"/>
    <frame tileid="44" duration="150"/>
    <frame tileid="47" duration="150"/>
    <frame tileid="50" duration="150"/>
    <frame tileid="53" duration="150"/>
    <frame tileid="27" duration="150"/>
    <frame tileid="27" duration="150"/>
    <frame tileid="27" duration="150"/>
   </animation>
  </tile>
 </tileset>
 <tileset firstgid="1693" name="Small_boat_v1_1" tilewidth="16" tileheight="16" tilecount="216" columns="36">
  <image source="Small_boat_v1_8.png" width="576" height="96"/>
  <tile id="1">
   <animation>
    <frame tileid="1" duration="150"/>
    <frame tileid="4" duration="150"/>
    <frame tileid="7" duration="150"/>
    <frame tileid="10" duration="150"/>
    <frame tileid="13" duration="150"/>
    <frame tileid="16" duration="150"/>
    <frame tileid="19" duration="150"/>
    <frame tileid="22" duration="150"/>
    <frame tileid="25" duration="150"/>
    <frame tileid="28" duration="150"/>
    <frame tileid="31" duration="150"/>
    <frame tileid="34" duration="150"/>
   </animation>
  </tile>
  <tile id="36">
   <animation>
    <frame tileid="36" duration="150"/>
    <frame tileid="39" duration="150"/>
    <frame tileid="42" duration="150"/>
    <frame tileid="45" duration="150"/>
    <frame tileid="48" duration="150"/>
    <frame tileid="51" duration="150"/>
    <frame tileid="54" duration="150"/>
    <frame tileid="57" duration="150"/>
    <frame tileid="60" duration="150"/>
    <frame tileid="63" duration="150"/>
    <frame tileid="66" duration="150"/>
    <frame tileid="69" duration="150"/>
   </animation>
  </tile>
  <tile id="37">
   <animation>
    <frame tileid="37" duration="150"/>
    <frame tileid="40" duration="150"/>
    <frame tileid="43" duration="150"/>
    <frame tileid="46" duration="150"/>
    <frame tileid="49" duration="150"/>
    <frame tileid="52" duration="150"/>
    <frame tileid="55" duration="150"/>
    <frame tileid="58" duration="150"/>
    <frame tileid="61" duration="150"/>
    <frame tileid="64" duration="150"/>
    <frame tileid="67" duration="150"/>
    <frame tileid="70" duration="150"/>
   </animation>
  </tile>
  <tile id="38">
   <animation>
    <frame tileid="38" duration="150"/>
    <frame tileid="41" duration="150"/>
    <frame tileid="44" duration="150"/>
    <frame tileid="47" duration="150"/>
    <frame tileid="50" duration="150"/>
    <frame tileid="53" duration="150"/>
    <frame tileid="56" duration="150"/>
    <frame tileid="59" duration="150"/>
    <frame tileid="62" duration="150"/>
    <frame tileid="65" duration="150"/>
    <frame tileid="68" duration="150"/>
    <frame tileid="71" duration="150"/>
   </animation>
  </tile>
  <tile id="72">
   <animation>
    <frame tileid="72" duration="150"/>
    <frame tileid="75" duration="150"/>
    <frame tileid="78" duration="150"/>
    <frame tileid="81" duration="150"/>
    <frame tileid="84" duration="150"/>
    <frame tileid="87" duration="150"/>
    <frame tileid="90" duration="150"/>
    <frame tileid="93" duration="150"/>
    <frame tileid="96" duration="150"/>
    <frame tileid="99" duration="150"/>
    <frame tileid="102" duration="150"/>
    <frame tileid="105" duration="150"/>
   </animation>
  </tile>
  <tile id="73">
   <animation>
    <frame tileid="73" duration="150"/>
    <frame tileid="76" duration="150"/>
    <frame tileid="79" duration="150"/>
    <frame tileid="82" duration="150"/>
    <frame tileid="85" duration="150"/>
    <frame tileid="88" duration="150"/>
    <frame tileid="91" duration="150"/>
    <frame tileid="94" duration="150"/>
    <frame tileid="97" duration="150"/>
    <frame tileid="100" duration="150"/>
    <frame tileid="103" duration="150"/>
    <frame tileid="106" duration="150"/>
   </animation>
  </tile>
  <tile id="74">
   <animation>
    <frame tileid="74" duration="150"/>
    <frame tileid="77" duration="150"/>
    <frame tileid="80" duration="150"/>
    <frame tileid="83" duration="150"/>
    <frame tileid="86" duration="150"/>
    <frame tileid="89" duration="150"/>
    <frame tileid="92" duration="150"/>
    <frame tileid="95" duration="150"/>
    <frame tileid="98" duration="150"/>
    <frame tileid="101" duration="150"/>
    <frame tileid="104" duration="150"/>
    <frame tileid="107" duration="150"/>
   </animation>
  </tile>
  <tile id="108">
   <animation>
    <frame tileid="108" duration="150"/>
    <frame tileid="111" duration="150"/>
    <frame tileid="114" duration="150"/>
    <frame tileid="117" duration="150"/>
    <frame tileid="120" duration="150"/>
    <frame tileid="123" duration="150"/>
    <frame tileid="126" duration="150"/>
    <frame tileid="129" duration="150"/>
    <frame tileid="132" duration="150"/>
    <frame tileid="135" duration="150"/>
    <frame tileid="138" duration="150"/>
    <frame tileid="141" duration="150"/>
   </animation>
  </tile>
  <tile id="109">
   <animation>
    <frame tileid="109" duration="150"/>
    <frame tileid="112" duration="150"/>
    <frame tileid="115" duration="150"/>
    <frame tileid="118" duration="150"/>
    <frame tileid="121" duration="150"/>
    <frame tileid="124" duration="150"/>
    <frame tileid="127" duration="150"/>
    <frame tileid="130" duration="150"/>
    <frame tileid="133" duration="150"/>
    <frame tileid="136" duration="150"/>
    <frame tileid="139" duration="150"/>
    <frame tileid="142" duration="150"/>
   </animation>
  </tile>
  <tile id="110">
   <animation>
    <frame tileid="110" duration="150"/>
    <frame tileid="113" duration="150"/>
    <frame tileid="116" duration="150"/>
    <frame tileid="119" duration="150"/>
    <frame tileid="122" duration="150"/>
    <frame tileid="125" duration="150"/>
    <frame tileid="128" duration="150"/>
    <frame tileid="131" duration="150"/>
    <frame tileid="134" duration="150"/>
    <frame tileid="137" duration="150"/>
    <frame tileid="140" duration="150"/>
    <frame tileid="143" duration="150"/>
   </animation>
  </tile>
  <tile id="144">
   <animation>
    <frame tileid="144" duration="150"/>
    <frame tileid="147" duration="150"/>
    <frame tileid="150" duration="150"/>
    <frame tileid="153" duration="150"/>
    <frame tileid="156" duration="150"/>
    <frame tileid="159" duration="150"/>
    <frame tileid="162" duration="150"/>
    <frame tileid="165" duration="150"/>
    <frame tileid="168" duration="150"/>
    <frame tileid="171" duration="150"/>
    <frame tileid="174" duration="150"/>
    <frame tileid="177" duration="150"/>
   </animation>
  </tile>
  <tile id="145">
   <animation>
    <frame tileid="145" duration="150"/>
    <frame tileid="148" duration="150"/>
    <frame tileid="151" duration="150"/>
    <frame tileid="154" duration="150"/>
    <frame tileid="157" duration="150"/>
    <frame tileid="160" duration="150"/>
    <frame tileid="163" duration="150"/>
    <frame tileid="166" duration="150"/>
    <frame tileid="169" duration="150"/>
    <frame tileid="172" duration="150"/>
    <frame tileid="175" duration="150"/>
    <frame tileid="178" duration="150"/>
   </animation>
  </tile>
  <tile id="146">
   <animation>
    <frame tileid="146" duration="150"/>
    <frame tileid="149" duration="150"/>
    <frame tileid="152" duration="150"/>
    <frame tileid="155" duration="150"/>
    <frame tileid="158" duration="150"/>
    <frame tileid="161" duration="150"/>
    <frame tileid="164" duration="150"/>
    <frame tileid="167" duration="150"/>
    <frame tileid="170" duration="150"/>
    <frame tileid="173" duration="150"/>
    <frame tileid="176" duration="150"/>
    <frame tileid="179" duration="150"/>
   </animation>
  </tile>
  <tile id="180">
   <animation>
    <frame tileid="180" duration="150"/>
    <frame tileid="183" duration="150"/>
    <frame tileid="186" duration="150"/>
    <frame tileid="189" duration="150"/>
    <frame tileid="192" duration="150"/>
    <frame tileid="195" duration="150"/>
    <frame tileid="198" duration="150"/>
    <frame tileid="201" duration="150"/>
    <frame tileid="204" duration="150"/>
    <frame tileid="207" duration="150"/>
    <frame tileid="210" duration="150"/>
    <frame tileid="213" duration="150"/>
   </animation>
  </tile>
  <tile id="181">
   <animation>
    <frame tileid="181" duration="150"/>
    <frame tileid="184" duration="150"/>
    <frame tileid="187" duration="150"/>
    <frame tileid="190" duration="150"/>
    <frame tileid="193" duration="150"/>
    <frame tileid="196" duration="150"/>
    <frame tileid="199" duration="150"/>
    <frame tileid="202" duration="150"/>
    <frame tileid="205" duration="150"/>
    <frame tileid="208" duration="150"/>
    <frame tileid="211" duration="150"/>
    <frame tileid="214" duration="150"/>
   </animation>
  </tile>
  <tile id="182">
   <animation>
    <frame tileid="182" duration="150"/>
    <frame tileid="185" duration="150"/>
    <frame tileid="188" duration="150"/>
    <frame tileid="191" duration="150"/>
    <frame tileid="194" duration="150"/>
    <frame tileid="197" duration="150"/>
    <frame tileid="200" duration="150"/>
    <frame tileid="203" duration="150"/>
    <frame tileid="206" duration="150"/>
    <frame tileid="209" duration="150"/>
    <frame tileid="212" duration="150"/>
    <frame tileid="215" duration="150"/>
   </animation>
  </tile>
 </tileset>
 <tileset firstgid="1909" name="Small_boat_v2_1-Sheet" tilewidth="16" tileheight="16" tilecount="252" columns="36">
  <image source="Small_boat_v2_1-Sheet.png" width="576" height="112"/>
  <tile id="36">
   <animation>
    <frame tileid="36" duration="150"/>
    <frame tileid="39" duration="150"/>
    <frame tileid="42" duration="150"/>
    <frame tileid="45" duration="150"/>
    <frame tileid="48" duration="150"/>
    <frame tileid="51" duration="150"/>
    <frame tileid="54" duration="150"/>
    <frame tileid="57" duration="150"/>
    <frame tileid="60" duration="150"/>
    <frame tileid="63" duration="150"/>
    <frame tileid="66" duration="150"/>
    <frame tileid="69" duration="150"/>
   </animation>
  </tile>
  <tile id="37">
   <animation>
    <frame tileid="37" duration="150"/>
    <frame tileid="40" duration="150"/>
    <frame tileid="43" duration="150"/>
    <frame tileid="46" duration="150"/>
    <frame tileid="49" duration="150"/>
    <frame tileid="52" duration="150"/>
    <frame tileid="55" duration="150"/>
    <frame tileid="58" duration="150"/>
    <frame tileid="61" duration="150"/>
    <frame tileid="64" duration="150"/>
    <frame tileid="67" duration="150"/>
    <frame tileid="70" duration="150"/>
   </animation>
  </tile>
  <tile id="38">
   <animation>
    <frame tileid="38" duration="150"/>
    <frame tileid="41" duration="150"/>
    <frame tileid="44" duration="150"/>
    <frame tileid="47" duration="150"/>
    <frame tileid="50" duration="150"/>
    <frame tileid="53" duration="150"/>
    <frame tileid="56" duration="150"/>
    <frame tileid="59" duration="150"/>
    <frame tileid="62" duration="150"/>
    <frame tileid="65" duration="150"/>
    <frame tileid="68" duration="150"/>
    <frame tileid="71" duration="150"/>
   </animation>
  </tile>
  <tile id="72">
   <animation>
    <frame tileid="72" duration="150"/>
    <frame tileid="75" duration="150"/>
    <frame tileid="78" duration="150"/>
    <frame tileid="81" duration="150"/>
    <frame tileid="84" duration="150"/>
    <frame tileid="87" duration="150"/>
    <frame tileid="90" duration="150"/>
    <frame tileid="93" duration="150"/>
    <frame tileid="96" duration="150"/>
    <frame tileid="99" duration="150"/>
    <frame tileid="102" duration="150"/>
    <frame tileid="105" duration="150"/>
   </animation>
  </tile>
  <tile id="73">
   <animation>
    <frame tileid="73" duration="150"/>
    <frame tileid="76" duration="150"/>
    <frame tileid="79" duration="150"/>
    <frame tileid="82" duration="150"/>
    <frame tileid="85" duration="150"/>
    <frame tileid="88" duration="150"/>
    <frame tileid="91" duration="150"/>
    <frame tileid="94" duration="150"/>
    <frame tileid="97" duration="150"/>
    <frame tileid="100" duration="150"/>
    <frame tileid="103" duration="150"/>
    <frame tileid="106" duration="150"/>
   </animation>
  </tile>
  <tile id="74">
   <animation>
    <frame tileid="74" duration="150"/>
    <frame tileid="77" duration="150"/>
    <frame tileid="80" duration="150"/>
    <frame tileid="83" duration="150"/>
    <frame tileid="86" duration="150"/>
    <frame tileid="89" duration="150"/>
    <frame tileid="92" duration="150"/>
    <frame tileid="95" duration="150"/>
    <frame tileid="98" duration="150"/>
    <frame tileid="101" duration="150"/>
    <frame tileid="104" duration="150"/>
    <frame tileid="107" duration="150"/>
   </animation>
  </tile>
  <tile id="108">
   <animation>
    <frame tileid="108" duration="150"/>
    <frame tileid="111" duration="150"/>
    <frame tileid="114" duration="150"/>
    <frame tileid="117" duration="150"/>
    <frame tileid="120" duration="150"/>
    <frame tileid="123" duration="150"/>
    <frame tileid="126" duration="150"/>
    <frame tileid="129" duration="150"/>
    <frame tileid="132" duration="150"/>
    <frame tileid="135" duration="150"/>
    <frame tileid="138" duration="150"/>
    <frame tileid="141" duration="150"/>
   </animation>
  </tile>
  <tile id="109">
   <animation>
    <frame tileid="109" duration="150"/>
    <frame tileid="112" duration="150"/>
    <frame tileid="115" duration="150"/>
    <frame tileid="118" duration="150"/>
    <frame tileid="121" duration="150"/>
    <frame tileid="124" duration="150"/>
    <frame tileid="127" duration="150"/>
    <frame tileid="130" duration="150"/>
    <frame tileid="133" duration="150"/>
    <frame tileid="136" duration="150"/>
    <frame tileid="139" duration="150"/>
    <frame tileid="142" duration="150"/>
   </animation>
  </tile>
  <tile id="110">
   <animation>
    <frame tileid="110" duration="150"/>
    <frame tileid="113" duration="150"/>
    <frame tileid="116" duration="150"/>
    <frame tileid="119" duration="150"/>
    <frame tileid="122" duration="150"/>
    <frame tileid="125" duration="150"/>
    <frame tileid="128" duration="150"/>
    <frame tileid="131" duration="150"/>
    <frame tileid="134" duration="150"/>
    <frame tileid="137" duration="150"/>
    <frame tileid="140" duration="150"/>
    <frame tileid="143" duration="150"/>
   </animation>
  </tile>
  <tile id="144">
   <animation>
    <frame tileid="144" duration="150"/>
    <frame tileid="147" duration="150"/>
    <frame tileid="150" duration="150"/>
    <frame tileid="153" duration="150"/>
    <frame tileid="156" duration="150"/>
    <frame tileid="159" duration="150"/>
    <frame tileid="162" duration="150"/>
    <frame tileid="165" duration="150"/>
    <frame tileid="168" duration="150"/>
    <frame tileid="171" duration="150"/>
    <frame tileid="174" duration="150"/>
    <frame tileid="177" duration="150"/>
   </animation>
  </tile>
  <tile id="145">
   <animation>
    <frame tileid="145" duration="150"/>
    <frame tileid="148" duration="150"/>
    <frame tileid="151" duration="150"/>
    <frame tileid="154" duration="150"/>
    <frame tileid="157" duration="150"/>
    <frame tileid="160" duration="150"/>
    <frame tileid="163" duration="150"/>
    <frame tileid="166" duration="150"/>
    <frame tileid="169" duration="150"/>
    <frame tileid="172" duration="150"/>
    <frame tileid="175" duration="150"/>
    <frame tileid="178" duration="150"/>
   </animation>
  </tile>
  <tile id="146">
   <animation>
    <frame tileid="146" duration="150"/>
    <frame tileid="149" duration="150"/>
    <frame tileid="152" duration="150"/>
    <frame tileid="155" duration="150"/>
    <frame tileid="158" duration="150"/>
    <frame tileid="161" duration="150"/>
    <frame tileid="164" duration="150"/>
    <frame tileid="167" duration="150"/>
    <frame tileid="170" duration="150"/>
    <frame tileid="173" duration="150"/>
    <frame tileid="176" duration="150"/>
    <frame tileid="179" duration="150"/>
   </animation>
  </tile>
  <tile id="180">
   <animation>
    <frame tileid="180" duration="150"/>
    <frame tileid="183" duration="150"/>
    <frame tileid="186" duration="150"/>
    <frame tileid="189" duration="150"/>
    <frame tileid="192" duration="150"/>
    <frame tileid="195" duration="150"/>
    <frame tileid="198" duration="150"/>
    <frame tileid="201" duration="150"/>
    <frame tileid="204" duration="150"/>
    <frame tileid="207" duration="150"/>
    <frame tileid="210" duration="150"/>
    <frame tileid="213" duration="150"/>
   </animation>
  </tile>
  <tile id="181">
   <animation>
    <frame tileid="181" duration="150"/>
    <frame tileid="184" duration="150"/>
    <frame tileid="187" duration="150"/>
    <frame tileid="190" duration="150"/>
    <frame tileid="193" duration="150"/>
    <frame tileid="196" duration="150"/>
    <frame tileid="199" duration="150"/>
    <frame tileid="202" duration="150"/>
    <frame tileid="205" duration="150"/>
    <frame tileid="208" duration="150"/>
    <frame tileid="211" duration="150"/>
    <frame tileid="214" duration="150"/>
   </animation>
  </tile>
  <tile id="182">
   <animation>
    <frame tileid="182" duration="150"/>
    <frame tileid="185" duration="150"/>
    <frame tileid="188" duration="150"/>
    <frame tileid="191" duration="150"/>
    <frame tileid="194" duration="150"/>
    <frame tileid="197" duration="150"/>
    <frame tileid="200" duration="150"/>
    <frame tileid="203" duration="150"/>
    <frame tileid="206" duration="150"/>
    <frame tileid="209" duration="150"/>
    <frame tileid="212" duration="150"/>
    <frame tileid="215" duration="150"/>
   </animation>
  </tile>
  <tile id="216">
   <animation>
    <frame tileid="216" duration="150"/>
    <frame tileid="219" duration="150"/>
    <frame tileid="222" duration="150"/>
    <frame tileid="225" duration="150"/>
    <frame tileid="228" duration="150"/>
    <frame tileid="231" duration="150"/>
    <frame tileid="234" duration="150"/>
    <frame tileid="237" duration="150"/>
    <frame tileid="240" duration="150"/>
    <frame tileid="243" duration="150"/>
    <frame tileid="246" duration="150"/>
    <frame tileid="249" duration="150"/>
   </animation>
  </tile>
  <tile id="217">
   <animation>
    <frame tileid="217" duration="150"/>
    <frame tileid="220" duration="150"/>
    <frame tileid="223" duration="150"/>
    <frame tileid="226" duration="150"/>
    <frame tileid="229" duration="150"/>
    <frame tileid="232" duration="150"/>
    <frame tileid="235" duration="150"/>
    <frame tileid="238" duration="150"/>
    <frame tileid="241" duration="150"/>
    <frame tileid="244" duration="150"/>
    <frame tileid="247" duration="150"/>
    <frame tileid="250" duration="150"/>
   </animation>
  </tile>
  <tile id="218">
   <animation>
    <frame tileid="218" duration="150"/>
    <frame tileid="221" duration="150"/>
    <frame tileid="224" duration="150"/>
    <frame tileid="227" duration="150"/>
    <frame tileid="230" duration="150"/>
    <frame tileid="233" duration="150"/>
    <frame tileid="236" duration="150"/>
    <frame tileid="239" duration="150"/>
    <frame tileid="242" duration="150"/>
    <frame tileid="245" duration="150"/>
    <frame tileid="248" duration="150"/>
    <frame tileid="251" duration="150"/>
   </animation>
  </tile>
 </tileset>
 <tileset firstgid="2161" name="Small_boat_v2_1-Sheet" tilewidth="16" tileheight="16" tilecount="252" columns="36">
  <image source="Small_boat_v2_2.png" width="576" height="112"/>
  <tile id="36">
   <animation>
    <frame tileid="36" duration="150"/>
    <frame tileid="39" duration="150"/>
    <frame tileid="42" duration="150"/>
    <frame tileid="45" duration="150"/>
    <frame tileid="48" duration="150"/>
    <frame tileid="51" duration="150"/>
    <frame tileid="54" duration="150"/>
    <frame tileid="57" duration="150"/>
    <frame tileid="60" duration="150"/>
    <frame tileid="63" duration="150"/>
    <frame tileid="66" duration="150"/>
    <frame tileid="69" duration="150"/>
   </animation>
  </tile>
  <tile id="37">
   <animation>
    <frame tileid="37" duration="150"/>
    <frame tileid="40" duration="150"/>
    <frame tileid="43" duration="150"/>
    <frame tileid="46" duration="150"/>
    <frame tileid="49" duration="150"/>
    <frame tileid="52" duration="150"/>
    <frame tileid="55" duration="150"/>
    <frame tileid="58" duration="150"/>
    <frame tileid="61" duration="150"/>
    <frame tileid="64" duration="150"/>
    <frame tileid="67" duration="150"/>
    <frame tileid="70" duration="150"/>
   </animation>
  </tile>
  <tile id="38">
   <animation>
    <frame tileid="38" duration="150"/>
    <frame tileid="41" duration="150"/>
    <frame tileid="44" duration="150"/>
    <frame tileid="47" duration="150"/>
    <frame tileid="50" duration="150"/>
    <frame tileid="53" duration="150"/>
    <frame tileid="56" duration="150"/>
    <frame tileid="59" duration="150"/>
    <frame tileid="62" duration="150"/>
    <frame tileid="65" duration="150"/>
    <frame tileid="68" duration="150"/>
    <frame tileid="71" duration="150"/>
   </animation>
  </tile>
  <tile id="72">
   <animation>
    <frame tileid="72" duration="150"/>
    <frame tileid="75" duration="150"/>
    <frame tileid="78" duration="150"/>
    <frame tileid="81" duration="150"/>
    <frame tileid="84" duration="150"/>
    <frame tileid="87" duration="150"/>
    <frame tileid="90" duration="150"/>
    <frame tileid="93" duration="150"/>
    <frame tileid="96" duration="150"/>
    <frame tileid="99" duration="150"/>
    <frame tileid="102" duration="150"/>
    <frame tileid="105" duration="150"/>
   </animation>
  </tile>
  <tile id="73">
   <animation>
    <frame tileid="73" duration="150"/>
    <frame tileid="76" duration="150"/>
    <frame tileid="79" duration="150"/>
    <frame tileid="82" duration="150"/>
    <frame tileid="85" duration="150"/>
    <frame tileid="88" duration="150"/>
    <frame tileid="91" duration="150"/>
    <frame tileid="94" duration="150"/>
    <frame tileid="97" duration="150"/>
    <frame tileid="100" duration="150"/>
    <frame tileid="103" duration="150"/>
    <frame tileid="106" duration="150"/>
   </animation>
  </tile>
  <tile id="74">
   <animation>
    <frame tileid="74" duration="150"/>
    <frame tileid="77" duration="150"/>
    <frame tileid="80" duration="150"/>
    <frame tileid="83" duration="150"/>
    <frame tileid="86" duration="150"/>
    <frame tileid="89" duration="150"/>
    <frame tileid="92" duration="150"/>
    <frame tileid="95" duration="150"/>
    <frame tileid="98" duration="150"/>
    <frame tileid="101" duration="150"/>
    <frame tileid="104" duration="150"/>
    <frame tileid="107" duration="150"/>
   </animation>
  </tile>
  <tile id="108">
   <animation>
    <frame tileid="108" duration="150"/>
    <frame tileid="111" duration="150"/>
    <frame tileid="114" duration="150"/>
    <frame tileid="117" duration="150"/>
    <frame tileid="120" duration="150"/>
    <frame tileid="123" duration="150"/>
    <frame tileid="126" duration="150"/>
    <frame tileid="129" duration="150"/>
    <frame tileid="132" duration="150"/>
    <frame tileid="135" duration="150"/>
    <frame tileid="138" duration="150"/>
    <frame tileid="141" duration="150"/>
   </animation>
  </tile>
  <tile id="109">
   <animation>
    <frame tileid="109" duration="150"/>
    <frame tileid="112" duration="150"/>
    <frame tileid="115" duration="150"/>
    <frame tileid="118" duration="150"/>
    <frame tileid="121" duration="150"/>
    <frame tileid="124" duration="150"/>
    <frame tileid="127" duration="150"/>
    <frame tileid="130" duration="150"/>
    <frame tileid="133" duration="150"/>
    <frame tileid="136" duration="150"/>
    <frame tileid="139" duration="150"/>
    <frame tileid="142" duration="150"/>
   </animation>
  </tile>
  <tile id="110">
   <animation>
    <frame tileid="110" duration="150"/>
    <frame tileid="113" duration="150"/>
    <frame tileid="116" duration="150"/>
    <frame tileid="119" duration="150"/>
    <frame tileid="122" duration="150"/>
    <frame tileid="125" duration="150"/>
    <frame tileid="128" duration="150"/>
    <frame tileid="131" duration="150"/>
    <frame tileid="134" duration="150"/>
    <frame tileid="137" duration="150"/>
    <frame tileid="140" duration="150"/>
    <frame tileid="143" duration="150"/>
   </animation>
  </tile>
  <tile id="144">
   <animation>
    <frame tileid="144" duration="150"/>
    <frame tileid="147" duration="150"/>
    <frame tileid="150" duration="150"/>
    <frame tileid="153" duration="150"/>
    <frame tileid="156" duration="150"/>
    <frame tileid="159" duration="150"/>
    <frame tileid="162" duration="150"/>
    <frame tileid="165" duration="150"/>
    <frame tileid="168" duration="150"/>
    <frame tileid="171" duration="150"/>
    <frame tileid="174" duration="150"/>
    <frame tileid="177" duration="150"/>
   </animation>
  </tile>
  <tile id="145">
   <animation>
    <frame tileid="145" duration="150"/>
    <frame tileid="148" duration="150"/>
    <frame tileid="151" duration="150"/>
    <frame tileid="154" duration="150"/>
    <frame tileid="157" duration="150"/>
    <frame tileid="160" duration="150"/>
    <frame tileid="163" duration="150"/>
    <frame tileid="166" duration="150"/>
    <frame tileid="169" duration="150"/>
    <frame tileid="172" duration="150"/>
    <frame tileid="175" duration="150"/>
    <frame tileid="178" duration="150"/>
   </animation>
  </tile>
  <tile id="146">
   <animation>
    <frame tileid="146" duration="150"/>
    <frame tileid="149" duration="150"/>
    <frame tileid="152" duration="150"/>
    <frame tileid="155" duration="150"/>
    <frame tileid="158" duration="150"/>
    <frame tileid="161" duration="150"/>
    <frame tileid="164" duration="150"/>
    <frame tileid="167" duration="150"/>
    <frame tileid="170" duration="150"/>
    <frame tileid="173" duration="150"/>
    <frame tileid="176" duration="150"/>
    <frame tileid="179" duration="150"/>
   </animation>
  </tile>
  <tile id="180">
   <animation>
    <frame tileid="180" duration="150"/>
    <frame tileid="183" duration="150"/>
    <frame tileid="186" duration="150"/>
    <frame tileid="189" duration="150"/>
    <frame tileid="192" duration="150"/>
    <frame tileid="195" duration="150"/>
    <frame tileid="198" duration="150"/>
    <frame tileid="201" duration="150"/>
    <frame tileid="204" duration="150"/>
    <frame tileid="207" duration="150"/>
    <frame tileid="210" duration="150"/>
    <frame tileid="213" duration="150"/>
   </animation>
  </tile>
  <tile id="181">
   <animation>
    <frame tileid="181" duration="150"/>
    <frame tileid="184" duration="150"/>
    <frame tileid="187" duration="150"/>
    <frame tileid="190" duration="150"/>
    <frame tileid="193" duration="150"/>
    <frame tileid="196" duration="150"/>
    <frame tileid="199" duration="150"/>
    <frame tileid="202" duration="150"/>
    <frame tileid="205" duration="150"/>
    <frame tileid="208" duration="150"/>
    <frame tileid="211" duration="150"/>
    <frame tileid="214" duration="150"/>
   </animation>
  </tile>
  <tile id="182">
   <animation>
    <frame tileid="182" duration="150"/>
    <frame tileid="185" duration="150"/>
    <frame tileid="188" duration="150"/>
    <frame tileid="191" duration="150"/>
    <frame tileid="194" duration="150"/>
    <frame tileid="197" duration="150"/>
    <frame tileid="200" duration="150"/>
    <frame tileid="203" duration="150"/>
    <frame tileid="206" duration="150"/>
    <frame tileid="209" duration="150"/>
    <frame tileid="212" duration="150"/>
    <frame tileid="215" duration="150"/>
   </animation>
  </tile>
  <tile id="216">
   <animation>
    <frame tileid="216" duration="150"/>
    <frame tileid="219" duration="150"/>
    <frame tileid="222" duration="150"/>
    <frame tileid="225" duration="150"/>
    <frame tileid="228" duration="150"/>
    <frame tileid="231" duration="150"/>
    <frame tileid="234" duration="150"/>
    <frame tileid="237" duration="150"/>
    <frame tileid="240" duration="150"/>
    <frame tileid="243" duration="150"/>
    <frame tileid="246" duration="150"/>
    <frame tileid="249" duration="150"/>
   </animation>
  </tile>
  <tile id="217">
   <animation>
    <frame tileid="217" duration="150"/>
    <frame tileid="220" duration="150"/>
    <frame tileid="223" duration="150"/>
    <frame tileid="226" duration="150"/>
    <frame tileid="229" duration="150"/>
    <frame tileid="232" duration="150"/>
    <frame tileid="235" duration="150"/>
    <frame tileid="238" duration="150"/>
    <frame tileid="241" duration="150"/>
    <frame tileid="244" duration="150"/>
    <frame tileid="247" duration="150"/>
    <frame tileid="250" duration="150"/>
   </animation>
  </tile>
  <tile id="218">
   <animation>
    <frame tileid="218" duration="150"/>
    <frame tileid="221" duration="150"/>
    <frame tileid="224" duration="150"/>
    <frame tileid="227" duration="150"/>
    <frame tileid="230" duration="150"/>
    <frame tileid="233" duration="150"/>
    <frame tileid="236" duration="150"/>
    <frame tileid="239" duration="150"/>
    <frame tileid="242" duration="150"/>
    <frame tileid="245" duration="150"/>
    <frame tileid="248" duration="150"/>
    <frame tileid="251" duration="150"/>
   </animation>
  </tile>
 </tileset>
 <tileset firstgid="2413" name="Boat2" tilewidth="16" tileheight="16" tilecount="840" columns="40">
  <image source="Boat2.png" width="640" height="336"/>
  <tile id="4">
   <animation>
    <frame tileid="4" duration="150"/>
    <frame tileid="14" duration="150"/>
    <frame tileid="24" duration="150"/>
    <frame tileid="34" duration="150"/>
    <frame tileid="284" duration="150"/>
    <frame tileid="294" duration="150"/>
    <frame tileid="304" duration="150"/>
    <frame tileid="314" duration="150"/>
    <frame tileid="564" duration="150"/>
    <frame tileid="574" duration="150"/>
    <frame tileid="584" duration="150"/>
    <frame tileid="594" duration="150"/>
   </animation>
  </tile>
  <tile id="44">
   <animation>
    <frame tileid="44" duration="150"/>
    <frame tileid="54" duration="150"/>
    <frame tileid="64" duration="150"/>
    <frame tileid="74" duration="150"/>
    <frame tileid="324" duration="150"/>
    <frame tileid="334" duration="150"/>
    <frame tileid="344" duration="150"/>
    <frame tileid="354" duration="150"/>
    <frame tileid="604" duration="150"/>
    <frame tileid="614" duration="150"/>
    <frame tileid="624" duration="150"/>
    <frame tileid="634" duration="150"/>
   </animation>
  </tile>
  <tile id="45">
   <animation>
    <frame tileid="45" duration="150"/>
    <frame tileid="55" duration="150"/>
    <frame tileid="65" duration="150"/>
    <frame tileid="75" duration="150"/>
    <frame tileid="325" duration="150"/>
    <frame tileid="335" duration="150"/>
    <frame tileid="345" duration="150"/>
    <frame tileid="355" duration="150"/>
    <frame tileid="605" duration="150"/>
    <frame tileid="615" duration="150"/>
    <frame tileid="625" duration="150"/>
    <frame tileid="635" duration="150"/>
   </animation>
  </tile>
  <tile id="84">
   <animation>
    <frame tileid="84" duration="150"/>
    <frame tileid="94" duration="150"/>
    <frame tileid="104" duration="150"/>
    <frame tileid="114" duration="150"/>
    <frame tileid="364" duration="150"/>
    <frame tileid="374" duration="150"/>
    <frame tileid="384" duration="150"/>
    <frame tileid="394" duration="150"/>
    <frame tileid="644" duration="150"/>
    <frame tileid="654" duration="150"/>
    <frame tileid="664" duration="150"/>
    <frame tileid="674" duration="150"/>
   </animation>
  </tile>
  <tile id="85">
   <animation>
    <frame tileid="85" duration="150"/>
    <frame tileid="95" duration="150"/>
    <frame tileid="105" duration="150"/>
    <frame tileid="115" duration="150"/>
    <frame tileid="365" duration="150"/>
    <frame tileid="375" duration="150"/>
    <frame tileid="385" duration="150"/>
    <frame tileid="395" duration="150"/>
    <frame tileid="645" duration="150"/>
    <frame tileid="655" duration="150"/>
    <frame tileid="665" duration="150"/>
    <frame tileid="675" duration="150"/>
   </animation>
  </tile>
  <tile id="86">
   <animation>
    <frame tileid="86" duration="150"/>
    <frame tileid="96" duration="150"/>
    <frame tileid="106" duration="150"/>
    <frame tileid="116" duration="150"/>
    <frame tileid="366" duration="150"/>
    <frame tileid="376" duration="150"/>
    <frame tileid="386" duration="150"/>
    <frame tileid="396" duration="150"/>
    <frame tileid="646" duration="150"/>
    <frame tileid="656" duration="150"/>
    <frame tileid="666" duration="150"/>
    <frame tileid="676" duration="150"/>
   </animation>
  </tile>
  <tile id="123">
   <animation>
    <frame tileid="123" duration="150"/>
    <frame tileid="133" duration="150"/>
    <frame tileid="143" duration="150"/>
    <frame tileid="153" duration="150"/>
    <frame tileid="403" duration="150"/>
    <frame tileid="413" duration="150"/>
    <frame tileid="423" duration="150"/>
    <frame tileid="433" duration="150"/>
    <frame tileid="683" duration="150"/>
    <frame tileid="693" duration="150"/>
    <frame tileid="703" duration="150"/>
    <frame tileid="713" duration="150"/>
   </animation>
  </tile>
  <tile id="124">
   <animation>
    <frame tileid="124" duration="150"/>
    <frame tileid="134" duration="150"/>
    <frame tileid="144" duration="150"/>
    <frame tileid="154" duration="150"/>
    <frame tileid="404" duration="150"/>
    <frame tileid="414" duration="150"/>
    <frame tileid="424" duration="150"/>
    <frame tileid="434" duration="150"/>
    <frame tileid="684" duration="150"/>
    <frame tileid="694" duration="150"/>
    <frame tileid="704" duration="150"/>
    <frame tileid="714" duration="150"/>
   </animation>
  </tile>
  <tile id="125">
   <animation>
    <frame tileid="125" duration="150"/>
    <frame tileid="135" duration="150"/>
    <frame tileid="145" duration="150"/>
    <frame tileid="155" duration="150"/>
    <frame tileid="405" duration="150"/>
    <frame tileid="415" duration="150"/>
    <frame tileid="425" duration="150"/>
    <frame tileid="435" duration="150"/>
    <frame tileid="685" duration="150"/>
    <frame tileid="695" duration="150"/>
    <frame tileid="705" duration="150"/>
    <frame tileid="715" duration="150"/>
   </animation>
  </tile>
  <tile id="126">
   <animation>
    <frame tileid="126" duration="150"/>
    <frame tileid="136" duration="150"/>
    <frame tileid="146" duration="150"/>
    <frame tileid="156" duration="150"/>
    <frame tileid="406" duration="150"/>
    <frame tileid="416" duration="150"/>
    <frame tileid="426" duration="150"/>
    <frame tileid="436" duration="150"/>
    <frame tileid="686" duration="150"/>
    <frame tileid="696" duration="150"/>
    <frame tileid="706" duration="150"/>
    <frame tileid="716" duration="150"/>
   </animation>
  </tile>
  <tile id="127">
   <animation>
    <frame tileid="127" duration="150"/>
    <frame tileid="137" duration="150"/>
    <frame tileid="147" duration="150"/>
    <frame tileid="157" duration="150"/>
    <frame tileid="407" duration="150"/>
    <frame tileid="417" duration="150"/>
    <frame tileid="427" duration="150"/>
    <frame tileid="437" duration="150"/>
    <frame tileid="687" duration="150"/>
    <frame tileid="697" duration="150"/>
    <frame tileid="707" duration="150"/>
    <frame tileid="717" duration="150"/>
   </animation>
  </tile>
  <tile id="161">
   <animation>
    <frame tileid="161" duration="150"/>
    <frame tileid="171" duration="150"/>
    <frame tileid="181" duration="150"/>
    <frame tileid="191" duration="150"/>
    <frame tileid="441" duration="150"/>
    <frame tileid="451" duration="150"/>
    <frame tileid="461" duration="150"/>
    <frame tileid="471" duration="150"/>
    <frame tileid="721" duration="150"/>
    <frame tileid="731" duration="150"/>
    <frame tileid="741" duration="150"/>
    <frame tileid="751" duration="150"/>
   </animation>
  </tile>
  <tile id="162">
   <animation>
    <frame tileid="162" duration="150"/>
    <frame tileid="172" duration="150"/>
    <frame tileid="182" duration="150"/>
    <frame tileid="192" duration="150"/>
    <frame tileid="442" duration="150"/>
    <frame tileid="452" duration="150"/>
    <frame tileid="462" duration="150"/>
    <frame tileid="472" duration="150"/>
    <frame tileid="722" duration="150"/>
    <frame tileid="732" duration="150"/>
    <frame tileid="742" duration="150"/>
    <frame tileid="752" duration="150"/>
   </animation>
  </tile>
  <tile id="163">
   <animation>
    <frame tileid="163" duration="150"/>
    <frame tileid="173" duration="150"/>
    <frame tileid="183" duration="150"/>
    <frame tileid="193" duration="150"/>
    <frame tileid="443" duration="150"/>
    <frame tileid="453" duration="150"/>
    <frame tileid="463" duration="150"/>
    <frame tileid="473" duration="150"/>
    <frame tileid="723" duration="150"/>
    <frame tileid="733" duration="150"/>
    <frame tileid="743" duration="150"/>
    <frame tileid="753" duration="150"/>
   </animation>
  </tile>
  <tile id="164">
   <animation>
    <frame tileid="164" duration="150"/>
    <frame tileid="174" duration="150"/>
    <frame tileid="184" duration="150"/>
    <frame tileid="194" duration="150"/>
    <frame tileid="444" duration="150"/>
    <frame tileid="454" duration="150"/>
    <frame tileid="464" duration="150"/>
    <frame tileid="474" duration="150"/>
    <frame tileid="724" duration="150"/>
    <frame tileid="734" duration="150"/>
    <frame tileid="744" duration="150"/>
    <frame tileid="754" duration="150"/>
   </animation>
  </tile>
  <tile id="165">
   <animation>
    <frame tileid="165" duration="150"/>
    <frame tileid="175" duration="150"/>
    <frame tileid="185" duration="150"/>
    <frame tileid="195" duration="150"/>
    <frame tileid="445" duration="150"/>
    <frame tileid="455" duration="150"/>
    <frame tileid="465" duration="150"/>
    <frame tileid="475" duration="150"/>
    <frame tileid="725" duration="150"/>
    <frame tileid="735" duration="150"/>
    <frame tileid="745" duration="150"/>
    <frame tileid="755" duration="150"/>
   </animation>
  </tile>
  <tile id="166">
   <animation>
    <frame tileid="166" duration="150"/>
    <frame tileid="176" duration="150"/>
    <frame tileid="186" duration="150"/>
    <frame tileid="196" duration="150"/>
    <frame tileid="446" duration="150"/>
    <frame tileid="456" duration="150"/>
    <frame tileid="466" duration="150"/>
    <frame tileid="476" duration="150"/>
    <frame tileid="726" duration="150"/>
    <frame tileid="736" duration="150"/>
    <frame tileid="746" duration="150"/>
    <frame tileid="756" duration="150"/>
   </animation>
  </tile>
  <tile id="167">
   <animation>
    <frame tileid="167" duration="150"/>
    <frame tileid="177" duration="150"/>
    <frame tileid="187" duration="150"/>
    <frame tileid="197" duration="150"/>
    <frame tileid="447" duration="150"/>
    <frame tileid="457" duration="150"/>
    <frame tileid="467" duration="150"/>
    <frame tileid="477" duration="150"/>
    <frame tileid="727" duration="150"/>
    <frame tileid="737" duration="150"/>
    <frame tileid="747" duration="150"/>
    <frame tileid="757" duration="150"/>
   </animation>
  </tile>
  <tile id="168">
   <animation>
    <frame tileid="168" duration="150"/>
    <frame tileid="178" duration="150"/>
    <frame tileid="188" duration="150"/>
    <frame tileid="198" duration="150"/>
    <frame tileid="448" duration="150"/>
    <frame tileid="458" duration="150"/>
    <frame tileid="468" duration="150"/>
    <frame tileid="478" duration="150"/>
    <frame tileid="728" duration="150"/>
    <frame tileid="738" duration="150"/>
    <frame tileid="748" duration="150"/>
    <frame tileid="758" duration="150"/>
   </animation>
  </tile>
  <tile id="169">
   <animation>
    <frame tileid="169" duration="150"/>
    <frame tileid="179" duration="150"/>
    <frame tileid="189" duration="150"/>
    <frame tileid="199" duration="150"/>
    <frame tileid="449" duration="150"/>
    <frame tileid="459" duration="150"/>
    <frame tileid="469" duration="150"/>
    <frame tileid="479" duration="150"/>
    <frame tileid="729" duration="150"/>
    <frame tileid="739" duration="150"/>
    <frame tileid="749" duration="150"/>
    <frame tileid="759" duration="150"/>
   </animation>
  </tile>
  <tile id="201">
   <animation>
    <frame tileid="201" duration="150"/>
    <frame tileid="211" duration="150"/>
    <frame tileid="221" duration="150"/>
    <frame tileid="231" duration="150"/>
    <frame tileid="481" duration="150"/>
    <frame tileid="491" duration="150"/>
    <frame tileid="501" duration="150"/>
    <frame tileid="511" duration="150"/>
    <frame tileid="761" duration="150"/>
    <frame tileid="771" duration="150"/>
    <frame tileid="781" duration="150"/>
    <frame tileid="791" duration="150"/>
   </animation>
  </tile>
  <tile id="202">
   <animation>
    <frame tileid="202" duration="150"/>
    <frame tileid="212" duration="150"/>
    <frame tileid="222" duration="150"/>
    <frame tileid="232" duration="150"/>
    <frame tileid="482" duration="150"/>
    <frame tileid="492" duration="150"/>
    <frame tileid="502" duration="150"/>
    <frame tileid="512" duration="150"/>
    <frame tileid="762" duration="150"/>
    <frame tileid="772" duration="150"/>
    <frame tileid="782" duration="150"/>
    <frame tileid="792" duration="150"/>
   </animation>
  </tile>
  <tile id="203">
   <animation>
    <frame tileid="203" duration="150"/>
    <frame tileid="213" duration="150"/>
    <frame tileid="223" duration="150"/>
    <frame tileid="233" duration="150"/>
    <frame tileid="483" duration="150"/>
    <frame tileid="493" duration="150"/>
    <frame tileid="503" duration="150"/>
    <frame tileid="513" duration="150"/>
    <frame tileid="763" duration="150"/>
    <frame tileid="773" duration="150"/>
    <frame tileid="783" duration="150"/>
    <frame tileid="793" duration="150"/>
   </animation>
  </tile>
  <tile id="204">
   <animation>
    <frame tileid="204" duration="150"/>
    <frame tileid="214" duration="150"/>
    <frame tileid="224" duration="150"/>
    <frame tileid="234" duration="150"/>
    <frame tileid="484" duration="150"/>
    <frame tileid="494" duration="150"/>
    <frame tileid="504" duration="150"/>
    <frame tileid="514" duration="150"/>
    <frame tileid="764" duration="150"/>
    <frame tileid="774" duration="150"/>
    <frame tileid="784" duration="150"/>
    <frame tileid="794" duration="150"/>
   </animation>
  </tile>
  <tile id="205">
   <animation>
    <frame tileid="205" duration="150"/>
    <frame tileid="215" duration="150"/>
    <frame tileid="225" duration="150"/>
    <frame tileid="235" duration="150"/>
    <frame tileid="485" duration="150"/>
    <frame tileid="495" duration="150"/>
    <frame tileid="505" duration="150"/>
    <frame tileid="515" duration="150"/>
    <frame tileid="765" duration="150"/>
    <frame tileid="775" duration="150"/>
    <frame tileid="785" duration="150"/>
    <frame tileid="795" duration="150"/>
   </animation>
  </tile>
  <tile id="206">
   <animation>
    <frame tileid="206" duration="150"/>
    <frame tileid="216" duration="150"/>
    <frame tileid="226" duration="150"/>
    <frame tileid="236" duration="150"/>
    <frame tileid="486" duration="150"/>
    <frame tileid="496" duration="150"/>
    <frame tileid="506" duration="150"/>
    <frame tileid="516" duration="150"/>
    <frame tileid="766" duration="150"/>
    <frame tileid="776" duration="150"/>
    <frame tileid="786" duration="150"/>
    <frame tileid="796" duration="150"/>
   </animation>
  </tile>
  <tile id="207">
   <animation>
    <frame tileid="207" duration="150"/>
    <frame tileid="217" duration="150"/>
    <frame tileid="227" duration="150"/>
    <frame tileid="237" duration="150"/>
    <frame tileid="487" duration="150"/>
    <frame tileid="497" duration="150"/>
    <frame tileid="507" duration="150"/>
    <frame tileid="517" duration="150"/>
    <frame tileid="767" duration="150"/>
    <frame tileid="777" duration="150"/>
    <frame tileid="787" duration="150"/>
    <frame tileid="797" duration="150"/>
   </animation>
  </tile>
  <tile id="208">
   <animation>
    <frame tileid="208" duration="150"/>
    <frame tileid="218" duration="150"/>
    <frame tileid="228" duration="150"/>
    <frame tileid="238" duration="150"/>
    <frame tileid="488" duration="150"/>
    <frame tileid="498" duration="150"/>
    <frame tileid="508" duration="150"/>
    <frame tileid="518" duration="150"/>
    <frame tileid="768" duration="150"/>
    <frame tileid="778" duration="150"/>
    <frame tileid="788" duration="150"/>
    <frame tileid="798" duration="150"/>
   </animation>
  </tile>
  <tile id="209">
   <animation>
    <frame tileid="209" duration="150"/>
    <frame tileid="219" duration="150"/>
    <frame tileid="229" duration="150"/>
    <frame tileid="239" duration="150"/>
    <frame tileid="489" duration="150"/>
    <frame tileid="499" duration="150"/>
    <frame tileid="509" duration="150"/>
    <frame tileid="519" duration="150"/>
    <frame tileid="769" duration="150"/>
    <frame tileid="779" duration="150"/>
    <frame tileid="789" duration="150"/>
    <frame tileid="799" duration="150"/>
   </animation>
  </tile>
  <tile id="242">
   <animation>
    <frame tileid="242" duration="150"/>
    <frame tileid="252" duration="150"/>
    <frame tileid="262" duration="150"/>
    <frame tileid="272" duration="150"/>
    <frame tileid="522" duration="150"/>
    <frame tileid="532" duration="150"/>
    <frame tileid="542" duration="150"/>
    <frame tileid="552" duration="150"/>
    <frame tileid="802" duration="150"/>
    <frame tileid="812" duration="150"/>
    <frame tileid="822" duration="150"/>
    <frame tileid="832" duration="150"/>
   </animation>
  </tile>
  <tile id="243">
   <animation>
    <frame tileid="243" duration="150"/>
    <frame tileid="253" duration="150"/>
    <frame tileid="263" duration="150"/>
    <frame tileid="273" duration="150"/>
    <frame tileid="523" duration="150"/>
    <frame tileid="533" duration="150"/>
    <frame tileid="543" duration="150"/>
    <frame tileid="553" duration="150"/>
    <frame tileid="803" duration="150"/>
    <frame tileid="813" duration="150"/>
    <frame tileid="823" duration="150"/>
    <frame tileid="833" duration="150"/>
   </animation>
  </tile>
  <tile id="244">
   <animation>
    <frame tileid="244" duration="150"/>
    <frame tileid="254" duration="150"/>
    <frame tileid="264" duration="150"/>
    <frame tileid="274" duration="150"/>
    <frame tileid="524" duration="150"/>
    <frame tileid="534" duration="150"/>
    <frame tileid="544" duration="150"/>
    <frame tileid="554" duration="150"/>
    <frame tileid="804" duration="150"/>
    <frame tileid="814" duration="150"/>
    <frame tileid="824" duration="150"/>
    <frame tileid="834" duration="150"/>
   </animation>
  </tile>
  <tile id="245">
   <animation>
    <frame tileid="245" duration="150"/>
    <frame tileid="255" duration="150"/>
    <frame tileid="265" duration="150"/>
    <frame tileid="275" duration="150"/>
    <frame tileid="525" duration="150"/>
    <frame tileid="535" duration="150"/>
    <frame tileid="545" duration="150"/>
    <frame tileid="555" duration="150"/>
    <frame tileid="805" duration="150"/>
    <frame tileid="815" duration="150"/>
    <frame tileid="825" duration="150"/>
    <frame tileid="835" duration="150"/>
   </animation>
  </tile>
  <tile id="246">
   <animation>
    <frame tileid="246" duration="150"/>
    <frame tileid="256" duration="150"/>
    <frame tileid="266" duration="150"/>
    <frame tileid="276" duration="150"/>
    <frame tileid="526" duration="150"/>
    <frame tileid="536" duration="150"/>
    <frame tileid="546" duration="150"/>
    <frame tileid="556" duration="150"/>
    <frame tileid="806" duration="150"/>
    <frame tileid="816" duration="150"/>
    <frame tileid="826" duration="150"/>
    <frame tileid="836" duration="150"/>
   </animation>
  </tile>
  <tile id="247">
   <animation>
    <frame tileid="247" duration="150"/>
    <frame tileid="257" duration="150"/>
    <frame tileid="267" duration="150"/>
    <frame tileid="277" duration="150"/>
    <frame tileid="527" duration="150"/>
    <frame tileid="537" duration="150"/>
    <frame tileid="547" duration="150"/>
    <frame tileid="557" duration="150"/>
    <frame tileid="807" duration="150"/>
    <frame tileid="817" duration="150"/>
    <frame tileid="827" duration="150"/>
    <frame tileid="837" duration="150"/>
   </animation>
  </tile>
  <tile id="248">
   <animation>
    <frame tileid="248" duration="150"/>
    <frame tileid="258" duration="150"/>
    <frame tileid="268" duration="150"/>
    <frame tileid="278" duration="150"/>
    <frame tileid="528" duration="150"/>
    <frame tileid="538" duration="150"/>
    <frame tileid="548" duration="150"/>
    <frame tileid="558" duration="150"/>
    <frame tileid="808" duration="150"/>
    <frame tileid="818" duration="150"/>
    <frame tileid="828" duration="150"/>
    <frame tileid="838" duration="150"/>
   </animation>
  </tile>
 </tileset>
 <tileset firstgid="3253" name="Boy_weaves" tilewidth="16" tileheight="16" tilecount="72" columns="24">
  <image source="Boy_weaves.png" width="384" height="48"/>
  <tile id="0">
   <animation>
    <frame tileid="0" duration="150"/>
    <frame tileid="2" duration="150"/>
    <frame tileid="4" duration="150"/>
    <frame tileid="6" duration="150"/>
    <frame tileid="8" duration="150"/>
    <frame tileid="10" duration="150"/>
    <frame tileid="12" duration="150"/>
    <frame tileid="14" duration="150"/>
    <frame tileid="16" duration="150"/>
    <frame tileid="18" duration="150"/>
    <frame tileid="20" duration="150"/>
    <frame tileid="22" duration="150"/>
   </animation>
  </tile>
  <tile id="1">
   <animation>
    <frame tileid="1" duration="150"/>
    <frame tileid="3" duration="150"/>
    <frame tileid="5" duration="150"/>
    <frame tileid="7" duration="150"/>
    <frame tileid="9" duration="150"/>
    <frame tileid="11" duration="150"/>
    <frame tileid="13" duration="150"/>
    <frame tileid="15" duration="150"/>
    <frame tileid="17" duration="150"/>
    <frame tileid="19" duration="150"/>
    <frame tileid="21" duration="150"/>
    <frame tileid="23" duration="150"/>
   </animation>
  </tile>
  <tile id="24">
   <animation>
    <frame tileid="24" duration="150"/>
    <frame tileid="26" duration="150"/>
    <frame tileid="28" duration="150"/>
    <frame tileid="30" duration="150"/>
    <frame tileid="32" duration="150"/>
    <frame tileid="34" duration="150"/>
    <frame tileid="36" duration="150"/>
    <frame tileid="38" duration="150"/>
    <frame tileid="40" duration="150"/>
    <frame tileid="42" duration="150"/>
    <frame tileid="44" duration="150"/>
    <frame tileid="46" duration="150"/>
   </animation>
  </tile>
  <tile id="25">
   <animation>
    <frame tileid="25" duration="150"/>
    <frame tileid="27" duration="150"/>
    <frame tileid="29" duration="150"/>
    <frame tileid="31" duration="150"/>
    <frame tileid="33" duration="150"/>
    <frame tileid="35" duration="150"/>
    <frame tileid="37" duration="150"/>
    <frame tileid="39" duration="150"/>
    <frame tileid="41" duration="150"/>
    <frame tileid="43" duration="150"/>
    <frame tileid="45" duration="150"/>
    <frame tileid="47" duration="150"/>
   </animation>
  </tile>
  <tile id="48">
   <animation>
    <frame tileid="48" duration="150"/>
    <frame tileid="50" duration="150"/>
    <frame tileid="52" duration="150"/>
    <frame tileid="54" duration="150"/>
    <frame tileid="56" duration="150"/>
    <frame tileid="58" duration="150"/>
    <frame tileid="60" duration="150"/>
    <frame tileid="62" duration="150"/>
    <frame tileid="64" duration="150"/>
    <frame tileid="66" duration="150"/>
    <frame tileid="68" duration="150"/>
    <frame tileid="70" duration="150"/>
   </animation>
  </tile>
  <tile id="49">
   <animation>
    <frame tileid="49" duration="150"/>
    <frame tileid="51" duration="150"/>
    <frame tileid="53" duration="150"/>
    <frame tileid="55" duration="150"/>
    <frame tileid="57" duration="150"/>
    <frame tileid="59" duration="150"/>
    <frame tileid="61" duration="150"/>
    <frame tileid="63" duration="150"/>
    <frame tileid="65" duration="150"/>
    <frame tileid="67" duration="150"/>
    <frame tileid="69" duration="150"/>
    <frame tileid="71" duration="150"/>
   </animation>
  </tile>
 </tileset>
 <tileset firstgid="3325" name="Boy_looking" tilewidth="16" tileheight="16" tilecount="72" columns="24">
  <image source="Boy_looking.png" width="384" height="48"/>
  <tile id="0">
   <animation>
    <frame tileid="0" duration="150"/>
    <frame tileid="2" duration="150"/>
    <frame tileid="4" duration="150"/>
    <frame tileid="6" duration="150"/>
    <frame tileid="8" duration="150"/>
    <frame tileid="10" duration="150"/>
    <frame tileid="12" duration="150"/>
    <frame tileid="14" duration="150"/>
    <frame tileid="16" duration="150"/>
    <frame tileid="18" duration="150"/>
    <frame tileid="20" duration="150"/>
    <frame tileid="22" duration="150"/>
   </animation>
  </tile>
  <tile id="1">
   <animation>
    <frame tileid="1" duration="150"/>
    <frame tileid="3" duration="150"/>
    <frame tileid="5" duration="150"/>
    <frame tileid="7" duration="150"/>
    <frame tileid="9" duration="150"/>
    <frame tileid="11" duration="150"/>
    <frame tileid="13" duration="150"/>
    <frame tileid="15" duration="150"/>
    <frame tileid="17" duration="150"/>
    <frame tileid="19" duration="150"/>
    <frame tileid="21" duration="150"/>
    <frame tileid="23" duration="150"/>
   </animation>
  </tile>
  <tile id="24">
   <animation>
    <frame tileid="24" duration="150"/>
    <frame tileid="26" duration="150"/>
    <frame tileid="28" duration="150"/>
    <frame tileid="30" duration="150"/>
    <frame tileid="32" duration="150"/>
    <frame tileid="34" duration="150"/>
    <frame tileid="36" duration="150"/>
    <frame tileid="38" duration="150"/>
    <frame tileid="40" duration="150"/>
    <frame tileid="42" duration="150"/>
    <frame tileid="44" duration="150"/>
    <frame tileid="46" duration="150"/>
   </animation>
  </tile>
  <tile id="25">
   <animation>
    <frame tileid="25" duration="150"/>
    <frame tileid="27" duration="150"/>
    <frame tileid="29" duration="150"/>
    <frame tileid="31" duration="150"/>
    <frame tileid="33" duration="150"/>
    <frame tileid="35" duration="150"/>
    <frame tileid="37" duration="150"/>
    <frame tileid="39" duration="150"/>
    <frame tileid="41" duration="150"/>
    <frame tileid="43" duration="150"/>
    <frame tileid="45" duration="150"/>
    <frame tileid="47" duration="150"/>
   </animation>
  </tile>
  <tile id="48">
   <animation>
    <frame tileid="48" duration="150"/>
    <frame tileid="50" duration="150"/>
    <frame tileid="52" duration="150"/>
    <frame tileid="54" duration="150"/>
    <frame tileid="56" duration="150"/>
    <frame tileid="58" duration="150"/>
    <frame tileid="60" duration="150"/>
    <frame tileid="62" duration="150"/>
    <frame tileid="64" duration="150"/>
    <frame tileid="66" duration="150"/>
    <frame tileid="68" duration="150"/>
    <frame tileid="70" duration="150"/>
   </animation>
  </tile>
  <tile id="49">
   <animation>
    <frame tileid="49" duration="150"/>
    <frame tileid="51" duration="150"/>
    <frame tileid="53" duration="150"/>
    <frame tileid="55" duration="150"/>
    <frame tileid="57" duration="150"/>
    <frame tileid="59" duration="150"/>
    <frame tileid="61" duration="150"/>
    <frame tileid="63" duration="150"/>
    <frame tileid="65" duration="150"/>
    <frame tileid="67" duration="150"/>
    <frame tileid="69" duration="150"/>
    <frame tileid="71" duration="150"/>
   </animation>
  </tile>
 </tileset>
 <tileset firstgid="3397" name="Boat1" tilewidth="16" tileheight="16" tilecount="1056" columns="44">
  <image source="Boat1.png" width="704" height="384"/>
  <tile id="8">
   <animation>
    <frame tileid="8" duration="150"/>
    <frame tileid="19" duration="150"/>
    <frame tileid="30" duration="150"/>
    <frame tileid="41" duration="150"/>
    <frame tileid="360" duration="150"/>
    <frame tileid="371" duration="150"/>
    <frame tileid="382" duration="150"/>
    <frame tileid="393" duration="150"/>
    <frame tileid="712" duration="150"/>
    <frame tileid="723" duration="150"/>
    <frame tileid="734" duration="150"/>
    <frame tileid="745" duration="150"/>
   </animation>
  </tile>
  <tile id="50">
   <animation>
    <frame tileid="50" duration="150"/>
    <frame tileid="61" duration="150"/>
    <frame tileid="72" duration="150"/>
    <frame tileid="83" duration="150"/>
    <frame tileid="402" duration="150"/>
    <frame tileid="413" duration="150"/>
    <frame tileid="424" duration="150"/>
    <frame tileid="435" duration="150"/>
    <frame tileid="754" duration="150"/>
    <frame tileid="765" duration="150"/>
    <frame tileid="776" duration="150"/>
    <frame tileid="787" duration="150"/>
   </animation>
  </tile>
  <tile id="51">
   <animation>
    <frame tileid="51" duration="150"/>
    <frame tileid="62" duration="150"/>
    <frame tileid="73" duration="150"/>
    <frame tileid="84" duration="150"/>
    <frame tileid="403" duration="150"/>
    <frame tileid="414" duration="150"/>
    <frame tileid="425" duration="150"/>
    <frame tileid="436" duration="150"/>
    <frame tileid="755" duration="150"/>
    <frame tileid="766" duration="150"/>
    <frame tileid="777" duration="150"/>
    <frame tileid="788" duration="150"/>
   </animation>
  </tile>
  <tile id="52">
   <animation>
    <frame tileid="52" duration="150"/>
    <frame tileid="63" duration="150"/>
    <frame tileid="74" duration="150"/>
    <frame tileid="85" duration="150"/>
    <frame tileid="404" duration="150"/>
    <frame tileid="415" duration="150"/>
    <frame tileid="426" duration="150"/>
    <frame tileid="437" duration="150"/>
    <frame tileid="756" duration="150"/>
    <frame tileid="767" duration="150"/>
    <frame tileid="778" duration="150"/>
    <frame tileid="789" duration="150"/>
   </animation>
  </tile>
  <tile id="92">
   <animation>
    <frame tileid="92" duration="150"/>
    <frame tileid="103" duration="150"/>
    <frame tileid="114" duration="150"/>
    <frame tileid="125" duration="150"/>
    <frame tileid="444" duration="150"/>
    <frame tileid="455" duration="150"/>
    <frame tileid="466" duration="150"/>
    <frame tileid="477" duration="150"/>
    <frame tileid="796" duration="150"/>
    <frame tileid="807" duration="150"/>
    <frame tileid="818" duration="150"/>
    <frame tileid="829" duration="150"/>
   </animation>
  </tile>
  <tile id="93">
   <animation>
    <frame tileid="93" duration="150"/>
    <frame tileid="104" duration="150"/>
    <frame tileid="115" duration="150"/>
    <frame tileid="126" duration="150"/>
    <frame tileid="445" duration="150"/>
    <frame tileid="456" duration="150"/>
    <frame tileid="467" duration="150"/>
    <frame tileid="478" duration="150"/>
    <frame tileid="797" duration="150"/>
    <frame tileid="808" duration="150"/>
    <frame tileid="819" duration="150"/>
    <frame tileid="830" duration="150"/>
   </animation>
  </tile>
  <tile id="94">
   <animation>
    <frame tileid="94" duration="150"/>
    <frame tileid="105" duration="150"/>
    <frame tileid="116" duration="150"/>
    <frame tileid="127" duration="150"/>
    <frame tileid="446" duration="150"/>
    <frame tileid="457" duration="150"/>
    <frame tileid="468" duration="150"/>
    <frame tileid="479" duration="150"/>
    <frame tileid="798" duration="150"/>
    <frame tileid="809" duration="150"/>
    <frame tileid="820" duration="150"/>
    <frame tileid="831" duration="150"/>
   </animation>
  </tile>
  <tile id="95">
   <animation>
    <frame tileid="95" duration="150"/>
    <frame tileid="106" duration="150"/>
    <frame tileid="117" duration="150"/>
    <frame tileid="128" duration="150"/>
    <frame tileid="447" duration="150"/>
    <frame tileid="458" duration="150"/>
    <frame tileid="469" duration="150"/>
    <frame tileid="480" duration="150"/>
    <frame tileid="799" duration="150"/>
    <frame tileid="810" duration="150"/>
    <frame tileid="821" duration="150"/>
    <frame tileid="832" duration="150"/>
   </animation>
  </tile>
  <tile id="96">
   <animation>
    <frame tileid="96" duration="150"/>
    <frame tileid="107" duration="150"/>
    <frame tileid="118" duration="150"/>
    <frame tileid="129" duration="150"/>
    <frame tileid="448" duration="150"/>
    <frame tileid="459" duration="150"/>
    <frame tileid="470" duration="150"/>
    <frame tileid="481" duration="150"/>
    <frame tileid="800" duration="150"/>
    <frame tileid="811" duration="150"/>
    <frame tileid="822" duration="150"/>
    <frame tileid="833" duration="150"/>
   </animation>
  </tile>
  <tile id="97">
   <animation>
    <frame tileid="97" duration="150"/>
    <frame tileid="108" duration="150"/>
    <frame tileid="119" duration="150"/>
    <frame tileid="130" duration="150"/>
    <frame tileid="449" duration="150"/>
    <frame tileid="460" duration="150"/>
    <frame tileid="471" duration="150"/>
    <frame tileid="482" duration="150"/>
    <frame tileid="801" duration="150"/>
    <frame tileid="812" duration="150"/>
    <frame tileid="823" duration="150"/>
    <frame tileid="834" duration="150"/>
   </animation>
  </tile>
  <tile id="134">
   <animation>
    <frame tileid="134" duration="150"/>
    <frame tileid="145" duration="150"/>
    <frame tileid="156" duration="150"/>
    <frame tileid="167" duration="150"/>
    <frame tileid="486" duration="150"/>
    <frame tileid="497" duration="150"/>
    <frame tileid="508" duration="150"/>
    <frame tileid="519" duration="150"/>
    <frame tileid="838" duration="150"/>
    <frame tileid="849" duration="150"/>
    <frame tileid="860" duration="150"/>
    <frame tileid="871" duration="150"/>
   </animation>
  </tile>
  <tile id="135">
   <animation>
    <frame tileid="135" duration="150"/>
    <frame tileid="146" duration="150"/>
    <frame tileid="157" duration="150"/>
    <frame tileid="168" duration="150"/>
    <frame tileid="487" duration="150"/>
    <frame tileid="498" duration="150"/>
    <frame tileid="509" duration="150"/>
    <frame tileid="520" duration="150"/>
    <frame tileid="839" duration="150"/>
    <frame tileid="850" duration="150"/>
    <frame tileid="861" duration="150"/>
    <frame tileid="872" duration="150"/>
   </animation>
  </tile>
  <tile id="136">
   <animation>
    <frame tileid="136" duration="150"/>
    <frame tileid="147" duration="150"/>
    <frame tileid="158" duration="150"/>
    <frame tileid="169" duration="150"/>
    <frame tileid="488" duration="150"/>
    <frame tileid="499" duration="150"/>
    <frame tileid="510" duration="150"/>
    <frame tileid="521" duration="150"/>
    <frame tileid="840" duration="150"/>
    <frame tileid="851" duration="150"/>
    <frame tileid="862" duration="150"/>
    <frame tileid="873" duration="150"/>
   </animation>
  </tile>
  <tile id="137">
   <animation>
    <frame tileid="137" duration="150"/>
    <frame tileid="148" duration="150"/>
    <frame tileid="159" duration="150"/>
    <frame tileid="170" duration="150"/>
    <frame tileid="489" duration="150"/>
    <frame tileid="500" duration="150"/>
    <frame tileid="511" duration="150"/>
    <frame tileid="522" duration="150"/>
    <frame tileid="841" duration="150"/>
    <frame tileid="852" duration="150"/>
    <frame tileid="863" duration="150"/>
    <frame tileid="874" duration="150"/>
   </animation>
  </tile>
  <tile id="138">
   <animation>
    <frame tileid="138" duration="150"/>
    <frame tileid="149" duration="150"/>
    <frame tileid="160" duration="150"/>
    <frame tileid="171" duration="150"/>
    <frame tileid="490" duration="150"/>
    <frame tileid="501" duration="150"/>
    <frame tileid="512" duration="150"/>
    <frame tileid="523" duration="150"/>
    <frame tileid="842" duration="150"/>
    <frame tileid="853" duration="150"/>
    <frame tileid="864" duration="150"/>
    <frame tileid="875" duration="150"/>
   </animation>
  </tile>
  <tile id="139">
   <animation>
    <frame tileid="139" duration="150"/>
    <frame tileid="150" duration="150"/>
    <frame tileid="161" duration="150"/>
    <frame tileid="172" duration="150"/>
    <frame tileid="491" duration="150"/>
    <frame tileid="502" duration="150"/>
    <frame tileid="513" duration="150"/>
    <frame tileid="524" duration="150"/>
    <frame tileid="843" duration="150"/>
    <frame tileid="854" duration="150"/>
    <frame tileid="865" duration="150"/>
    <frame tileid="876" duration="150"/>
   </animation>
  </tile>
  <tile id="140">
   <animation>
    <frame tileid="140" duration="150"/>
    <frame tileid="151" duration="150"/>
    <frame tileid="162" duration="150"/>
    <frame tileid="173" duration="150"/>
    <frame tileid="492" duration="150"/>
    <frame tileid="503" duration="150"/>
    <frame tileid="514" duration="150"/>
    <frame tileid="525" duration="150"/>
    <frame tileid="844" duration="150"/>
    <frame tileid="855" duration="150"/>
    <frame tileid="866" duration="150"/>
    <frame tileid="877" duration="150"/>
   </animation>
  </tile>
  <tile id="141">
   <animation>
    <frame tileid="141" duration="150"/>
    <frame tileid="152" duration="150"/>
    <frame tileid="163" duration="150"/>
    <frame tileid="174" duration="150"/>
    <frame tileid="493" duration="150"/>
    <frame tileid="504" duration="150"/>
    <frame tileid="515" duration="150"/>
    <frame tileid="526" duration="150"/>
    <frame tileid="845" duration="150"/>
    <frame tileid="856" duration="150"/>
    <frame tileid="867" duration="150"/>
    <frame tileid="878" duration="150"/>
   </animation>
  </tile>
  <tile id="177">
   <animation>
    <frame tileid="177" duration="150"/>
    <frame tileid="188" duration="150"/>
    <frame tileid="199" duration="150"/>
    <frame tileid="210" duration="150"/>
    <frame tileid="529" duration="150"/>
    <frame tileid="540" duration="150"/>
    <frame tileid="551" duration="150"/>
    <frame tileid="562" duration="150"/>
    <frame tileid="881" duration="150"/>
    <frame tileid="892" duration="150"/>
    <frame tileid="903" duration="150"/>
    <frame tileid="914" duration="150"/>
   </animation>
  </tile>
  <tile id="178">
   <animation>
    <frame tileid="178" duration="150"/>
    <frame tileid="189" duration="150"/>
    <frame tileid="200" duration="150"/>
    <frame tileid="211" duration="150"/>
    <frame tileid="530" duration="150"/>
    <frame tileid="541" duration="150"/>
    <frame tileid="552" duration="150"/>
    <frame tileid="563" duration="150"/>
    <frame tileid="882" duration="150"/>
    <frame tileid="893" duration="150"/>
    <frame tileid="904" duration="150"/>
    <frame tileid="915" duration="150"/>
   </animation>
  </tile>
  <tile id="179">
   <animation>
    <frame tileid="179" duration="150"/>
    <frame tileid="190" duration="150"/>
    <frame tileid="201" duration="150"/>
    <frame tileid="212" duration="150"/>
    <frame tileid="531" duration="150"/>
    <frame tileid="542" duration="150"/>
    <frame tileid="553" duration="150"/>
    <frame tileid="564" duration="150"/>
    <frame tileid="883" duration="150"/>
    <frame tileid="894" duration="150"/>
    <frame tileid="905" duration="150"/>
    <frame tileid="916" duration="150"/>
   </animation>
  </tile>
  <tile id="180">
   <animation>
    <frame tileid="180" duration="150"/>
    <frame tileid="191" duration="150"/>
    <frame tileid="202" duration="150"/>
    <frame tileid="213" duration="150"/>
    <frame tileid="532" duration="150"/>
    <frame tileid="543" duration="150"/>
    <frame tileid="554" duration="150"/>
    <frame tileid="565" duration="150"/>
    <frame tileid="884" duration="150"/>
    <frame tileid="895" duration="150"/>
    <frame tileid="906" duration="150"/>
    <frame tileid="917" duration="150"/>
   </animation>
  </tile>
  <tile id="181">
   <animation>
    <frame tileid="181" duration="150"/>
    <frame tileid="192" duration="150"/>
    <frame tileid="203" duration="150"/>
    <frame tileid="214" duration="150"/>
    <frame tileid="533" duration="150"/>
    <frame tileid="544" duration="150"/>
    <frame tileid="555" duration="150"/>
    <frame tileid="566" duration="150"/>
    <frame tileid="885" duration="150"/>
    <frame tileid="896" duration="150"/>
    <frame tileid="907" duration="150"/>
    <frame tileid="918" duration="150"/>
   </animation>
  </tile>
  <tile id="182">
   <animation>
    <frame tileid="182" duration="150"/>
    <frame tileid="193" duration="150"/>
    <frame tileid="204" duration="150"/>
    <frame tileid="215" duration="150"/>
    <frame tileid="534" duration="150"/>
    <frame tileid="545" duration="150"/>
    <frame tileid="556" duration="150"/>
    <frame tileid="567" duration="150"/>
    <frame tileid="886" duration="150"/>
    <frame tileid="897" duration="150"/>
    <frame tileid="908" duration="150"/>
    <frame tileid="919" duration="150"/>
   </animation>
  </tile>
  <tile id="183">
   <animation>
    <frame tileid="183" duration="150"/>
    <frame tileid="194" duration="150"/>
    <frame tileid="205" duration="150"/>
    <frame tileid="216" duration="150"/>
    <frame tileid="535" duration="150"/>
    <frame tileid="546" duration="150"/>
    <frame tileid="557" duration="150"/>
    <frame tileid="568" duration="150"/>
    <frame tileid="887" duration="150"/>
    <frame tileid="898" duration="150"/>
    <frame tileid="909" duration="150"/>
    <frame tileid="920" duration="150"/>
   </animation>
  </tile>
  <tile id="184">
   <animation>
    <frame tileid="184" duration="150"/>
    <frame tileid="195" duration="150"/>
    <frame tileid="206" duration="150"/>
    <frame tileid="217" duration="150"/>
    <frame tileid="536" duration="150"/>
    <frame tileid="547" duration="150"/>
    <frame tileid="558" duration="150"/>
    <frame tileid="569" duration="150"/>
    <frame tileid="888" duration="150"/>
    <frame tileid="899" duration="150"/>
    <frame tileid="910" duration="150"/>
    <frame tileid="921" duration="150"/>
   </animation>
  </tile>
  <tile id="185">
   <animation>
    <frame tileid="185" duration="150"/>
    <frame tileid="196" duration="150"/>
    <frame tileid="207" duration="150"/>
    <frame tileid="218" duration="150"/>
    <frame tileid="537" duration="150"/>
    <frame tileid="548" duration="150"/>
    <frame tileid="559" duration="150"/>
    <frame tileid="570" duration="150"/>
    <frame tileid="889" duration="150"/>
    <frame tileid="900" duration="150"/>
    <frame tileid="911" duration="150"/>
    <frame tileid="922" duration="150"/>
   </animation>
  </tile>
  <tile id="186">
   <animation>
    <frame tileid="186" duration="150"/>
    <frame tileid="197" duration="150"/>
    <frame tileid="208" duration="150"/>
    <frame tileid="219" duration="150"/>
    <frame tileid="538" duration="150"/>
    <frame tileid="549" duration="150"/>
    <frame tileid="560" duration="150"/>
    <frame tileid="571" duration="150"/>
    <frame tileid="890" duration="150"/>
    <frame tileid="901" duration="150"/>
    <frame tileid="912" duration="150"/>
    <frame tileid="923" duration="150"/>
   </animation>
  </tile>
  <tile id="221">
   <animation>
    <frame tileid="221" duration="150"/>
    <frame tileid="232" duration="150"/>
    <frame tileid="243" duration="150"/>
    <frame tileid="254" duration="150"/>
    <frame tileid="573" duration="150"/>
    <frame tileid="584" duration="150"/>
    <frame tileid="595" duration="150"/>
    <frame tileid="606" duration="150"/>
    <frame tileid="925" duration="150"/>
    <frame tileid="936" duration="150"/>
    <frame tileid="947" duration="150"/>
    <frame tileid="958" duration="150"/>
   </animation>
  </tile>
  <tile id="222">
   <animation>
    <frame tileid="222" duration="150"/>
    <frame tileid="233" duration="150"/>
    <frame tileid="244" duration="150"/>
    <frame tileid="255" duration="150"/>
    <frame tileid="574" duration="150"/>
    <frame tileid="585" duration="150"/>
    <frame tileid="596" duration="150"/>
    <frame tileid="607" duration="150"/>
    <frame tileid="926" duration="150"/>
    <frame tileid="937" duration="150"/>
    <frame tileid="948" duration="150"/>
    <frame tileid="959" duration="150"/>
   </animation>
  </tile>
  <tile id="223">
   <animation>
    <frame tileid="223" duration="150"/>
    <frame tileid="234" duration="150"/>
    <frame tileid="245" duration="150"/>
    <frame tileid="256" duration="150"/>
    <frame tileid="575" duration="150"/>
    <frame tileid="586" duration="150"/>
    <frame tileid="597" duration="150"/>
    <frame tileid="608" duration="150"/>
    <frame tileid="927" duration="150"/>
    <frame tileid="938" duration="150"/>
    <frame tileid="949" duration="150"/>
    <frame tileid="960" duration="150"/>
   </animation>
  </tile>
  <tile id="224">
   <animation>
    <frame tileid="224" duration="150"/>
    <frame tileid="235" duration="150"/>
    <frame tileid="246" duration="150"/>
    <frame tileid="257" duration="150"/>
    <frame tileid="576" duration="150"/>
    <frame tileid="587" duration="150"/>
    <frame tileid="598" duration="150"/>
    <frame tileid="609" duration="150"/>
    <frame tileid="928" duration="150"/>
    <frame tileid="939" duration="150"/>
    <frame tileid="950" duration="150"/>
    <frame tileid="961" duration="150"/>
   </animation>
  </tile>
  <tile id="225">
   <animation>
    <frame tileid="225" duration="150"/>
    <frame tileid="236" duration="150"/>
    <frame tileid="247" duration="150"/>
    <frame tileid="258" duration="150"/>
    <frame tileid="577" duration="150"/>
    <frame tileid="588" duration="150"/>
    <frame tileid="599" duration="150"/>
    <frame tileid="610" duration="150"/>
    <frame tileid="929" duration="150"/>
    <frame tileid="940" duration="150"/>
    <frame tileid="951" duration="150"/>
    <frame tileid="962" duration="150"/>
   </animation>
  </tile>
  <tile id="226">
   <animation>
    <frame tileid="226" duration="150"/>
    <frame tileid="237" duration="150"/>
    <frame tileid="248" duration="150"/>
    <frame tileid="259" duration="150"/>
    <frame tileid="578" duration="150"/>
    <frame tileid="589" duration="150"/>
    <frame tileid="600" duration="150"/>
    <frame tileid="611" duration="150"/>
    <frame tileid="930" duration="150"/>
    <frame tileid="941" duration="150"/>
    <frame tileid="952" duration="150"/>
    <frame tileid="963" duration="150"/>
   </animation>
  </tile>
  <tile id="227">
   <animation>
    <frame tileid="227" duration="150"/>
    <frame tileid="238" duration="150"/>
    <frame tileid="249" duration="150"/>
    <frame tileid="260" duration="150"/>
    <frame tileid="579" duration="150"/>
    <frame tileid="590" duration="150"/>
    <frame tileid="601" duration="150"/>
    <frame tileid="612" duration="150"/>
    <frame tileid="931" duration="150"/>
    <frame tileid="942" duration="150"/>
    <frame tileid="953" duration="150"/>
    <frame tileid="964" duration="150"/>
   </animation>
  </tile>
  <tile id="228">
   <animation>
    <frame tileid="228" duration="150"/>
    <frame tileid="239" duration="150"/>
    <frame tileid="250" duration="150"/>
    <frame tileid="261" duration="150"/>
    <frame tileid="580" duration="150"/>
    <frame tileid="591" duration="150"/>
    <frame tileid="602" duration="150"/>
    <frame tileid="613" duration="150"/>
    <frame tileid="932" duration="150"/>
    <frame tileid="943" duration="150"/>
    <frame tileid="954" duration="150"/>
    <frame tileid="965" duration="150"/>
   </animation>
  </tile>
  <tile id="229">
   <animation>
    <frame tileid="229" duration="150"/>
    <frame tileid="240" duration="150"/>
    <frame tileid="251" duration="150"/>
    <frame tileid="262" duration="150"/>
    <frame tileid="581" duration="150"/>
    <frame tileid="592" duration="150"/>
    <frame tileid="603" duration="150"/>
    <frame tileid="614" duration="150"/>
    <frame tileid="933" duration="150"/>
    <frame tileid="944" duration="150"/>
    <frame tileid="955" duration="150"/>
    <frame tileid="966" duration="150"/>
   </animation>
  </tile>
  <tile id="230">
   <animation>
    <frame tileid="230" duration="150"/>
    <frame tileid="241" duration="150"/>
    <frame tileid="252" duration="150"/>
    <frame tileid="263" duration="150"/>
    <frame tileid="582" duration="150"/>
    <frame tileid="593" duration="150"/>
    <frame tileid="604" duration="150"/>
    <frame tileid="615" duration="150"/>
    <frame tileid="934" duration="150"/>
    <frame tileid="945" duration="150"/>
    <frame tileid="956" duration="150"/>
    <frame tileid="967" duration="150"/>
   </animation>
  </tile>
  <tile id="265">
   <animation>
    <frame tileid="265" duration="150"/>
    <frame tileid="276" duration="150"/>
    <frame tileid="287" duration="150"/>
    <frame tileid="298" duration="150"/>
    <frame tileid="617" duration="150"/>
    <frame tileid="628" duration="150"/>
    <frame tileid="639" duration="150"/>
    <frame tileid="650" duration="150"/>
    <frame tileid="969" duration="150"/>
    <frame tileid="980" duration="150"/>
    <frame tileid="991" duration="150"/>
    <frame tileid="1002" duration="150"/>
   </animation>
  </tile>
  <tile id="266">
   <animation>
    <frame tileid="266" duration="150"/>
    <frame tileid="277" duration="150"/>
    <frame tileid="288" duration="150"/>
    <frame tileid="299" duration="150"/>
    <frame tileid="618" duration="150"/>
    <frame tileid="629" duration="150"/>
    <frame tileid="640" duration="150"/>
    <frame tileid="651" duration="150"/>
    <frame tileid="970" duration="150"/>
    <frame tileid="981" duration="150"/>
    <frame tileid="992" duration="150"/>
    <frame tileid="1003" duration="150"/>
   </animation>
  </tile>
  <tile id="267">
   <animation>
    <frame tileid="267" duration="150"/>
    <frame tileid="278" duration="150"/>
    <frame tileid="289" duration="150"/>
    <frame tileid="300" duration="150"/>
    <frame tileid="619" duration="150"/>
    <frame tileid="630" duration="150"/>
    <frame tileid="641" duration="150"/>
    <frame tileid="652" duration="150"/>
    <frame tileid="971" duration="150"/>
    <frame tileid="982" duration="150"/>
    <frame tileid="993" duration="150"/>
    <frame tileid="1004" duration="150"/>
   </animation>
  </tile>
  <tile id="268">
   <animation>
    <frame tileid="268" duration="150"/>
    <frame tileid="279" duration="150"/>
    <frame tileid="290" duration="150"/>
    <frame tileid="301" duration="150"/>
    <frame tileid="620" duration="150"/>
    <frame tileid="631" duration="150"/>
    <frame tileid="642" duration="150"/>
    <frame tileid="653" duration="150"/>
    <frame tileid="972" duration="150"/>
    <frame tileid="983" duration="150"/>
    <frame tileid="994" duration="150"/>
    <frame tileid="1005" duration="150"/>
   </animation>
  </tile>
  <tile id="269">
   <animation>
    <frame tileid="269" duration="150"/>
    <frame tileid="280" duration="150"/>
    <frame tileid="291" duration="150"/>
    <frame tileid="302" duration="150"/>
    <frame tileid="621" duration="150"/>
    <frame tileid="632" duration="150"/>
    <frame tileid="643" duration="150"/>
    <frame tileid="654" duration="150"/>
    <frame tileid="973" duration="150"/>
    <frame tileid="984" duration="150"/>
    <frame tileid="995" duration="150"/>
    <frame tileid="1006" duration="150"/>
   </animation>
  </tile>
  <tile id="270">
   <animation>
    <frame tileid="270" duration="150"/>
    <frame tileid="281" duration="150"/>
    <frame tileid="292" duration="150"/>
    <frame tileid="303" duration="150"/>
    <frame tileid="622" duration="150"/>
    <frame tileid="633" duration="150"/>
    <frame tileid="644" duration="150"/>
    <frame tileid="655" duration="150"/>
    <frame tileid="974" duration="150"/>
    <frame tileid="985" duration="150"/>
    <frame tileid="996" duration="150"/>
    <frame tileid="1007" duration="150"/>
   </animation>
  </tile>
  <tile id="271">
   <animation>
    <frame tileid="271" duration="150"/>
    <frame tileid="282" duration="150"/>
    <frame tileid="293" duration="150"/>
    <frame tileid="304" duration="150"/>
    <frame tileid="623" duration="150"/>
    <frame tileid="634" duration="150"/>
    <frame tileid="645" duration="150"/>
    <frame tileid="656" duration="150"/>
    <frame tileid="975" duration="150"/>
    <frame tileid="986" duration="150"/>
    <frame tileid="997" duration="150"/>
    <frame tileid="1008" duration="150"/>
   </animation>
  </tile>
  <tile id="272">
   <animation>
    <frame tileid="272" duration="150"/>
    <frame tileid="283" duration="150"/>
    <frame tileid="294" duration="150"/>
    <frame tileid="305" duration="150"/>
    <frame tileid="624" duration="150"/>
    <frame tileid="635" duration="150"/>
    <frame tileid="646" duration="150"/>
    <frame tileid="657" duration="150"/>
    <frame tileid="976" duration="150"/>
    <frame tileid="987" duration="150"/>
    <frame tileid="998" duration="150"/>
    <frame tileid="1009" duration="150"/>
   </animation>
  </tile>
  <tile id="273">
   <animation>
    <frame tileid="273" duration="150"/>
    <frame tileid="284" duration="150"/>
    <frame tileid="295" duration="150"/>
    <frame tileid="306" duration="150"/>
    <frame tileid="625" duration="150"/>
    <frame tileid="636" duration="150"/>
    <frame tileid="647" duration="150"/>
    <frame tileid="658" duration="150"/>
    <frame tileid="977" duration="150"/>
    <frame tileid="988" duration="150"/>
    <frame tileid="999" duration="150"/>
    <frame tileid="1010" duration="150"/>
   </animation>
  </tile>
 </tileset>
 <tileset firstgid="4453" name="Fisherman_boat1_idle" tilewidth="16" tileheight="16" tilecount="300" columns="20">
  <image source="Fisherman_boat1_idle.png" width="320" height="240"/>
  <tile id="2">
   <animation>
    <frame tileid="2" duration="150"/>
    <frame tileid="7" duration="150"/>
    <frame tileid="12" duration="150"/>
    <frame tileid="17" duration="150"/>
    <frame tileid="102" duration="150"/>
    <frame tileid="107" duration="150"/>
    <frame tileid="112" duration="150"/>
    <frame tileid="117" duration="150"/>
    <frame tileid="202" duration="150"/>
    <frame tileid="207" duration="150"/>
    <frame tileid="212" duration="150"/>
    <frame tileid="217" duration="150"/>
   </animation>
  </tile>
  <tile id="3">
   <animation>
    <frame tileid="3" duration="150"/>
    <frame tileid="8" duration="150"/>
    <frame tileid="13" duration="150"/>
    <frame tileid="18" duration="150"/>
    <frame tileid="103" duration="150"/>
    <frame tileid="108" duration="150"/>
    <frame tileid="113" duration="150"/>
    <frame tileid="118" duration="150"/>
    <frame tileid="203" duration="150"/>
    <frame tileid="208" duration="150"/>
    <frame tileid="213" duration="150"/>
    <frame tileid="218" duration="150"/>
   </animation>
  </tile>
  <tile id="22">
   <animation>
    <frame tileid="22" duration="150"/>
    <frame tileid="27" duration="150"/>
    <frame tileid="32" duration="150"/>
    <frame tileid="37" duration="150"/>
    <frame tileid="122" duration="150"/>
    <frame tileid="127" duration="150"/>
    <frame tileid="132" duration="150"/>
    <frame tileid="137" duration="150"/>
    <frame tileid="222" duration="150"/>
    <frame tileid="227" duration="150"/>
    <frame tileid="232" duration="150"/>
    <frame tileid="237" duration="150"/>
   </animation>
  </tile>
  <tile id="23">
   <animation>
    <frame tileid="23" duration="150"/>
    <frame tileid="28" duration="150"/>
    <frame tileid="33" duration="150"/>
    <frame tileid="38" duration="150"/>
    <frame tileid="123" duration="150"/>
    <frame tileid="128" duration="150"/>
    <frame tileid="133" duration="150"/>
    <frame tileid="138" duration="150"/>
    <frame tileid="223" duration="150"/>
    <frame tileid="228" duration="150"/>
    <frame tileid="233" duration="150"/>
    <frame tileid="238" duration="150"/>
   </animation>
  </tile>
  <tile id="24">
   <animation>
    <frame tileid="24" duration="150"/>
    <frame tileid="29" duration="150"/>
    <frame tileid="34" duration="150"/>
    <frame tileid="39" duration="150"/>
    <frame tileid="124" duration="150"/>
    <frame tileid="129" duration="150"/>
    <frame tileid="134" duration="150"/>
    <frame tileid="139" duration="150"/>
    <frame tileid="224" duration="150"/>
    <frame tileid="229" duration="150"/>
    <frame tileid="234" duration="150"/>
    <frame tileid="239" duration="150"/>
   </animation>
  </tile>
  <tile id="42">
   <animation>
    <frame tileid="42" duration="150"/>
    <frame tileid="47" duration="150"/>
    <frame tileid="52" duration="150"/>
    <frame tileid="57" duration="150"/>
    <frame tileid="142" duration="150"/>
    <frame tileid="147" duration="150"/>
    <frame tileid="152" duration="150"/>
    <frame tileid="157" duration="150"/>
    <frame tileid="242" duration="150"/>
    <frame tileid="247" duration="150"/>
    <frame tileid="252" duration="150"/>
    <frame tileid="257" duration="150"/>
   </animation>
  </tile>
  <tile id="43">
   <animation>
    <frame tileid="43" duration="150"/>
    <frame tileid="48" duration="150"/>
    <frame tileid="53" duration="150"/>
    <frame tileid="58" duration="150"/>
    <frame tileid="143" duration="150"/>
    <frame tileid="148" duration="150"/>
    <frame tileid="153" duration="150"/>
    <frame tileid="158" duration="150"/>
    <frame tileid="243" duration="150"/>
    <frame tileid="248" duration="150"/>
    <frame tileid="253" duration="150"/>
    <frame tileid="258" duration="150"/>
   </animation>
  </tile>
  <tile id="44">
   <animation>
    <frame tileid="44" duration="150"/>
    <frame tileid="49" duration="150"/>
    <frame tileid="54" duration="150"/>
    <frame tileid="59" duration="150"/>
    <frame tileid="144" duration="150"/>
    <frame tileid="149" duration="150"/>
    <frame tileid="154" duration="150"/>
    <frame tileid="159" duration="150"/>
    <frame tileid="244" duration="150"/>
    <frame tileid="249" duration="150"/>
    <frame tileid="254" duration="150"/>
    <frame tileid="259" duration="150"/>
   </animation>
  </tile>
 </tileset>
 <tileset firstgid="4753" name="Fisherman_boat1_throws" tilewidth="16" tileheight="16" tilecount="300" columns="20">
  <image source="Fisherman_boat1_throws.png" width="320" height="240"/>
  <tile id="2">
   <animation>
    <frame tileid="2" duration="150"/>
    <frame tileid="7" duration="150"/>
    <frame tileid="12" duration="150"/>
    <frame tileid="17" duration="150"/>
    <frame tileid="102" duration="150"/>
    <frame tileid="107" duration="150"/>
    <frame tileid="112" duration="150"/>
    <frame tileid="117" duration="150"/>
    <frame tileid="202" duration="150"/>
    <frame tileid="207" duration="150"/>
    <frame tileid="212" duration="150"/>
    <frame tileid="217" duration="150"/>
   </animation>
  </tile>
  <tile id="3">
   <animation>
    <frame tileid="3" duration="150"/>
    <frame tileid="8" duration="150"/>
    <frame tileid="13" duration="150"/>
    <frame tileid="18" duration="150"/>
    <frame tileid="103" duration="150"/>
    <frame tileid="108" duration="150"/>
    <frame tileid="113" duration="150"/>
    <frame tileid="118" duration="150"/>
    <frame tileid="203" duration="150"/>
    <frame tileid="208" duration="150"/>
    <frame tileid="213" duration="150"/>
    <frame tileid="218" duration="150"/>
   </animation>
  </tile>
  <tile id="22">
   <animation>
    <frame tileid="22" duration="150"/>
    <frame tileid="27" duration="150"/>
    <frame tileid="32" duration="150"/>
    <frame tileid="37" duration="150"/>
    <frame tileid="122" duration="150"/>
    <frame tileid="127" duration="150"/>
    <frame tileid="132" duration="150"/>
    <frame tileid="137" duration="150"/>
    <frame tileid="222" duration="150"/>
    <frame tileid="227" duration="150"/>
    <frame tileid="232" duration="150"/>
    <frame tileid="237" duration="150"/>
   </animation>
  </tile>
  <tile id="23">
   <animation>
    <frame tileid="23" duration="150"/>
    <frame tileid="28" duration="150"/>
    <frame tileid="33" duration="150"/>
    <frame tileid="38" duration="150"/>
    <frame tileid="123" duration="150"/>
    <frame tileid="128" duration="150"/>
    <frame tileid="133" duration="150"/>
    <frame tileid="138" duration="150"/>
    <frame tileid="223" duration="150"/>
    <frame tileid="228" duration="150"/>
    <frame tileid="233" duration="150"/>
    <frame tileid="238" duration="150"/>
   </animation>
  </tile>
  <tile id="24">
   <animation>
    <frame tileid="24" duration="150"/>
    <frame tileid="29" duration="150"/>
    <frame tileid="34" duration="150"/>
    <frame tileid="39" duration="150"/>
    <frame tileid="124" duration="150"/>
    <frame tileid="129" duration="150"/>
    <frame tileid="134" duration="150"/>
    <frame tileid="139" duration="150"/>
    <frame tileid="224" duration="150"/>
    <frame tileid="229" duration="150"/>
    <frame tileid="234" duration="150"/>
    <frame tileid="239" duration="150"/>
   </animation>
  </tile>
  <tile id="41">
   <animation>
    <frame tileid="41" duration="150"/>
    <frame tileid="46" duration="150"/>
    <frame tileid="51" duration="150"/>
    <frame tileid="56" duration="150"/>
    <frame tileid="141" duration="150"/>
    <frame tileid="146" duration="150"/>
    <frame tileid="151" duration="150"/>
    <frame tileid="156" duration="150"/>
    <frame tileid="241" duration="150"/>
    <frame tileid="246" duration="150"/>
    <frame tileid="251" duration="150"/>
    <frame tileid="256" duration="150"/>
   </animation>
  </tile>
  <tile id="42">
   <animation>
    <frame tileid="42" duration="150"/>
    <frame tileid="47" duration="150"/>
    <frame tileid="52" duration="150"/>
    <frame tileid="57" duration="150"/>
    <frame tileid="142" duration="150"/>
    <frame tileid="147" duration="150"/>
    <frame tileid="152" duration="150"/>
    <frame tileid="157" duration="150"/>
    <frame tileid="242" duration="150"/>
    <frame tileid="247" duration="150"/>
    <frame tileid="252" duration="150"/>
    <frame tileid="257" duration="150"/>
   </animation>
  </tile>
  <tile id="43">
   <animation>
    <frame tileid="43" duration="150"/>
    <frame tileid="48" duration="150"/>
    <frame tileid="53" duration="150"/>
    <frame tileid="58" duration="150"/>
    <frame tileid="143" duration="150"/>
    <frame tileid="148" duration="150"/>
    <frame tileid="153" duration="150"/>
    <frame tileid="158" duration="150"/>
    <frame tileid="243" duration="150"/>
    <frame tileid="248" duration="150"/>
    <frame tileid="253" duration="150"/>
    <frame tileid="258" duration="150"/>
   </animation>
  </tile>
  <tile id="44">
   <animation>
    <frame tileid="44" duration="150"/>
    <frame tileid="49" duration="150"/>
    <frame tileid="54" duration="150"/>
    <frame tileid="59" duration="150"/>
    <frame tileid="144" duration="150"/>
    <frame tileid="149" duration="150"/>
    <frame tileid="154" duration="150"/>
    <frame tileid="159" duration="150"/>
    <frame tileid="244" duration="150"/>
    <frame tileid="249" duration="150"/>
    <frame tileid="254" duration="150"/>
    <frame tileid="259" duration="150"/>
   </animation>
  </tile>
  <tile id="61">
   <animation>
    <frame tileid="61" duration="150"/>
    <frame tileid="66" duration="150"/>
    <frame tileid="71" duration="150"/>
    <frame tileid="76" duration="150"/>
    <frame tileid="161" duration="150"/>
    <frame tileid="166" duration="150"/>
    <frame tileid="171" duration="150"/>
    <frame tileid="176" duration="150"/>
    <frame tileid="261" duration="150"/>
    <frame tileid="266" duration="150"/>
    <frame tileid="271" duration="150"/>
    <frame tileid="276" duration="150"/>
   </animation>
  </tile>
  <tile id="80">
   <animation>
    <frame tileid="80" duration="150"/>
    <frame tileid="85" duration="150"/>
    <frame tileid="90" duration="150"/>
    <frame tileid="95" duration="150"/>
    <frame tileid="180" duration="150"/>
    <frame tileid="185" duration="150"/>
    <frame tileid="190" duration="150"/>
    <frame tileid="195" duration="150"/>
    <frame tileid="280" duration="150"/>
    <frame tileid="285" duration="150"/>
    <frame tileid="290" duration="150"/>
    <frame tileid="295" duration="150"/>
   </animation>
  </tile>
  <tile id="81">
   <animation>
    <frame tileid="81" duration="150"/>
    <frame tileid="86" duration="150"/>
    <frame tileid="91" duration="150"/>
    <frame tileid="96" duration="150"/>
    <frame tileid="181" duration="150"/>
    <frame tileid="186" duration="150"/>
    <frame tileid="191" duration="150"/>
    <frame tileid="196" duration="150"/>
    <frame tileid="281" duration="150"/>
    <frame tileid="286" duration="150"/>
    <frame tileid="291" duration="150"/>
    <frame tileid="296" duration="150"/>
   </animation>
  </tile>
 </tileset>
 <tileset firstgid="5053" name="Old_man_orders" tilewidth="16" tileheight="16" tilecount="40" columns="20">
  <image source="Old_man_orders.png" width="320" height="32"/>
  <tile id="0">
   <animation>
    <frame tileid="0" duration="150"/>
    <frame tileid="2" duration="150"/>
    <frame tileid="4" duration="150"/>
    <frame tileid="6" duration="150"/>
    <frame tileid="8" duration="150"/>
    <frame tileid="10" duration="150"/>
    <frame tileid="12" duration="150"/>
    <frame tileid="14" duration="150"/>
    <frame tileid="16" duration="150"/>
    <frame tileid="18" duration="150"/>
   </animation>
  </tile>
  <tile id="1">
   <animation>
    <frame tileid="1" duration="150"/>
    <frame tileid="3" duration="150"/>
    <frame tileid="5" duration="150"/>
    <frame tileid="7" duration="150"/>
    <frame tileid="9" duration="150"/>
    <frame tileid="11" duration="150"/>
    <frame tileid="13" duration="150"/>
    <frame tileid="15" duration="150"/>
    <frame tileid="17" duration="150"/>
    <frame tileid="19" duration="150"/>
   </animation>
  </tile>
  <tile id="20">
   <animation>
    <frame tileid="20" duration="150"/>
    <frame tileid="22" duration="150"/>
    <frame tileid="24" duration="150"/>
    <frame tileid="26" duration="150"/>
    <frame tileid="28" duration="150"/>
    <frame tileid="30" duration="150"/>
    <frame tileid="32" duration="150"/>
    <frame tileid="34" duration="150"/>
    <frame tileid="36" duration="150"/>
    <frame tileid="38" duration="150"/>
   </animation>
  </tile>
  <tile id="21">
   <animation>
    <frame tileid="21" duration="150"/>
    <frame tileid="23" duration="150"/>
    <frame tileid="25" duration="150"/>
    <frame tileid="27" duration="150"/>
    <frame tileid="29" duration="150"/>
    <frame tileid="31" duration="150"/>
    <frame tileid="33" duration="150"/>
    <frame tileid="35" duration="150"/>
    <frame tileid="37" duration="150"/>
    <frame tileid="39" duration="150"/>
   </animation>
  </tile>
 </tileset>
 <tileset firstgid="5093" name="Old_man_idle" tilewidth="16" tileheight="16" tilecount="40" columns="20">
  <image source="Old_man_idle.png" width="320" height="32"/>
  <tile id="0">
   <animation>
    <frame tileid="0" duration="150"/>
    <frame tileid="2" duration="150"/>
    <frame tileid="4" duration="150"/>
    <frame tileid="6" duration="150"/>
    <frame tileid="8" duration="150"/>
    <frame tileid="10" duration="150"/>
    <frame tileid="12" duration="150"/>
    <frame tileid="14" duration="150"/>
    <frame tileid="16" duration="150"/>
    <frame tileid="18" duration="150"/>
   </animation>
  </tile>
  <tile id="1">
   <animation>
    <frame tileid="1" duration="150"/>
    <frame tileid="3" duration="150"/>
    <frame tileid="5" duration="150"/>
    <frame tileid="7" duration="150"/>
    <frame tileid="9" duration="150"/>
    <frame tileid="11" duration="150"/>
    <frame tileid="13" duration="150"/>
    <frame tileid="15" duration="150"/>
    <frame tileid="17" duration="150"/>
    <frame tileid="19" duration="150"/>
   </animation>
  </tile>
  <tile id="20">
   <animation>
    <frame tileid="20" duration="150"/>
    <frame tileid="22" duration="150"/>
    <frame tileid="24" duration="150"/>
    <frame tileid="26" duration="150"/>
    <frame tileid="28" duration="150"/>
    <frame tileid="30" duration="150"/>
    <frame tileid="32" duration="150"/>
    <frame tileid="34" duration="150"/>
    <frame tileid="36" duration="150"/>
    <frame tileid="38" duration="150"/>
   </animation>
  </tile>
  <tile id="21">
   <animation>
    <frame tileid="21" duration="150"/>
    <frame tileid="23" duration="150"/>
    <frame tileid="25" duration="150"/>
    <frame tileid="27" duration="150"/>
    <frame tileid="29" duration="150"/>
    <frame tileid="31" duration="150"/>
    <frame tileid="33" duration="150"/>
    <frame tileid="35" duration="150"/>
    <frame tileid="37" duration="150"/>
    <frame tileid="39" duration="150"/>
   </animation>
  </tile>
 </tileset>
 <tileset firstgid="5133" name="Cobold_on_floor" tilewidth="16" tileheight="16" tilecount="12" columns="6">
  <image source="Cobold_on_floor.png" width="96" height="32"/>
  <tile id="0">
   <animation>
    <frame tileid="0" duration="150"/>
    <frame tileid="0" duration="150"/>
    <frame tileid="0" duration="150"/>
    <frame tileid="2" duration="150"/>
    <frame tileid="4" duration="150"/>
    <frame tileid="2" duration="150"/>
   </animation>
  </tile>
  <tile id="1">
   <animation>
    <frame tileid="1" duration="150"/>
    <frame tileid="1" duration="150"/>
    <frame tileid="1" duration="150"/>
    <frame tileid="3" duration="150"/>
    <frame tileid="5" duration="150"/>
    <frame tileid="3" duration="150"/>
   </animation>
  </tile>
  <tile id="6">
   <animation>
    <frame tileid="6" duration="150"/>
    <frame tileid="6" duration="150"/>
    <frame tileid="6" duration="150"/>
    <frame tileid="8" duration="150"/>
    <frame tileid="10" duration="150"/>
    <frame tileid="8" duration="150"/>
   </animation>
  </tile>
  <tile id="7">
   <animation>
    <frame tileid="7" duration="150"/>
    <frame tileid="7" duration="150"/>
    <frame tileid="7" duration="150"/>
    <frame tileid="9" duration="150"/>
    <frame tileid="11" duration="150"/>
    <frame tileid="9" duration="150"/>
   </animation>
  </tile>
 </tileset>
 <tileset firstgid="5145" name="Cobold_on_shark" tilewidth="16" tileheight="16" tilecount="18" columns="6">
  <image source="Cobold_on_shark.png" width="96" height="48"/>
  <tile id="0">
   <animation>
    <frame tileid="0" duration="150"/>
    <frame tileid="0" duration="150"/>
    <frame tileid="0" duration="150"/>
    <frame tileid="2" duration="150"/>
    <frame tileid="4" duration="150"/>
    <frame tileid="2" duration="150"/>
   </animation>
  </tile>
  <tile id="1">
   <animation>
    <frame tileid="1" duration="150"/>
    <frame tileid="1" duration="150"/>
    <frame tileid="1" duration="150"/>
    <frame tileid="3" duration="150"/>
    <frame tileid="5" duration="150"/>
    <frame tileid="3" duration="150"/>
   </animation>
  </tile>
  <tile id="6">
   <animation>
    <frame tileid="6" duration="150"/>
    <frame tileid="6" duration="150"/>
    <frame tileid="6" duration="150"/>
    <frame tileid="8" duration="150"/>
    <frame tileid="10" duration="150"/>
    <frame tileid="8" duration="150"/>
   </animation>
  </tile>
  <tile id="7">
   <animation>
    <frame tileid="7" duration="150"/>
    <frame tileid="7" duration="150"/>
    <frame tileid="7" duration="150"/>
    <frame tileid="9" duration="150"/>
    <frame tileid="11" duration="150"/>
    <frame tileid="9" duration="150"/>
   </animation>
  </tile>
  <tile id="12">
   <animation>
    <frame tileid="12" duration="150"/>
    <frame tileid="12" duration="150"/>
    <frame tileid="12" duration="150"/>
    <frame tileid="14" duration="150"/>
    <frame tileid="16" duration="150"/>
    <frame tileid="14" duration="150"/>
   </animation>
  </tile>
  <tile id="13">
   <animation>
    <frame tileid="13" duration="150"/>
    <frame tileid="13" duration="150"/>
    <frame tileid="13" duration="150"/>
    <frame tileid="15" duration="150"/>
    <frame tileid="17" duration="150"/>
    <frame tileid="15" duration="150"/>
   </animation>
  </tile>
 </tileset>
 <tileset firstgid="5163" name="Boy_amazed" tilewidth="16" tileheight="16" tilecount="72" columns="24">
  <image source="Boy_amazed.png" width="384" height="48"/>
  <tile id="0">
   <animation>
    <frame tileid="0" duration="150"/>
    <frame tileid="2" duration="150"/>
    <frame tileid="4" duration="150"/>
    <frame tileid="6" duration="150"/>
    <frame tileid="8" duration="150"/>
    <frame tileid="10" duration="150"/>
    <frame tileid="12" duration="150"/>
    <frame tileid="14" duration="150"/>
    <frame tileid="16" duration="150"/>
    <frame tileid="18" duration="150"/>
    <frame tileid="20" duration="150"/>
    <frame tileid="22" duration="150"/>
   </animation>
  </tile>
  <tile id="1">
   <animation>
    <frame tileid="1" duration="150"/>
    <frame tileid="3" duration="150"/>
    <frame tileid="5" duration="150"/>
    <frame tileid="7" duration="150"/>
    <frame tileid="9" duration="150"/>
    <frame tileid="11" duration="150"/>
    <frame tileid="13" duration="150"/>
    <frame tileid="15" duration="150"/>
    <frame tileid="17" duration="150"/>
    <frame tileid="19" duration="150"/>
    <frame tileid="21" duration="150"/>
    <frame tileid="23" duration="150"/>
   </animation>
  </tile>
  <tile id="24">
   <animation>
    <frame tileid="24" duration="150"/>
    <frame tileid="26" duration="150"/>
    <frame tileid="28" duration="150"/>
    <frame tileid="30" duration="150"/>
    <frame tileid="32" duration="150"/>
    <frame tileid="34" duration="150"/>
    <frame tileid="36" duration="150"/>
    <frame tileid="38" duration="150"/>
    <frame tileid="40" duration="150"/>
    <frame tileid="42" duration="150"/>
    <frame tileid="44" duration="150"/>
    <frame tileid="46" duration="150"/>
   </animation>
  </tile>
  <tile id="25">
   <animation>
    <frame tileid="25" duration="150"/>
    <frame tileid="27" duration="150"/>
    <frame tileid="29" duration="150"/>
    <frame tileid="31" duration="150"/>
    <frame tileid="33" duration="150"/>
    <frame tileid="35" duration="150"/>
    <frame tileid="37" duration="150"/>
    <frame tileid="39" duration="150"/>
    <frame tileid="41" duration="150"/>
    <frame tileid="43" duration="150"/>
    <frame tileid="45" duration="150"/>
    <frame tileid="47" duration="150"/>
   </animation>
  </tile>
  <tile id="48">
   <animation>
    <frame tileid="48" duration="150"/>
    <frame tileid="50" duration="150"/>
    <frame tileid="52" duration="150"/>
    <frame tileid="54" duration="150"/>
    <frame tileid="56" duration="150"/>
    <frame tileid="58" duration="150"/>
    <frame tileid="60" duration="150"/>
    <frame tileid="62" duration="150"/>
    <frame tileid="64" duration="150"/>
    <frame tileid="66" duration="150"/>
    <frame tileid="68" duration="150"/>
    <frame tileid="70" duration="150"/>
   </animation>
  </tile>
  <tile id="49">
   <animation>
    <frame tileid="49" duration="150"/>
    <frame tileid="51" duration="150"/>
    <frame tileid="53" duration="150"/>
    <frame tileid="55" duration="150"/>
    <frame tileid="57" duration="150"/>
    <frame tileid="59" duration="150"/>
    <frame tileid="61" duration="150"/>
    <frame tileid="63" duration="150"/>
    <frame tileid="65" duration="150"/>
    <frame tileid="67" duration="150"/>
    <frame tileid="69" duration="150"/>
    <frame tileid="71" duration="150"/>
   </animation>
  </tile>
 </tileset>
 <tileset firstgid="5235" name="Boy_amazed" tilewidth="16" tileheight="16" tilecount="72" columns="24">
  <image source="Boy_amazed_without_shadow.png" width="384" height="48"/>
  <tile id="0">
   <animation>
    <frame tileid="0" duration="150"/>
    <frame tileid="2" duration="150"/>
    <frame tileid="4" duration="150"/>
    <frame tileid="6" duration="150"/>
    <frame tileid="8" duration="150"/>
    <frame tileid="10" duration="150"/>
    <frame tileid="12" duration="150"/>
    <frame tileid="14" duration="150"/>
    <frame tileid="16" duration="150"/>
    <frame tileid="18" duration="150"/>
    <frame tileid="20" duration="150"/>
    <frame tileid="22" duration="150"/>
   </animation>
  </tile>
  <tile id="1">
   <animation>
    <frame tileid="1" duration="150"/>
    <frame tileid="3" duration="150"/>
    <frame tileid="5" duration="150"/>
    <frame tileid="7" duration="150"/>
    <frame tileid="9" duration="150"/>
    <frame tileid="11" duration="150"/>
    <frame tileid="13" duration="150"/>
    <frame tileid="15" duration="150"/>
    <frame tileid="17" duration="150"/>
    <frame tileid="19" duration="150"/>
    <frame tileid="21" duration="150"/>
    <frame tileid="23" duration="150"/>
   </animation>
  </tile>
  <tile id="24">
   <animation>
    <frame tileid="24" duration="150"/>
    <frame tileid="26" duration="150"/>
    <frame tileid="28" duration="150"/>
    <frame tileid="30" duration="150"/>
    <frame tileid="32" duration="150"/>
    <frame tileid="34" duration="150"/>
    <frame tileid="36" duration="150"/>
    <frame tileid="38" duration="150"/>
    <frame tileid="40" duration="150"/>
    <frame tileid="42" duration="150"/>
    <frame tileid="44" duration="150"/>
    <frame tileid="46" duration="150"/>
   </animation>
  </tile>
  <tile id="25">
   <animation>
    <frame tileid="25" duration="150"/>
    <frame tileid="27" duration="150"/>
    <frame tileid="29" duration="150"/>
    <frame tileid="31" duration="150"/>
    <frame tileid="33" duration="150"/>
    <frame tileid="35" duration="150"/>
    <frame tileid="37" duration="150"/>
    <frame tileid="39" duration="150"/>
    <frame tileid="41" duration="150"/>
    <frame tileid="43" duration="150"/>
    <frame tileid="45" duration="150"/>
    <frame tileid="47" duration="150"/>
   </animation>
  </tile>
  <tile id="48">
   <animation>
    <frame tileid="48" duration="150"/>
    <frame tileid="50" duration="150"/>
    <frame tileid="52" duration="150"/>
    <frame tileid="54" duration="150"/>
    <frame tileid="56" duration="150"/>
    <frame tileid="58" duration="150"/>
    <frame tileid="60" duration="150"/>
    <frame tileid="62" duration="150"/>
    <frame tileid="64" duration="150"/>
    <frame tileid="66" duration="150"/>
    <frame tileid="68" duration="150"/>
    <frame tileid="70" duration="150"/>
   </animation>
  </tile>
  <tile id="49">
   <animation>
    <frame tileid="49" duration="150"/>
    <frame tileid="51" duration="150"/>
    <frame tileid="53" duration="150"/>
    <frame tileid="55" duration="150"/>
    <frame tileid="57" duration="150"/>
    <frame tileid="59" duration="150"/>
    <frame tileid="61" duration="150"/>
    <frame tileid="63" duration="150"/>
    <frame tileid="65" duration="150"/>
    <frame tileid="67" duration="150"/>
    <frame tileid="69" duration="150"/>
    <frame tileid="71" duration="150"/>
   </animation>
  </tile>
 </tileset>
 <tileset firstgid="5307" name="Old_man_idle" tilewidth="16" tileheight="16" tilecount="40" columns="20">
  <image source="Old_man_idle_without_shadow.png" width="320" height="32"/>
  <tile id="0">
   <animation>
    <frame tileid="0" duration="150"/>
    <frame tileid="2" duration="150"/>
    <frame tileid="4" duration="150"/>
    <frame tileid="6" duration="150"/>
    <frame tileid="8" duration="150"/>
    <frame tileid="10" duration="150"/>
    <frame tileid="12" duration="150"/>
    <frame tileid="14" duration="150"/>
    <frame tileid="16" duration="150"/>
    <frame tileid="18" duration="150"/>
   </animation>
  </tile>
  <tile id="1">
   <animation>
    <frame tileid="1" duration="150"/>
    <frame tileid="3" duration="150"/>
    <frame tileid="5" duration="150"/>
    <frame tileid="7" duration="150"/>
    <frame tileid="9" duration="150"/>
    <frame tileid="11" duration="150"/>
    <frame tileid="13" duration="150"/>
    <frame tileid="15" duration="150"/>
    <frame tileid="17" duration="150"/>
    <frame tileid="19" duration="150"/>
   </animation>
  </tile>
  <tile id="20">
   <animation>
    <frame tileid="20" duration="150"/>
    <frame tileid="22" duration="150"/>
    <frame tileid="24" duration="150"/>
    <frame tileid="26" duration="150"/>
    <frame tileid="28" duration="150"/>
    <frame tileid="30" duration="150"/>
    <frame tileid="32" duration="150"/>
    <frame tileid="34" duration="150"/>
    <frame tileid="36" duration="150"/>
    <frame tileid="38" duration="150"/>
   </animation>
  </tile>
  <tile id="21">
   <animation>
    <frame tileid="21" duration="150"/>
    <frame tileid="23" duration="150"/>
    <frame tileid="25" duration="150"/>
    <frame tileid="27" duration="150"/>
    <frame tileid="29" duration="150"/>
    <frame tileid="31" duration="150"/>
    <frame tileid="33" duration="150"/>
    <frame tileid="35" duration="150"/>
    <frame tileid="37" duration="150"/>
    <frame tileid="39" duration="150"/>
   </animation>
  </tile>
 </tileset>
 <tileset firstgid="5347" name="Cobold_on_floor" tilewidth="16" tileheight="16" tilecount="12" columns="6">
  <image source="Cobold_on_floor_without_shadow.png" width="96" height="32"/>
  <tile id="0">
   <animation>
    <frame tileid="0" duration="150"/>
    <frame tileid="0" duration="150"/>
    <frame tileid="0" duration="150"/>
    <frame tileid="2" duration="150"/>
    <frame tileid="4" duration="150"/>
    <frame tileid="2" duration="150"/>
   </animation>
  </tile>
  <tile id="1">
   <animation>
    <frame tileid="1" duration="150"/>
    <frame tileid="1" duration="150"/>
    <frame tileid="1" duration="150"/>
    <frame tileid="3" duration="150"/>
    <frame tileid="5" duration="150"/>
    <frame tileid="3" duration="150"/>
   </animation>
  </tile>
  <tile id="6">
   <animation>
    <frame tileid="6" duration="150"/>
    <frame tileid="6" duration="150"/>
    <frame tileid="6" duration="150"/>
    <frame tileid="8" duration="150"/>
    <frame tileid="10" duration="150"/>
    <frame tileid="8" duration="150"/>
   </animation>
  </tile>
  <tile id="7">
   <animation>
    <frame tileid="7" duration="150"/>
    <frame tileid="7" duration="150"/>
    <frame tileid="7" duration="150"/>
    <frame tileid="9" duration="150"/>
    <frame tileid="11" duration="150"/>
    <frame tileid="9" duration="150"/>
   </animation>
  </tile>
 </tileset>
 <tileset firstgid="5359" name="Old_man_orders" tilewidth="16" tileheight="16" tilecount="40" columns="20">
  <image source="Old_man_orders_without_shadow.png" width="320" height="32"/>
  <tile id="0">
   <animation>
    <frame tileid="0" duration="150"/>
    <frame tileid="2" duration="150"/>
    <frame tileid="4" duration="150"/>
    <frame tileid="6" duration="150"/>
    <frame tileid="8" duration="150"/>
    <frame tileid="10" duration="150"/>
    <frame tileid="12" duration="150"/>
    <frame tileid="14" duration="150"/>
    <frame tileid="16" duration="150"/>
    <frame tileid="18" duration="150"/>
   </animation>
  </tile>
  <tile id="1">
   <animation>
    <frame tileid="1" duration="150"/>
    <frame tileid="3" duration="150"/>
    <frame tileid="5" duration="150"/>
    <frame tileid="7" duration="150"/>
    <frame tileid="9" duration="150"/>
    <frame tileid="11" duration="150"/>
    <frame tileid="13" duration="150"/>
    <frame tileid="15" duration="150"/>
    <frame tileid="17" duration="150"/>
    <frame tileid="19" duration="150"/>
   </animation>
  </tile>
  <tile id="20">
   <animation>
    <frame tileid="20" duration="150"/>
    <frame tileid="22" duration="150"/>
    <frame tileid="24" duration="150"/>
    <frame tileid="26" duration="150"/>
    <frame tileid="28" duration="150"/>
    <frame tileid="30" duration="150"/>
    <frame tileid="32" duration="150"/>
    <frame tileid="34" duration="150"/>
    <frame tileid="36" duration="150"/>
    <frame tileid="38" duration="150"/>
   </animation>
  </tile>
  <tile id="21">
   <animation>
    <frame tileid="21" duration="150"/>
    <frame tileid="23" duration="150"/>
    <frame tileid="25" duration="150"/>
    <frame tileid="27" duration="150"/>
    <frame tileid="29" duration="150"/>
    <frame tileid="31" duration="150"/>
    <frame tileid="33" duration="150"/>
    <frame tileid="35" duration="150"/>
    <frame tileid="37" duration="150"/>
    <frame tileid="39" duration="150"/>
   </animation>
  </tile>
 </tileset>
 <tileset firstgid="5399" name="Cobold_shadow" tilewidth="16" tileheight="16" tilecount="2" columns="2">
  <image source="Cobold_shadow.png" width="32" height="16"/>
 </tileset>
 <tileset firstgid="5401" name="Old_man_shadow" tilewidth="16" tileheight="16" tilecount="2" columns="2">
  <image source="Old_man_shadow.png" width="32" height="16"/>
 </tileset>
 <tileset firstgid="5403" name="Boy_shadow" tilewidth="16" tileheight="16" tilecount="4" columns="2">
  <image source="Boy_shadow.png" width="32" height="32"/>
 </tileset>
 <tileset firstgid="5407" name="Seller_gramma" tilewidth="16" tileheight="16" tilecount="60" columns="12">
  <image source="Seller_gramma.png" width="192" height="80"/>
  <tile id="0">
   <animation>
    <frame tileid="0" duration="150"/>
    <frame tileid="1" duration="150"/>
    <frame tileid="2" duration="150"/>
    <frame tileid="3" duration="150"/>
    <frame tileid="4" duration="150"/>
    <frame tileid="5" duration="150"/>
    <frame tileid="6" duration="150"/>
    <frame tileid="7" duration="150"/>
    <frame tileid="8" duration="150"/>
    <frame tileid="9" duration="150"/>
    <frame tileid="10" duration="150"/>
    <frame tileid="11" duration="150"/>
   </animation>
  </tile>
  <tile id="12">
   <animation>
    <frame tileid="12" duration="150"/>
    <frame tileid="13" duration="150"/>
    <frame tileid="14" duration="150"/>
    <frame tileid="15" duration="150"/>
    <frame tileid="16" duration="150"/>
    <frame tileid="17" duration="150"/>
    <frame tileid="18" duration="150"/>
    <frame tileid="19" duration="150"/>
    <frame tileid="20" duration="150"/>
    <frame tileid="21" duration="150"/>
    <frame tileid="22" duration="150"/>
    <frame tileid="23" duration="150"/>
   </animation>
  </tile>
  <tile id="24">
   <animation>
    <frame tileid="24" duration="150"/>
    <frame tileid="25" duration="150"/>
    <frame tileid="26" duration="150"/>
    <frame tileid="27" duration="150"/>
    <frame tileid="28" duration="150"/>
    <frame tileid="29" duration="150"/>
    <frame tileid="30" duration="150"/>
    <frame tileid="31" duration="150"/>
    <frame tileid="32" duration="150"/>
    <frame tileid="33" duration="150"/>
    <frame tileid="34" duration="150"/>
    <frame tileid="35" duration="150"/>
   </animation>
  </tile>
  <tile id="36">
   <animation>
    <frame tileid="36" duration="150"/>
    <frame tileid="37" duration="150"/>
    <frame tileid="38" duration="150"/>
    <frame tileid="39" duration="150"/>
    <frame tileid="40" duration="150"/>
    <frame tileid="41" duration="150"/>
    <frame tileid="42" duration="150"/>
    <frame tileid="43" duration="150"/>
    <frame tileid="44" duration="150"/>
    <frame tileid="45" duration="150"/>
    <frame tileid="46" duration="150"/>
    <frame tileid="47" duration="150"/>
   </animation>
  </tile>
  <tile id="48">
   <animation>
    <frame tileid="48" duration="150"/>
    <frame tileid="49" duration="150"/>
    <frame tileid="50" duration="150"/>
    <frame tileid="51" duration="150"/>
    <frame tileid="52" duration="150"/>
    <frame tileid="53" duration="150"/>
    <frame tileid="54" duration="150"/>
    <frame tileid="55" duration="150"/>
    <frame tileid="56" duration="150"/>
    <frame tileid="57" duration="150"/>
    <frame tileid="58" duration="150"/>
    <frame tileid="59" duration="150"/>
   </animation>
  </tile>
 </tileset>
 <layer id="2" name="Fish" width="16" height="24">
  <data encoding="csv">
   <chunk x="0" y="-16" width="16" height="16">
0,0,0,0,0,0,0,0,0,0,0,0,0,0,0,0,
0,0,0,0,0,0,0,0,0,0,0,0,0,0,0,0,
0,0,0,0,0,0,0,0,0,0,0,0,0,0,0,0,
0,0,0,0,0,0,0,0,0,0,0,0,0,0,0,0,
0,0,0,0,0,0,0,0,0,0,0,0,0,0,0,0,
0,0,0,0,0,0,0,0,0,0,0,0,0,0,0,0,
0,0,0,0,0,0,0,0,0,0,0,0,0,0,0,0,
0,0,0,0,0,0,0,0,0,0,0,0,0,0,0,0,
0,0,0,0,0,0,0,0,0,0,0,0,0,0,0,0,
0,0,1603,1604,0,1639,1640,1641,1549,1550,1551,1513,1514,0,0,0,
0,0,1621,1622,0,1666,1667,1668,1576,1577,1578,1531,1532,0,0,0,
0,0,0,0,0,0,0,0,0,0,0,0,0,0,0,0,
0,0,0,0,0,0,0,0,0,0,0,0,0,0,0,0,
0,0,0,0,0,0,0,0,0,0,0,0,0,0,0,0,
0,0,0,0,0,0,0,0,0,0,0,0,0,0,0,0,
0,0,0,0,0,0,0,0,0,0,0,0,0,0,0,0
</chunk>
  </data>
 </layer>
 <layer id="1" name="Boats" width="16" height="24">
  <data encoding="csv">
   <chunk x="0" y="-16" width="16" height="16">
0,0,0,0,0,0,0,0,0,0,0,0,0,0,0,0,
0,0,0,0,0,0,0,0,0,0,0,0,0,0,0,0,
0,0,0,0,0,0,0,0,0,0,0,0,0,0,0,0,
0,0,0,0,0,0,0,0,0,0,0,0,0,0,0,0,
0,0,0,0,0,0,0,0,0,0,0,0,0,0,0,0,
0,0,0,0,0,0,0,0,0,0,0,0,0,0,0,0,
0,0,0,0,0,0,0,0,0,0,0,0,0,0,0,0,
0,0,0,0,0,0,0,0,0,0,0,0,0,0,0,0,
0,0,0,0,0,0,0,0,0,0,0,0,0,0,0,0,
0,0,0,0,0,0,0,0,0,0,0,0,0,0,0,0,
0,0,0,0,0,0,0,0,0,0,0,0,0,0,0,0,
0,0,0,0,0,0,0,0,0,0,0,0,0,0,0,0,
0,1,2,3,217,218,219,433,434,435,649,650,651,865,866,867,
0,37,38,39,253,254,255,469,470,471,685,686,687,901,902,903,
0,73,74,75,289,290,291,505,506,507,721,722,723,937,938,939,
0,109,110,111,325,326,327,541,542,543,757,758,759,973,974,975
</chunk>
   <chunk x="16" y="-16" width="16" height="16">
0,0,0,0,0,0,0,0,0,0,0,0,0,0,0,0,
0,0,0,0,0,0,0,0,0,0,0,0,0,0,0,0,
0,0,0,0,0,0,0,0,0,0,0,0,0,0,0,0,
0,0,0,0,0,0,0,0,0,0,0,0,0,0,0,0,
0,0,0,0,0,0,0,0,0,0,0,0,0,0,0,0,
0,0,0,0,0,0,0,0,0,0,0,0,0,0,0,0,
0,0,0,0,0,0,0,0,0,0,0,0,0,0,0,0,
0,0,0,0,0,0,0,0,0,0,0,0,0,0,0,0,
0,0,0,0,0,0,0,0,0,0,0,0,0,0,0,0,
0,0,0,0,0,0,0,0,0,0,0,0,0,0,0,0,
0,0,0,0,0,0,0,0,0,0,0,0,0,0,0,0,
0,0,0,0,0,0,0,0,0,0,0,0,0,0,0,0,
1081,1082,1083,1297,1298,1299,1693,1694,1695,1909,1910,1911,2161,2162,2163,0,
1117,1118,1119,1333,1334,1335,1729,1730,1731,1945,1946,1947,2197,2198,2199,0,
1153,1154,1155,1369,1370,1371,1765,1766,1767,1981,1982,1983,2233,2234,2235,0,
1189,1190,1191,1405,1406,1407,1801,1802,1803,2017,2018,2019,2269,2270,2271,0
</chunk>
   <chunk x="0" y="0" width="16" height="16">
0,145,146,147,361,362,363,577,578,579,793,794,795,1009,1010,1011,
0,181,182,183,397,398,399,613,614,615,829,830,831,1045,1046,1047,
2413,2414,2415,2416,2417,2418,2419,2420,2421,2422,0,0,0,0,0,0,
2453,2454,2455,2456,2457,2458,2459,2460,2461,2462,3441,3442,3443,3444,3445,3446,
2493,2494,2495,2496,2497,2498,2499,2500,2501,2502,3485,3486,3487,3488,3489,3490,
2533,2534,2535,2536,2537,2538,2539,2540,2541,2542,3529,3530,3531,3532,3533,3534,
2573,2574,2575,2576,2577,2578,2579,2580,2581,2582,3573,3574,3575,3576,3577,3578,
2613,2614,2615,2616,2617,2618,2619,2620,2621,2622,3617,3618,3619,3620,3621,3622,
2653,2654,2655,2656,2657,2658,2659,2660,2661,2662,3661,3662,3663,3664,3665,3666,
0,0,0,0,0,0,0,0,0,0,3705,3706,3707,3708,3709,3710,
0,0,0,0,0,0,0,0,0,0,0,0,0,0,0,0,
0,0,0,0,0,0,0,0,0,0,0,0,0,0,0,0,
0,0,0,0,0,0,0,0,0,0,0,0,0,0,0,0,
0,0,0,0,0,0,0,0,0,0,0,0,0,0,0,0,
0,0,0,0,0,0,0,0,0,0,0,0,0,0,0,0,
0,0,0,0,0,0,0,0,0,0,0,0,0,0,0,0
</chunk>
   <chunk x="16" y="0" width="16" height="16">
1225,1226,1227,1441,1442,1443,1837,1838,1839,2053,2054,2055,2305,2306,2307,0,
1261,1262,1263,1477,1478,1479,1873,1874,1875,2089,2090,2091,2341,2342,2343,0,
0,0,3405,0,0,0,0,0,0,0,0,0,0,0,0,0,
3447,3448,3449,3450,3451,0,0,0,0,0,0,0,0,0,0,0,
3491,3492,3493,3494,3495,0,0,0,0,0,0,0,0,0,0,0,
3535,3536,3537,3538,3539,0,0,0,0,0,0,0,0,0,0,0,
3579,3580,3581,3582,3583,0,0,0,0,0,0,0,0,0,0,0,
3623,3624,3625,3626,3627,0,0,0,0,0,0,0,0,0,0,0,
3667,3668,3669,3670,3671,0,0,0,0,0,0,0,0,0,0,0,
3711,3712,3713,3714,3715,0,0,0,0,0,0,0,0,0,0,0,
0,0,0,0,0,0,0,0,0,0,0,0,0,0,0,0,
0,0,0,0,0,0,0,0,0,0,0,0,0,0,0,0,
0,0,0,0,0,0,0,0,0,0,0,0,0,0,0,0,
0,0,0,0,0,0,0,0,0,0,0,0,0,0,0,0,
0,0,0,0,0,0,0,0,0,0,0,0,0,0,0,0,
0,0,0,0,0,0,0,0,0,0,0,0,0,0,0,0
</chunk>
  </data>
 </layer>
 <layer id="3" name="Characters_no_shadow" width="16" height="24">
  <data encoding="csv">
   <chunk x="0" y="0" width="16" height="16">
0,0,0,0,0,0,0,0,0,0,0,0,0,0,0,0,
0,0,0,0,0,0,0,0,0,0,0,0,0,0,0,0,
0,0,0,0,0,0,0,0,0,0,0,0,0,0,0,0,
0,0,0,0,0,0,0,0,0,0,0,0,0,0,0,0,
0,0,0,0,0,0,0,0,0,0,0,0,0,0,0,0,
0,0,0,0,0,0,0,0,0,0,0,0,0,0,0,0,
0,0,0,0,0,0,0,0,0,0,0,0,0,0,0,0,
0,0,0,0,0,0,0,0,0,0,0,0,0,0,0,0,
0,0,0,0,0,0,0,0,0,0,0,0,0,0,0,0,
0,0,0,0,0,0,0,4453,4454,4455,4456,4457,4753,4754,4755,4756,
3253,3254,0,3325,3326,0,0,4473,4474,4475,4476,4477,4773,4774,4775,4776,
3277,3278,0,3349,3350,0,0,4493,4494,4495,4496,4497,4793,4794,4795,4796,
3301,3302,0,3373,3374,0,0,4513,4514,4515,4516,4517,4813,4814,4815,5145,
0,0,0,0,0,0,0,4533,4534,4535,4536,4537,4833,4834,4835,5151,
0,0,0,0,0,0,0,0,0,0,0,0,0,0,0,5157,
0,0,0,0,0,0,0,0,0,0,0,0,0,0,0,0
</chunk>
   <chunk x="16" y="0" width="16" height="16">
0,0,0,0,0,0,0,0,0,0,0,0,0,0,0,0,
0,0,0,0,0,0,0,0,0,0,0,0,0,0,0,0,
0,0,0,0,0,0,0,0,0,0,0,0,0,0,0,0,
0,0,0,0,0,0,0,0,0,0,0,0,0,0,0,0,
0,0,0,0,0,0,0,0,0,0,0,0,0,0,0,0,
0,0,0,0,0,0,0,0,0,0,0,0,0,0,0,0,
0,0,0,0,0,0,0,0,0,0,0,0,0,0,0,0,
0,0,0,0,0,0,0,0,0,0,0,0,0,0,0,0,
0,0,0,0,0,0,0,0,5407,0,0,0,0,0,0,0,
4757,0,0,0,0,0,0,0,5419,0,0,0,0,0,0,0,
4777,0,0,0,0,0,0,0,5431,0,0,0,0,0,0,0,
4797,0,0,0,0,0,0,0,5443,0,0,0,0,0,0,0,
5146,0,0,0,0,0,0,0,5455,0,0,0,0,0,0,0,
5152,0,0,0,0,0,0,0,0,0,0,0,0,0,0,0,
5158,0,0,0,0,0,0,0,0,0,0,0,0,0,0,0,
0,0,0,0,0,0,0,0,0,0,0,0,0,0,0,0
</chunk>
  </data>
 </layer>
 <layer id="4" name="Characters_full" width="16" height="24">
  <data encoding="csv">
   <chunk x="16" y="0" width="16" height="16">
0,0,0,0,0,0,0,0,0,0,0,0,0,0,0,0,
0,0,0,0,0,0,0,0,0,0,0,0,0,0,0,0,
0,0,0,0,0,0,0,0,0,0,0,0,0,0,0,0,
0,0,0,0,0,0,0,0,0,0,0,0,0,0,0,0,
0,0,0,0,0,0,0,0,0,0,0,0,0,0,0,0,
0,0,0,0,0,0,0,0,0,0,0,0,0,0,0,0,
0,0,0,0,0,0,0,0,0,0,0,0,0,0,0,0,
0,0,0,0,0,0,0,0,0,0,0,0,0,0,0,0,
0,0,0,0,0,0,0,0,0,0,0,0,0,0,0,0,
0,0,0,0,0,0,0,0,0,0,0,0,0,0,0,0,
0,0,5053,5054,5093,5094,0,0,0,0,0,0,0,0,0,0,
0,0,5073,5074,5113,5114,0,0,0,0,0,0,0,0,0,0,
0,0,0,5163,5164,0,0,0,0,0,0,0,0,0,0,0,
0,5133,5134,5187,5188,0,0,0,0,0,0,0,0,0,0,0,
0,5139,5140,5211,5212,0,0,0,0,0,0,0,0,0,0,0,
0,0,0,0,0,0,0,0,0,0,0,0,0,0,0,0
</chunk>
  </data>
 </layer>
 <layer id="6" name="Shadows" width="16" height="24">
  <data encoding="csv">
   <chunk x="16" y="0" width="16" height="16">
0,0,0,0,0,0,0,0,0,0,0,0,0,0,0,0,
0,0,0,0,0,0,0,0,0,0,0,0,0,0,0,0,
0,0,0,0,0,0,0,0,0,0,0,0,0,0,0,0,
0,0,0,0,0,0,0,0,0,0,0,0,0,0,0,0,
0,0,0,0,0,0,0,0,0,0,0,0,0,0,0,0,
0,0,0,0,0,0,0,0,0,0,0,0,0,0,0,0,
0,0,0,0,0,0,0,0,0,0,0,0,0,0,0,0,
0,0,0,0,0,0,0,0,0,0,0,0,0,0,0,0,
0,0,0,0,0,0,0,0,0,0,0,0,0,0,0,0,
0,0,0,0,0,0,0,0,0,0,0,0,0,0,0,0,
0,0,0,0,0,0,0,0,0,0,0,0,0,0,0,0,
0,0,5401,5402,5401,5402,0,0,0,0,0,0,0,0,0,0,
0,0,0,0,0,0,0,0,0,0,0,0,0,0,0,0,
0,0,0,5403,5404,0,0,0,0,0,0,0,0,0,0,0,
0,5399,5400,5405,5406,0,0,0,0,0,0,0,0,0,0,0,
0,0,0,0,0,0,0,0,0,0,0,0,0,0,0,0
</chunk>
  </data>
 </layer>
 <layer id="5" name="Characters_without_shadow" width="16" height="24">
  <data encoding="csv">
   <chunk x="16" y="0" width="16" height="16">
0,0,0,0,0,0,0,0,0,0,0,0,0,0,0,0,
0,0,0,0,0,0,0,0,0,0,0,0,0,0,0,0,
0,0,0,0,0,0,0,0,0,0,0,0,0,0,0,0,
0,0,0,0,0,0,0,0,0,0,0,0,0,0,0,0,
0,0,0,0,0,0,0,0,0,0,0,0,0,0,0,0,
0,0,0,0,0,0,0,0,0,0,0,0,0,0,0,0,
0,0,0,0,0,0,0,0,0,0,0,0,0,0,0,0,
0,0,0,0,0,0,0,0,0,0,0,0,0,0,0,0,
0,0,0,0,0,0,0,0,0,0,0,0,0,0,0,0,
0,0,0,0,0,0,0,0,0,0,0,0,0,0,0,0,
0,0,5359,5360,5307,5308,0,0,0,0,0,0,0,0,0,0,
0,0,5379,5380,5327,5328,0,0,0,0,0,0,0,0,0,0,
0,0,0,5235,5236,0,0,0,0,0,0,0,0,0,0,0,
0,5347,5348,5259,5260,0,0,0,0,0,0,0,0,0,0,0,
0,5353,5354,5283,5284,0,0,0,0,0,0,0,0,0,0,0,
0,0,0,0,0,0,0,0,0,0,0,0,0,0,0,0
</chunk>
  </data>
 </layer>
</map>
