<?xml version="1.0" encoding="UTF-8"?>
<map version="1.10" tiledversion="1.10.2" orientation="orthogonal" renderorder="right-down" width="16" height="24" tilewidth="16" tileheight="16" infinite="1" nextlayerid="32" nextobjectid="1">
 <tileset firstgid="1" name="Water_coasts" tilewidth="16" tileheight="16" tilecount="1470" columns="30">
  <image source="Water_coasts.png" width="480" height="784"/>
  <tile id="30">
   <animation>
    <frame tileid="30" duration="150"/>
    <frame tileid="270" duration="150"/>
    <frame tileid="510" duration="150"/>
    <frame tileid="750" duration="150"/>
    <frame tileid="990" duration="150"/>
    <frame tileid="1230" duration="150"/>
   </animation>
  </tile>
  <tile id="31">
   <animation>
    <frame tileid="31" duration="150"/>
    <frame tileid="271" duration="150"/>
    <frame tileid="511" duration="150"/>
    <frame tileid="751" duration="150"/>
    <frame tileid="991" duration="150"/>
    <frame tileid="1231" duration="150"/>
   </animation>
  </tile>
  <tile id="32">
   <animation>
    <frame tileid="32" duration="150"/>
    <frame tileid="272" duration="150"/>
    <frame tileid="512" duration="150"/>
    <frame tileid="752" duration="150"/>
    <frame tileid="992" duration="150"/>
    <frame tileid="1232" duration="150"/>
   </animation>
  </tile>
  <tile id="33">
   <animation>
    <frame tileid="33" duration="150"/>
    <frame tileid="273" duration="150"/>
    <frame tileid="513" duration="150"/>
    <frame tileid="753" duration="150"/>
    <frame tileid="993" duration="150"/>
    <frame tileid="1233" duration="150"/>
   </animation>
  </tile>
  <tile id="34">
   <animation>
    <frame tileid="34" duration="150"/>
    <frame tileid="274" duration="150"/>
    <frame tileid="514" duration="150"/>
    <frame tileid="754" duration="150"/>
    <frame tileid="994" duration="150"/>
    <frame tileid="1234" duration="150"/>
   </animation>
  </tile>
  <tile id="36">
   <animation>
    <frame tileid="36" duration="150"/>
    <frame tileid="276" duration="150"/>
    <frame tileid="516" duration="150"/>
    <frame tileid="756" duration="150"/>
    <frame tileid="996" duration="150"/>
    <frame tileid="1236" duration="150"/>
   </animation>
  </tile>
  <tile id="37">
   <animation>
    <frame tileid="37" duration="150"/>
    <frame tileid="277" duration="150"/>
    <frame tileid="517" duration="150"/>
    <frame tileid="757" duration="150"/>
    <frame tileid="997" duration="150"/>
    <frame tileid="1237" duration="150"/>
   </animation>
  </tile>
  <tile id="39">
   <animation>
    <frame tileid="39" duration="150"/>
    <frame tileid="279" duration="150"/>
    <frame tileid="519" duration="150"/>
    <frame tileid="759" duration="150"/>
    <frame tileid="999" duration="150"/>
    <frame tileid="1239" duration="150"/>
   </animation>
  </tile>
  <tile id="40">
   <animation>
    <frame tileid="40" duration="150"/>
    <frame tileid="280" duration="150"/>
    <frame tileid="520" duration="150"/>
    <frame tileid="760" duration="150"/>
    <frame tileid="1000" duration="150"/>
    <frame tileid="1240" duration="150"/>
   </animation>
  </tile>
  <tile id="42">
   <animation>
    <frame tileid="42" duration="150"/>
    <frame tileid="282" duration="150"/>
    <frame tileid="522" duration="150"/>
    <frame tileid="762" duration="150"/>
    <frame tileid="1002" duration="150"/>
    <frame tileid="1242" duration="150"/>
   </animation>
  </tile>
  <tile id="43">
   <animation>
    <frame tileid="43" duration="150"/>
    <frame tileid="283" duration="150"/>
    <frame tileid="523" duration="150"/>
    <frame tileid="763" duration="150"/>
    <frame tileid="1003" duration="150"/>
    <frame tileid="1243" duration="150"/>
   </animation>
  </tile>
  <tile id="45">
   <animation>
    <frame tileid="45" duration="150"/>
    <frame tileid="285" duration="150"/>
    <frame tileid="525" duration="150"/>
    <frame tileid="765" duration="150"/>
    <frame tileid="1005" duration="150"/>
    <frame tileid="1245" duration="150"/>
   </animation>
  </tile>
  <tile id="46">
   <animation>
    <frame tileid="46" duration="150"/>
    <frame tileid="286" duration="150"/>
    <frame tileid="526" duration="150"/>
    <frame tileid="766" duration="150"/>
    <frame tileid="1006" duration="150"/>
    <frame tileid="1246" duration="150"/>
   </animation>
  </tile>
  <tile id="48">
   <animation>
    <frame tileid="48" duration="150"/>
    <frame tileid="288" duration="150"/>
    <frame tileid="528" duration="150"/>
    <frame tileid="768" duration="150"/>
    <frame tileid="1008" duration="150"/>
    <frame tileid="1248" duration="150"/>
   </animation>
  </tile>
  <tile id="49">
   <animation>
    <frame tileid="49" duration="150"/>
    <frame tileid="289" duration="150"/>
    <frame tileid="529" duration="150"/>
    <frame tileid="769" duration="150"/>
    <frame tileid="1009" duration="150"/>
    <frame tileid="1249" duration="150"/>
   </animation>
  </tile>
  <tile id="51">
   <animation>
    <frame tileid="51" duration="150"/>
    <frame tileid="291" duration="150"/>
    <frame tileid="531" duration="150"/>
    <frame tileid="771" duration="150"/>
    <frame tileid="1011" duration="150"/>
    <frame tileid="1251" duration="150"/>
   </animation>
  </tile>
  <tile id="52">
   <animation>
    <frame tileid="52" duration="150"/>
    <frame tileid="292" duration="150"/>
    <frame tileid="532" duration="150"/>
    <frame tileid="772" duration="150"/>
    <frame tileid="1012" duration="150"/>
    <frame tileid="1252" duration="150"/>
   </animation>
  </tile>
  <tile id="54">
   <animation>
    <frame tileid="54" duration="150"/>
    <frame tileid="294" duration="150"/>
    <frame tileid="534" duration="150"/>
    <frame tileid="774" duration="150"/>
    <frame tileid="1014" duration="150"/>
    <frame tileid="1254" duration="150"/>
   </animation>
  </tile>
  <tile id="55">
   <animation>
    <frame tileid="55" duration="150"/>
    <frame tileid="295" duration="150"/>
    <frame tileid="535" duration="150"/>
    <frame tileid="775" duration="150"/>
    <frame tileid="1015" duration="150"/>
    <frame tileid="1255" duration="150"/>
   </animation>
  </tile>
  <tile id="57">
   <animation>
    <frame tileid="57" duration="150"/>
    <frame tileid="297" duration="150"/>
    <frame tileid="537" duration="150"/>
    <frame tileid="777" duration="150"/>
    <frame tileid="1017" duration="150"/>
    <frame tileid="1257" duration="150"/>
   </animation>
  </tile>
  <tile id="58">
   <animation>
    <frame tileid="58" duration="150"/>
    <frame tileid="298" duration="150"/>
    <frame tileid="538" duration="150"/>
    <frame tileid="778" duration="150"/>
    <frame tileid="1018" duration="150"/>
    <frame tileid="1258" duration="150"/>
   </animation>
  </tile>
  <tile id="60">
   <animation>
    <frame tileid="60" duration="150"/>
    <frame tileid="300" duration="150"/>
    <frame tileid="540" duration="150"/>
    <frame tileid="780" duration="150"/>
    <frame tileid="1020" duration="150"/>
    <frame tileid="1260" duration="150"/>
   </animation>
  </tile>
  <tile id="62">
   <animation>
    <frame tileid="62" duration="150"/>
    <frame tileid="302" duration="150"/>
    <frame tileid="542" duration="150"/>
    <frame tileid="782" duration="150"/>
    <frame tileid="1022" duration="150"/>
    <frame tileid="1262" duration="150"/>
   </animation>
  </tile>
  <tile id="63">
   <animation>
    <frame tileid="63" duration="150"/>
    <frame tileid="303" duration="150"/>
    <frame tileid="543" duration="150"/>
    <frame tileid="783" duration="150"/>
    <frame tileid="1023" duration="150"/>
    <frame tileid="1263" duration="150"/>
   </animation>
  </tile>
  <tile id="64">
   <animation>
    <frame tileid="64" duration="150"/>
    <frame tileid="304" duration="150"/>
    <frame tileid="544" duration="150"/>
    <frame tileid="784" duration="150"/>
    <frame tileid="1024" duration="150"/>
    <frame tileid="1264" duration="150"/>
   </animation>
  </tile>
  <tile id="66">
   <animation>
    <frame tileid="66" duration="150"/>
    <frame tileid="306" duration="150"/>
    <frame tileid="546" duration="150"/>
    <frame tileid="786" duration="150"/>
    <frame tileid="1026" duration="150"/>
    <frame tileid="1266" duration="150"/>
   </animation>
  </tile>
  <tile id="67">
   <animation>
    <frame tileid="67" duration="150"/>
    <frame tileid="307" duration="150"/>
    <frame tileid="547" duration="150"/>
    <frame tileid="787" duration="150"/>
    <frame tileid="1027" duration="150"/>
    <frame tileid="1267" duration="150"/>
   </animation>
  </tile>
  <tile id="69">
   <animation>
    <frame tileid="69" duration="150"/>
    <frame tileid="309" duration="150"/>
    <frame tileid="549" duration="150"/>
    <frame tileid="789" duration="150"/>
    <frame tileid="1029" duration="150"/>
    <frame tileid="1269" duration="150"/>
   </animation>
  </tile>
  <tile id="70">
   <animation>
    <frame tileid="70" duration="150"/>
    <frame tileid="310" duration="150"/>
    <frame tileid="550" duration="150"/>
    <frame tileid="790" duration="150"/>
    <frame tileid="1030" duration="150"/>
    <frame tileid="1270" duration="150"/>
   </animation>
  </tile>
  <tile id="72">
   <animation>
    <frame tileid="72" duration="150"/>
    <frame tileid="312" duration="150"/>
    <frame tileid="552" duration="150"/>
    <frame tileid="792" duration="150"/>
    <frame tileid="1032" duration="150"/>
    <frame tileid="1272" duration="150"/>
   </animation>
  </tile>
  <tile id="73">
   <animation>
    <frame tileid="73" duration="150"/>
    <frame tileid="313" duration="150"/>
    <frame tileid="553" duration="150"/>
    <frame tileid="793" duration="150"/>
    <frame tileid="1033" duration="150"/>
    <frame tileid="1273" duration="150"/>
   </animation>
  </tile>
  <tile id="75">
   <animation>
    <frame tileid="75" duration="150"/>
    <frame tileid="315" duration="150"/>
    <frame tileid="555" duration="150"/>
    <frame tileid="795" duration="150"/>
    <frame tileid="1035" duration="150"/>
    <frame tileid="1275" duration="150"/>
   </animation>
  </tile>
  <tile id="76">
   <animation>
    <frame tileid="76" duration="150"/>
    <frame tileid="316" duration="150"/>
    <frame tileid="556" duration="150"/>
    <frame tileid="796" duration="150"/>
    <frame tileid="1036" duration="150"/>
    <frame tileid="1276" duration="150"/>
   </animation>
  </tile>
  <tile id="78">
   <animation>
    <frame tileid="78" duration="150"/>
    <frame tileid="318" duration="150"/>
    <frame tileid="558" duration="150"/>
    <frame tileid="798" duration="150"/>
    <frame tileid="1038" duration="150"/>
    <frame tileid="1278" duration="150"/>
   </animation>
  </tile>
  <tile id="79">
   <animation>
    <frame tileid="79" duration="150"/>
    <frame tileid="319" duration="150"/>
    <frame tileid="559" duration="150"/>
    <frame tileid="799" duration="150"/>
    <frame tileid="1039" duration="150"/>
    <frame tileid="1279" duration="150"/>
   </animation>
  </tile>
  <tile id="81">
   <animation>
    <frame tileid="81" duration="150"/>
    <frame tileid="321" duration="150"/>
    <frame tileid="561" duration="150"/>
    <frame tileid="801" duration="150"/>
    <frame tileid="1041" duration="150"/>
    <frame tileid="1281" duration="150"/>
   </animation>
  </tile>
  <tile id="82">
   <animation>
    <frame tileid="82" duration="150"/>
    <frame tileid="322" duration="150"/>
    <frame tileid="562" duration="150"/>
    <frame tileid="802" duration="150"/>
    <frame tileid="1042" duration="150"/>
    <frame tileid="1282" duration="150"/>
   </animation>
  </tile>
  <tile id="84">
   <animation>
    <frame tileid="84" duration="150"/>
    <frame tileid="324" duration="150"/>
    <frame tileid="564" duration="150"/>
    <frame tileid="804" duration="150"/>
    <frame tileid="1044" duration="150"/>
    <frame tileid="1284" duration="150"/>
   </animation>
  </tile>
  <tile id="85">
   <animation>
    <frame tileid="85" duration="150"/>
    <frame tileid="325" duration="150"/>
    <frame tileid="565" duration="150"/>
    <frame tileid="805" duration="150"/>
    <frame tileid="1045" duration="150"/>
    <frame tileid="1285" duration="150"/>
   </animation>
  </tile>
  <tile id="87">
   <animation>
    <frame tileid="87" duration="150"/>
    <frame tileid="327" duration="150"/>
    <frame tileid="567" duration="150"/>
    <frame tileid="807" duration="150"/>
    <frame tileid="1047" duration="150"/>
    <frame tileid="1287" duration="150"/>
   </animation>
  </tile>
  <tile id="88">
   <animation>
    <frame tileid="88" duration="150"/>
    <frame tileid="328" duration="150"/>
    <frame tileid="568" duration="150"/>
    <frame tileid="808" duration="150"/>
    <frame tileid="1048" duration="150"/>
    <frame tileid="1288" duration="150"/>
   </animation>
  </tile>
  <tile id="90">
   <animation>
    <frame tileid="90" duration="150"/>
    <frame tileid="330" duration="150"/>
    <frame tileid="570" duration="150"/>
    <frame tileid="810" duration="150"/>
    <frame tileid="1050" duration="150"/>
    <frame tileid="1290" duration="150"/>
   </animation>
  </tile>
  <tile id="91">
   <animation>
    <frame tileid="91" duration="150"/>
    <frame tileid="331" duration="150"/>
    <frame tileid="571" duration="150"/>
    <frame tileid="811" duration="150"/>
    <frame tileid="1051" duration="150"/>
    <frame tileid="1291" duration="150"/>
   </animation>
  </tile>
  <tile id="92">
   <animation>
    <frame tileid="92" duration="150"/>
    <frame tileid="332" duration="150"/>
    <frame tileid="572" duration="150"/>
    <frame tileid="812" duration="150"/>
    <frame tileid="1052" duration="150"/>
    <frame tileid="1292" duration="150"/>
   </animation>
  </tile>
  <tile id="93">
   <animation>
    <frame tileid="93" duration="150"/>
    <frame tileid="333" duration="150"/>
    <frame tileid="573" duration="150"/>
    <frame tileid="813" duration="150"/>
    <frame tileid="1053" duration="150"/>
    <frame tileid="1293" duration="150"/>
   </animation>
  </tile>
  <tile id="97">
   <animation>
    <frame tileid="97" duration="150"/>
    <frame tileid="337" duration="150"/>
    <frame tileid="577" duration="150"/>
    <frame tileid="817" duration="150"/>
    <frame tileid="1057" duration="150"/>
    <frame tileid="1297" duration="150"/>
   </animation>
  </tile>
  <tile id="99">
   <animation>
    <frame tileid="99" duration="150"/>
    <frame tileid="339" duration="150"/>
    <frame tileid="579" duration="150"/>
    <frame tileid="819" duration="150"/>
    <frame tileid="1059" duration="150"/>
    <frame tileid="1299" duration="150"/>
   </animation>
  </tile>
  <tile id="100">
   <animation>
    <frame tileid="100" duration="150"/>
    <frame tileid="340" duration="150"/>
    <frame tileid="580" duration="150"/>
    <frame tileid="820" duration="150"/>
    <frame tileid="1060" duration="150"/>
    <frame tileid="1300" duration="150"/>
   </animation>
  </tile>
  <tile id="102">
   <animation>
    <frame tileid="102" duration="150"/>
    <frame tileid="342" duration="150"/>
    <frame tileid="582" duration="150"/>
    <frame tileid="822" duration="150"/>
    <frame tileid="1062" duration="150"/>
    <frame tileid="1302" duration="150"/>
   </animation>
  </tile>
  <tile id="103">
   <animation>
    <frame tileid="103" duration="150"/>
    <frame tileid="343" duration="150"/>
    <frame tileid="583" duration="150"/>
    <frame tileid="823" duration="150"/>
    <frame tileid="1063" duration="150"/>
    <frame tileid="1303" duration="150"/>
   </animation>
  </tile>
  <tile id="108">
   <animation>
    <frame tileid="108" duration="150"/>
    <frame tileid="348" duration="150"/>
    <frame tileid="588" duration="150"/>
    <frame tileid="828" duration="150"/>
    <frame tileid="1068" duration="150"/>
    <frame tileid="1308" duration="150"/>
   </animation>
  </tile>
  <tile id="109">
   <animation>
    <frame tileid="109" duration="150"/>
    <frame tileid="349" duration="150"/>
    <frame tileid="589" duration="150"/>
    <frame tileid="829" duration="150"/>
    <frame tileid="1069" duration="150"/>
    <frame tileid="1309" duration="150"/>
   </animation>
  </tile>
  <tile id="111">
   <animation>
    <frame tileid="111" duration="150"/>
    <frame tileid="351" duration="150"/>
    <frame tileid="591" duration="150"/>
    <frame tileid="831" duration="150"/>
    <frame tileid="1071" duration="150"/>
    <frame tileid="1311" duration="150"/>
   </animation>
  </tile>
  <tile id="112">
   <animation>
    <frame tileid="112" duration="150"/>
    <frame tileid="352" duration="150"/>
    <frame tileid="592" duration="150"/>
    <frame tileid="832" duration="150"/>
    <frame tileid="1072" duration="150"/>
    <frame tileid="1312" duration="150"/>
   </animation>
  </tile>
  <tile id="114">
   <animation>
    <frame tileid="114" duration="150"/>
    <frame tileid="354" duration="150"/>
    <frame tileid="594" duration="150"/>
    <frame tileid="834" duration="150"/>
    <frame tileid="1074" duration="150"/>
    <frame tileid="1314" duration="150"/>
   </animation>
  </tile>
  <tile id="115">
   <animation>
    <frame tileid="115" duration="150"/>
    <frame tileid="355" duration="150"/>
    <frame tileid="595" duration="150"/>
    <frame tileid="835" duration="150"/>
    <frame tileid="1075" duration="150"/>
    <frame tileid="1315" duration="150"/>
   </animation>
  </tile>
  <tile id="117">
   <animation>
    <frame tileid="117" duration="150"/>
    <frame tileid="357" duration="150"/>
    <frame tileid="597" duration="150"/>
    <frame tileid="837" duration="150"/>
    <frame tileid="1077" duration="150"/>
    <frame tileid="1317" duration="150"/>
   </animation>
  </tile>
  <tile id="118">
   <animation>
    <frame tileid="118" duration="150"/>
    <frame tileid="358" duration="150"/>
    <frame tileid="598" duration="150"/>
    <frame tileid="838" duration="150"/>
    <frame tileid="1078" duration="150"/>
    <frame tileid="1318" duration="150"/>
   </animation>
  </tile>
  <tile id="120">
   <animation>
    <frame tileid="120" duration="150"/>
    <frame tileid="360" duration="150"/>
    <frame tileid="600" duration="150"/>
    <frame tileid="840" duration="150"/>
    <frame tileid="1080" duration="150"/>
    <frame tileid="1320" duration="150"/>
   </animation>
  </tile>
  <tile id="121">
   <animation>
    <frame tileid="121" duration="150"/>
    <frame tileid="361" duration="150"/>
    <frame tileid="601" duration="150"/>
    <frame tileid="841" duration="150"/>
    <frame tileid="1081" duration="150"/>
    <frame tileid="1321" duration="150"/>
   </animation>
  </tile>
  <tile id="141">
   <animation>
    <frame tileid="141" duration="150"/>
    <frame tileid="381" duration="150"/>
    <frame tileid="621" duration="150"/>
    <frame tileid="861" duration="150"/>
    <frame tileid="1101" duration="150"/>
    <frame tileid="1341" duration="150"/>
   </animation>
  </tile>
  <tile id="142">
   <animation>
    <frame tileid="142" duration="150"/>
    <frame tileid="382" duration="150"/>
    <frame tileid="622" duration="150"/>
    <frame tileid="862" duration="150"/>
    <frame tileid="1102" duration="150"/>
    <frame tileid="1342" duration="150"/>
   </animation>
  </tile>
  <tile id="144">
   <animation>
    <frame tileid="144" duration="150"/>
    <frame tileid="384" duration="150"/>
    <frame tileid="624" duration="150"/>
    <frame tileid="864" duration="150"/>
    <frame tileid="1104" duration="150"/>
    <frame tileid="1344" duration="150"/>
   </animation>
  </tile>
  <tile id="145">
   <animation>
    <frame tileid="145" duration="150"/>
    <frame tileid="385" duration="150"/>
    <frame tileid="625" duration="150"/>
    <frame tileid="865" duration="150"/>
    <frame tileid="1105" duration="150"/>
    <frame tileid="1345" duration="150"/>
   </animation>
  </tile>
  <tile id="147">
   <animation>
    <frame tileid="147" duration="150"/>
    <frame tileid="387" duration="150"/>
    <frame tileid="627" duration="150"/>
    <frame tileid="867" duration="150"/>
    <frame tileid="1107" duration="150"/>
    <frame tileid="1347" duration="150"/>
   </animation>
  </tile>
  <tile id="148">
   <animation>
    <frame tileid="148" duration="150"/>
    <frame tileid="388" duration="150"/>
    <frame tileid="628" duration="150"/>
    <frame tileid="868" duration="150"/>
    <frame tileid="1108" duration="150"/>
    <frame tileid="1348" duration="150"/>
   </animation>
  </tile>
  <tile id="150">
   <animation>
    <frame tileid="150" duration="150"/>
    <frame tileid="390" duration="150"/>
    <frame tileid="630" duration="150"/>
    <frame tileid="870" duration="150"/>
    <frame tileid="1110" duration="150"/>
    <frame tileid="1350" duration="150"/>
   </animation>
  </tile>
  <tile id="151">
   <animation>
    <frame tileid="151" duration="150"/>
    <frame tileid="391" duration="150"/>
    <frame tileid="631" duration="150"/>
    <frame tileid="871" duration="150"/>
    <frame tileid="1111" duration="150"/>
    <frame tileid="1351" duration="150"/>
   </animation>
  </tile>
  <tile id="152">
   <animation>
    <frame tileid="152" duration="150"/>
    <frame tileid="392" duration="150"/>
    <frame tileid="632" duration="150"/>
    <frame tileid="872" duration="150"/>
    <frame tileid="1112" duration="150"/>
    <frame tileid="1352" duration="150"/>
   </animation>
  </tile>
  <tile id="153">
   <animation>
    <frame tileid="153" duration="150"/>
    <frame tileid="393" duration="150"/>
    <frame tileid="633" duration="150"/>
    <frame tileid="873" duration="150"/>
    <frame tileid="1113" duration="150"/>
    <frame tileid="1353" duration="150"/>
   </animation>
  </tile>
  <tile id="154">
   <animation>
    <frame tileid="154" duration="150"/>
    <frame tileid="394" duration="150"/>
    <frame tileid="634" duration="150"/>
    <frame tileid="874" duration="150"/>
    <frame tileid="1114" duration="150"/>
    <frame tileid="1354" duration="150"/>
   </animation>
  </tile>
  <tile id="156">
   <animation>
    <frame tileid="156" duration="150"/>
    <frame tileid="396" duration="150"/>
    <frame tileid="636" duration="150"/>
    <frame tileid="876" duration="150"/>
    <frame tileid="1116" duration="150"/>
    <frame tileid="1356" duration="150"/>
   </animation>
  </tile>
  <tile id="157">
   <animation>
    <frame tileid="157" duration="150"/>
    <frame tileid="397" duration="150"/>
    <frame tileid="637" duration="150"/>
    <frame tileid="877" duration="150"/>
    <frame tileid="1117" duration="150"/>
    <frame tileid="1357" duration="150"/>
   </animation>
  </tile>
  <tile id="159">
   <animation>
    <frame tileid="159" duration="150"/>
    <frame tileid="399" duration="150"/>
    <frame tileid="639" duration="150"/>
    <frame tileid="879" duration="150"/>
    <frame tileid="1119" duration="150"/>
    <frame tileid="1359" duration="150"/>
   </animation>
  </tile>
  <tile id="160">
   <animation>
    <frame tileid="160" duration="150"/>
    <frame tileid="400" duration="150"/>
    <frame tileid="640" duration="150"/>
    <frame tileid="880" duration="150"/>
    <frame tileid="1120" duration="150"/>
    <frame tileid="1360" duration="150"/>
   </animation>
  </tile>
  <tile id="162">
   <animation>
    <frame tileid="162" duration="150"/>
    <frame tileid="402" duration="150"/>
    <frame tileid="642" duration="150"/>
    <frame tileid="882" duration="150"/>
    <frame tileid="1122" duration="150"/>
    <frame tileid="1362" duration="150"/>
   </animation>
  </tile>
  <tile id="163">
   <animation>
    <frame tileid="163" duration="150"/>
    <frame tileid="403" duration="150"/>
    <frame tileid="643" duration="150"/>
    <frame tileid="883" duration="150"/>
    <frame tileid="1123" duration="150"/>
    <frame tileid="1363" duration="150"/>
   </animation>
  </tile>
  <tile id="165">
   <animation>
    <frame tileid="165" duration="150"/>
    <frame tileid="405" duration="150"/>
    <frame tileid="645" duration="150"/>
    <frame tileid="885" duration="150"/>
    <frame tileid="1125" duration="150"/>
    <frame tileid="1365" duration="150"/>
   </animation>
  </tile>
  <tile id="166">
   <animation>
    <frame tileid="166" duration="150"/>
    <frame tileid="406" duration="150"/>
    <frame tileid="646" duration="150"/>
    <frame tileid="886" duration="150"/>
    <frame tileid="1126" duration="150"/>
    <frame tileid="1366" duration="150"/>
   </animation>
  </tile>
  <tile id="168">
   <animation>
    <frame tileid="168" duration="150"/>
    <frame tileid="408" duration="150"/>
    <frame tileid="648" duration="150"/>
    <frame tileid="888" duration="150"/>
    <frame tileid="1128" duration="150"/>
    <frame tileid="1368" duration="150"/>
   </animation>
  </tile>
  <tile id="169">
   <animation>
    <frame tileid="169" duration="150"/>
    <frame tileid="409" duration="150"/>
    <frame tileid="649" duration="150"/>
    <frame tileid="889" duration="150"/>
    <frame tileid="1129" duration="150"/>
    <frame tileid="1369" duration="150"/>
   </animation>
  </tile>
  <tile id="171">
   <animation>
    <frame tileid="171" duration="150"/>
    <frame tileid="411" duration="150"/>
    <frame tileid="651" duration="150"/>
    <frame tileid="891" duration="150"/>
    <frame tileid="1131" duration="150"/>
    <frame tileid="1371" duration="150"/>
   </animation>
  </tile>
  <tile id="172">
   <animation>
    <frame tileid="172" duration="150"/>
    <frame tileid="412" duration="150"/>
    <frame tileid="652" duration="150"/>
    <frame tileid="892" duration="150"/>
    <frame tileid="1132" duration="150"/>
    <frame tileid="1372" duration="150"/>
   </animation>
  </tile>
  <tile id="174">
   <animation>
    <frame tileid="174" duration="150"/>
    <frame tileid="414" duration="150"/>
    <frame tileid="654" duration="150"/>
    <frame tileid="894" duration="150"/>
    <frame tileid="1134" duration="150"/>
    <frame tileid="1374" duration="150"/>
   </animation>
  </tile>
  <tile id="175">
   <animation>
    <frame tileid="175" duration="150"/>
    <frame tileid="415" duration="150"/>
    <frame tileid="655" duration="150"/>
    <frame tileid="895" duration="150"/>
    <frame tileid="1135" duration="150"/>
    <frame tileid="1375" duration="150"/>
   </animation>
  </tile>
  <tile id="177">
   <animation>
    <frame tileid="177" duration="150"/>
    <frame tileid="417" duration="150"/>
    <frame tileid="657" duration="150"/>
    <frame tileid="897" duration="150"/>
    <frame tileid="1137" duration="150"/>
    <frame tileid="1377" duration="150"/>
   </animation>
  </tile>
  <tile id="178">
   <animation>
    <frame tileid="178" duration="150"/>
    <frame tileid="418" duration="150"/>
    <frame tileid="658" duration="150"/>
    <frame tileid="898" duration="150"/>
    <frame tileid="1138" duration="150"/>
    <frame tileid="1378" duration="150"/>
   </animation>
  </tile>
  <tile id="180">
   <animation>
    <frame tileid="180" duration="150"/>
    <frame tileid="420" duration="150"/>
    <frame tileid="660" duration="150"/>
    <frame tileid="900" duration="150"/>
    <frame tileid="1140" duration="150"/>
    <frame tileid="1380" duration="150"/>
   </animation>
  </tile>
  <tile id="182">
   <animation>
    <frame tileid="182" duration="150"/>
    <frame tileid="422" duration="150"/>
    <frame tileid="662" duration="150"/>
    <frame tileid="902" duration="150"/>
    <frame tileid="1142" duration="150"/>
    <frame tileid="1382" duration="150"/>
   </animation>
  </tile>
  <tile id="183">
   <animation>
    <frame tileid="183" duration="150"/>
    <frame tileid="423" duration="150"/>
    <frame tileid="663" duration="150"/>
    <frame tileid="903" duration="150"/>
    <frame tileid="1143" duration="150"/>
    <frame tileid="1383" duration="150"/>
   </animation>
  </tile>
  <tile id="184">
   <animation>
    <frame tileid="184" duration="150"/>
    <frame tileid="424" duration="150"/>
    <frame tileid="664" duration="150"/>
    <frame tileid="904" duration="150"/>
    <frame tileid="1144" duration="150"/>
    <frame tileid="1384" duration="150"/>
   </animation>
  </tile>
  <tile id="186">
   <animation>
    <frame tileid="186" duration="150"/>
    <frame tileid="426" duration="150"/>
    <frame tileid="666" duration="150"/>
    <frame tileid="906" duration="150"/>
    <frame tileid="1146" duration="150"/>
    <frame tileid="1386" duration="150"/>
   </animation>
  </tile>
  <tile id="187">
   <animation>
    <frame tileid="187" duration="150"/>
    <frame tileid="427" duration="150"/>
    <frame tileid="667" duration="150"/>
    <frame tileid="907" duration="150"/>
    <frame tileid="1387" duration="150"/>
   </animation>
  </tile>
  <tile id="189">
   <animation>
    <frame tileid="189" duration="150"/>
    <frame tileid="429" duration="150"/>
    <frame tileid="669" duration="150"/>
    <frame tileid="909" duration="150"/>
    <frame tileid="1149" duration="150"/>
    <frame tileid="1389" duration="150"/>
   </animation>
  </tile>
  <tile id="190">
   <animation>
    <frame tileid="190" duration="150"/>
    <frame tileid="430" duration="150"/>
    <frame tileid="670" duration="150"/>
    <frame tileid="910" duration="150"/>
    <frame tileid="1150" duration="150"/>
    <frame tileid="1390" duration="150"/>
   </animation>
  </tile>
  <tile id="192">
   <animation>
    <frame tileid="192" duration="150"/>
    <frame tileid="432" duration="150"/>
    <frame tileid="672" duration="150"/>
    <frame tileid="912" duration="150"/>
    <frame tileid="1152" duration="150"/>
    <frame tileid="1392" duration="150"/>
   </animation>
  </tile>
  <tile id="193">
   <animation>
    <frame tileid="193" duration="150"/>
    <frame tileid="433" duration="150"/>
    <frame tileid="673" duration="150"/>
    <frame tileid="913" duration="150"/>
    <frame tileid="1153" duration="150"/>
    <frame tileid="1393" duration="150"/>
   </animation>
  </tile>
  <tile id="195">
   <animation>
    <frame tileid="195" duration="150"/>
    <frame tileid="435" duration="150"/>
    <frame tileid="675" duration="150"/>
    <frame tileid="915" duration="150"/>
    <frame tileid="1155" duration="150"/>
    <frame tileid="1395" duration="150"/>
   </animation>
  </tile>
  <tile id="196">
   <animation>
    <frame tileid="196" duration="150"/>
    <frame tileid="436" duration="150"/>
    <frame tileid="676" duration="150"/>
    <frame tileid="916" duration="150"/>
    <frame tileid="1156" duration="150"/>
    <frame tileid="1396" duration="150"/>
   </animation>
  </tile>
  <tile id="210">
   <animation>
    <frame tileid="210" duration="150"/>
    <frame tileid="450" duration="150"/>
    <frame tileid="690" duration="150"/>
    <frame tileid="930" duration="150"/>
    <frame tileid="1170" duration="150"/>
    <frame tileid="1410" duration="150"/>
   </animation>
  </tile>
  <tile id="211">
   <animation>
    <frame tileid="211" duration="150"/>
    <frame tileid="451" duration="150"/>
    <frame tileid="691" duration="150"/>
    <frame tileid="931" duration="150"/>
    <frame tileid="1171" duration="150"/>
    <frame tileid="1411" duration="150"/>
   </animation>
  </tile>
  <tile id="212">
   <animation>
    <frame tileid="212" duration="150"/>
    <frame tileid="452" duration="150"/>
    <frame tileid="692" duration="150"/>
    <frame tileid="932" duration="150"/>
    <frame tileid="1172" duration="150"/>
    <frame tileid="1412" duration="150"/>
   </animation>
  </tile>
  <tile id="213">
   <animation>
    <frame tileid="213" duration="150"/>
    <frame tileid="453" duration="150"/>
    <frame tileid="693" duration="150"/>
    <frame tileid="933" duration="150"/>
    <frame tileid="1173" duration="150"/>
    <frame tileid="1413" duration="150"/>
   </animation>
  </tile>
  <tile id="217">
   <animation>
    <frame tileid="217" duration="150"/>
    <frame tileid="457" duration="150"/>
    <frame tileid="697" duration="150"/>
    <frame tileid="937" duration="150"/>
    <frame tileid="1177" duration="150"/>
    <frame tileid="1417" duration="150"/>
   </animation>
  </tile>
  <tile id="219">
   <animation>
    <frame tileid="219" duration="150"/>
    <frame tileid="459" duration="150"/>
    <frame tileid="699" duration="150"/>
    <frame tileid="939" duration="150"/>
    <frame tileid="1179" duration="150"/>
    <frame tileid="1419" duration="150"/>
   </animation>
  </tile>
  <tile id="220">
   <animation>
    <frame tileid="220" duration="150"/>
    <frame tileid="460" duration="150"/>
    <frame tileid="700" duration="150"/>
    <frame tileid="940" duration="150"/>
    <frame tileid="1180" duration="150"/>
    <frame tileid="1420" duration="150"/>
   </animation>
  </tile>
  <tile id="222">
   <animation>
    <frame tileid="222" duration="150"/>
    <frame tileid="462" duration="150"/>
    <frame tileid="702" duration="150"/>
    <frame tileid="942" duration="150"/>
    <frame tileid="1182" duration="150"/>
    <frame tileid="1422" duration="150"/>
   </animation>
  </tile>
  <tile id="223">
   <animation>
    <frame tileid="223" duration="150"/>
    <frame tileid="463" duration="150"/>
    <frame tileid="703" duration="150"/>
    <frame tileid="943" duration="150"/>
    <frame tileid="1183" duration="150"/>
    <frame tileid="1423" duration="150"/>
   </animation>
  </tile>
  <tile id="228">
   <animation>
    <frame tileid="228" duration="150"/>
    <frame tileid="468" duration="150"/>
    <frame tileid="708" duration="150"/>
    <frame tileid="948" duration="150"/>
    <frame tileid="1188" duration="150"/>
    <frame tileid="1428" duration="150"/>
   </animation>
  </tile>
  <tile id="229">
   <animation>
    <frame tileid="229" duration="150"/>
    <frame tileid="469" duration="150"/>
    <frame tileid="709" duration="150"/>
    <frame tileid="949" duration="150"/>
    <frame tileid="1189" duration="150"/>
    <frame tileid="1429" duration="150"/>
   </animation>
  </tile>
  <tile id="240">
   <animation>
    <frame tileid="240" duration="150"/>
    <frame tileid="480" duration="150"/>
    <frame tileid="720" duration="150"/>
    <frame tileid="960" duration="150"/>
    <frame tileid="1200" duration="150"/>
    <frame tileid="1440" duration="150"/>
   </animation>
  </tile>
  <tile id="241">
   <animation>
    <frame tileid="241" duration="150"/>
    <frame tileid="481" duration="150"/>
    <frame tileid="721" duration="150"/>
    <frame tileid="961" duration="150"/>
    <frame tileid="1201" duration="150"/>
    <frame tileid="1441" duration="150"/>
   </animation>
  </tile>
 </tileset>
 <tileset firstgid="1471" name="Water_detilazation" tilewidth="16" tileheight="16" tilecount="2886" columns="37">
  <image source="water_detilazation_v2.png" width="592" height="1248"/>
  <tile id="40">
   <animation>
    <frame tileid="40" duration="150"/>
    <frame tileid="521" duration="150"/>
    <frame tileid="1002" duration="150"/>
    <frame tileid="1483" duration="150"/>
    <frame tileid="1964" duration="150"/>
    <frame tileid="2445" duration="150"/>
   </animation>
  </tile>
  <tile id="41">
   <animation>
    <frame tileid="41" duration="150"/>
    <frame tileid="522" duration="150"/>
    <frame tileid="1003" duration="150"/>
    <frame tileid="1484" duration="150"/>
    <frame tileid="1965" duration="150"/>
    <frame tileid="2446" duration="150"/>
   </animation>
  </tile>
  <tile id="42">
   <animation>
    <frame tileid="42" duration="150"/>
    <frame tileid="523" duration="150"/>
    <frame tileid="1004" duration="150"/>
    <frame tileid="1485" duration="150"/>
    <frame tileid="1966" duration="150"/>
    <frame tileid="2447" duration="150"/>
   </animation>
  </tile>
  <tile id="43">
   <animation>
    <frame tileid="43" duration="150"/>
    <frame tileid="524" duration="150"/>
    <frame tileid="1005" duration="150"/>
    <frame tileid="1486" duration="150"/>
    <frame tileid="1967" duration="150"/>
    <frame tileid="2448" duration="150"/>
   </animation>
  </tile>
  <tile id="44">
   <animation>
    <frame tileid="44" duration="150"/>
    <frame tileid="525" duration="150"/>
    <frame tileid="1006" duration="150"/>
    <frame tileid="1487" duration="150"/>
    <frame tileid="1968" duration="150"/>
    <frame tileid="2449" duration="150"/>
   </animation>
  </tile>
  <tile id="45">
   <animation>
    <frame tileid="45" duration="150"/>
    <frame tileid="526" duration="150"/>
    <frame tileid="1007" duration="150"/>
    <frame tileid="1488" duration="150"/>
    <frame tileid="1969" duration="150"/>
    <frame tileid="2450" duration="150"/>
   </animation>
  </tile>
  <tile id="46">
   <animation>
    <frame tileid="46" duration="150"/>
    <frame tileid="527" duration="150"/>
    <frame tileid="1008" duration="150"/>
    <frame tileid="1489" duration="150"/>
    <frame tileid="1970" duration="150"/>
    <frame tileid="2451" duration="150"/>
   </animation>
  </tile>
  <tile id="47">
   <animation>
    <frame tileid="47" duration="150"/>
    <frame tileid="528" duration="150"/>
    <frame tileid="1009" duration="150"/>
    <frame tileid="1490" duration="150"/>
    <frame tileid="1971" duration="150"/>
    <frame tileid="2452" duration="150"/>
   </animation>
  </tile>
  <tile id="48">
   <animation>
    <frame tileid="48" duration="150"/>
    <frame tileid="529" duration="150"/>
    <frame tileid="1010" duration="150"/>
    <frame tileid="1491" duration="150"/>
    <frame tileid="1972" duration="150"/>
    <frame tileid="2453" duration="150"/>
   </animation>
  </tile>
  <tile id="49">
   <animation>
    <frame tileid="49" duration="150"/>
    <frame tileid="530" duration="150"/>
    <frame tileid="1011" duration="150"/>
    <frame tileid="1492" duration="150"/>
    <frame tileid="1973" duration="150"/>
    <frame tileid="2454" duration="150"/>
   </animation>
  </tile>
  <tile id="50">
   <animation>
    <frame tileid="50" duration="150"/>
    <frame tileid="531" duration="150"/>
    <frame tileid="1012" duration="150"/>
    <frame tileid="1493" duration="150"/>
    <frame tileid="1974" duration="150"/>
    <frame tileid="2455" duration="150"/>
   </animation>
  </tile>
  <tile id="51">
   <animation>
    <frame tileid="51" duration="150"/>
    <frame tileid="532" duration="150"/>
    <frame tileid="1013" duration="150"/>
    <frame tileid="1494" duration="150"/>
    <frame tileid="1975" duration="150"/>
    <frame tileid="2456" duration="150"/>
   </animation>
  </tile>
  <tile id="52">
   <animation>
    <frame tileid="52" duration="150"/>
    <frame tileid="533" duration="150"/>
    <frame tileid="1014" duration="150"/>
    <frame tileid="1495" duration="150"/>
    <frame tileid="1976" duration="150"/>
    <frame tileid="2457" duration="150"/>
   </animation>
  </tile>
  <tile id="53">
   <animation>
    <frame tileid="53" duration="150"/>
    <frame tileid="534" duration="150"/>
    <frame tileid="1015" duration="150"/>
    <frame tileid="1496" duration="150"/>
    <frame tileid="1977" duration="150"/>
    <frame tileid="2458" duration="150"/>
   </animation>
  </tile>
  <tile id="56">
   <animation>
    <frame tileid="56" duration="150"/>
    <frame tileid="537" duration="150"/>
    <frame tileid="1018" duration="150"/>
    <frame tileid="1499" duration="150"/>
    <frame tileid="1980" duration="150"/>
    <frame tileid="2461" duration="150"/>
   </animation>
  </tile>
  <tile id="57">
   <animation>
    <frame tileid="57" duration="150"/>
    <frame tileid="538" duration="150"/>
    <frame tileid="1019" duration="150"/>
    <frame tileid="1500" duration="150"/>
    <frame tileid="1981" duration="150"/>
    <frame tileid="2462" duration="150"/>
   </animation>
  </tile>
  <tile id="58">
   <animation>
    <frame tileid="58" duration="150"/>
    <frame tileid="539" duration="150"/>
    <frame tileid="1020" duration="150"/>
    <frame tileid="1501" duration="150"/>
    <frame tileid="1982" duration="150"/>
    <frame tileid="2463" duration="150"/>
   </animation>
  </tile>
  <tile id="59">
   <animation>
    <frame tileid="59" duration="150"/>
    <frame tileid="540" duration="150"/>
    <frame tileid="1021" duration="150"/>
    <frame tileid="1502" duration="150"/>
    <frame tileid="1983" duration="150"/>
    <frame tileid="2464" duration="150"/>
   </animation>
  </tile>
  <tile id="60">
   <animation>
    <frame tileid="60" duration="150"/>
    <frame tileid="541" duration="150"/>
    <frame tileid="1022" duration="150"/>
    <frame tileid="1503" duration="150"/>
    <frame tileid="1984" duration="150"/>
    <frame tileid="2465" duration="150"/>
   </animation>
  </tile>
  <tile id="61">
   <animation>
    <frame tileid="61" duration="150"/>
    <frame tileid="542" duration="150"/>
    <frame tileid="1023" duration="150"/>
    <frame tileid="1504" duration="150"/>
    <frame tileid="1985" duration="150"/>
    <frame tileid="2466" duration="150"/>
   </animation>
  </tile>
  <tile id="62">
   <animation>
    <frame tileid="62" duration="150"/>
    <frame tileid="543" duration="150"/>
    <frame tileid="1024" duration="150"/>
    <frame tileid="1505" duration="150"/>
    <frame tileid="1986" duration="150"/>
    <frame tileid="2467" duration="150"/>
   </animation>
  </tile>
  <tile id="63">
   <animation>
    <frame tileid="63" duration="150"/>
    <frame tileid="544" duration="150"/>
    <frame tileid="1025" duration="150"/>
    <frame tileid="1506" duration="150"/>
    <frame tileid="1987" duration="150"/>
    <frame tileid="2468" duration="150"/>
   </animation>
  </tile>
  <tile id="74">
   <animation>
    <frame tileid="74" duration="150"/>
    <frame tileid="555" duration="150"/>
    <frame tileid="1036" duration="150"/>
    <frame tileid="1517" duration="150"/>
    <frame tileid="1998" duration="150"/>
    <frame tileid="2479" duration="150"/>
   </animation>
  </tile>
  <tile id="75">
   <animation>
    <frame tileid="75" duration="150"/>
    <frame tileid="556" duration="150"/>
    <frame tileid="1037" duration="150"/>
    <frame tileid="1518" duration="150"/>
    <frame tileid="1999" duration="150"/>
    <frame tileid="2480" duration="150"/>
   </animation>
  </tile>
  <tile id="76">
   <animation>
    <frame tileid="76" duration="150"/>
    <frame tileid="557" duration="150"/>
    <frame tileid="1038" duration="150"/>
    <frame tileid="1519" duration="150"/>
    <frame tileid="2000" duration="150"/>
    <frame tileid="2481" duration="150"/>
   </animation>
  </tile>
  <tile id="77">
   <animation>
    <frame tileid="77" duration="150"/>
    <frame tileid="558" duration="150"/>
    <frame tileid="1039" duration="150"/>
    <frame tileid="1520" duration="150"/>
    <frame tileid="2001" duration="150"/>
    <frame tileid="2482" duration="150"/>
   </animation>
  </tile>
  <tile id="78">
   <animation>
    <frame tileid="78" duration="150"/>
    <frame tileid="559" duration="150"/>
    <frame tileid="1040" duration="150"/>
    <frame tileid="1521" duration="150"/>
    <frame tileid="2002" duration="150"/>
    <frame tileid="2483" duration="150"/>
   </animation>
  </tile>
  <tile id="79">
   <animation>
    <frame tileid="79" duration="150"/>
    <frame tileid="560" duration="150"/>
    <frame tileid="1041" duration="150"/>
    <frame tileid="1522" duration="150"/>
    <frame tileid="2003" duration="150"/>
    <frame tileid="2484" duration="150"/>
   </animation>
  </tile>
  <tile id="80">
   <animation>
    <frame tileid="80" duration="150"/>
    <frame tileid="561" duration="150"/>
    <frame tileid="1042" duration="150"/>
    <frame tileid="1523" duration="150"/>
    <frame tileid="2004" duration="150"/>
    <frame tileid="2485" duration="150"/>
   </animation>
  </tile>
  <tile id="81">
   <animation>
    <frame tileid="81" duration="150"/>
    <frame tileid="562" duration="150"/>
    <frame tileid="1043" duration="150"/>
    <frame tileid="1524" duration="150"/>
    <frame tileid="2005" duration="150"/>
    <frame tileid="2486" duration="150"/>
   </animation>
  </tile>
  <tile id="82">
   <animation>
    <frame tileid="82" duration="150"/>
    <frame tileid="563" duration="150"/>
    <frame tileid="1044" duration="150"/>
    <frame tileid="1525" duration="150"/>
    <frame tileid="2006" duration="150"/>
    <frame tileid="2487" duration="150"/>
   </animation>
  </tile>
  <tile id="83">
   <animation>
    <frame tileid="83" duration="150"/>
    <frame tileid="564" duration="150"/>
    <frame tileid="1045" duration="150"/>
    <frame tileid="1526" duration="150"/>
    <frame tileid="2007" duration="150"/>
    <frame tileid="2488" duration="150"/>
   </animation>
  </tile>
  <tile id="84">
   <animation>
    <frame tileid="84" duration="150"/>
    <frame tileid="565" duration="150"/>
    <frame tileid="1046" duration="150"/>
    <frame tileid="1527" duration="150"/>
    <frame tileid="2008" duration="150"/>
    <frame tileid="2489" duration="150"/>
   </animation>
  </tile>
  <tile id="85">
   <animation>
    <frame tileid="85" duration="150"/>
    <frame tileid="566" duration="150"/>
    <frame tileid="1047" duration="150"/>
    <frame tileid="1528" duration="150"/>
    <frame tileid="2009" duration="150"/>
    <frame tileid="2490" duration="150"/>
   </animation>
  </tile>
  <tile id="86">
   <animation>
    <frame tileid="86" duration="150"/>
    <frame tileid="567" duration="150"/>
    <frame tileid="1048" duration="150"/>
    <frame tileid="1529" duration="150"/>
    <frame tileid="2010" duration="150"/>
    <frame tileid="2491" duration="150"/>
   </animation>
  </tile>
  <tile id="87">
   <animation>
    <frame tileid="87" duration="150"/>
    <frame tileid="568" duration="150"/>
    <frame tileid="1049" duration="150"/>
    <frame tileid="1530" duration="150"/>
    <frame tileid="2011" duration="150"/>
    <frame tileid="2492" duration="150"/>
   </animation>
  </tile>
  <tile id="88">
   <animation>
    <frame tileid="88" duration="150"/>
    <frame tileid="569" duration="150"/>
    <frame tileid="1050" duration="150"/>
    <frame tileid="1531" duration="150"/>
    <frame tileid="2012" duration="150"/>
    <frame tileid="2493" duration="150"/>
   </animation>
  </tile>
  <tile id="89">
   <animation>
    <frame tileid="89" duration="150"/>
    <frame tileid="570" duration="150"/>
    <frame tileid="1051" duration="150"/>
    <frame tileid="1532" duration="150"/>
    <frame tileid="2013" duration="150"/>
    <frame tileid="2494" duration="150"/>
   </animation>
  </tile>
  <tile id="90">
   <animation>
    <frame tileid="90" duration="150"/>
    <frame tileid="571" duration="150"/>
    <frame tileid="1052" duration="150"/>
    <frame tileid="1533" duration="150"/>
    <frame tileid="2014" duration="150"/>
    <frame tileid="2495" duration="150"/>
   </animation>
  </tile>
  <tile id="92">
   <animation>
    <frame tileid="92" duration="150"/>
    <frame tileid="573" duration="150"/>
    <frame tileid="1054" duration="150"/>
    <frame tileid="1535" duration="150"/>
    <frame tileid="2016" duration="150"/>
    <frame tileid="2497" duration="150"/>
   </animation>
  </tile>
  <tile id="93">
   <animation>
    <frame tileid="93" duration="150"/>
    <frame tileid="574" duration="150"/>
    <frame tileid="1055" duration="150"/>
    <frame tileid="1536" duration="150"/>
    <frame tileid="2017" duration="150"/>
    <frame tileid="2498" duration="150"/>
   </animation>
  </tile>
  <tile id="94">
   <animation>
    <frame tileid="94" duration="150"/>
    <frame tileid="575" duration="150"/>
    <frame tileid="1056" duration="150"/>
    <frame tileid="1537" duration="150"/>
    <frame tileid="2018" duration="150"/>
    <frame tileid="2499" duration="150"/>
   </animation>
  </tile>
  <tile id="95">
   <animation>
    <frame tileid="95" duration="150"/>
    <frame tileid="576" duration="150"/>
    <frame tileid="1057" duration="150"/>
    <frame tileid="1538" duration="150"/>
    <frame tileid="2019" duration="150"/>
    <frame tileid="2500" duration="150"/>
   </animation>
  </tile>
  <tile id="96">
   <animation>
    <frame tileid="96" duration="150"/>
    <frame tileid="577" duration="150"/>
    <frame tileid="1058" duration="150"/>
    <frame tileid="1539" duration="150"/>
    <frame tileid="2020" duration="150"/>
    <frame tileid="2501" duration="150"/>
   </animation>
  </tile>
  <tile id="97">
   <animation>
    <frame tileid="97" duration="150"/>
    <frame tileid="578" duration="150"/>
    <frame tileid="1059" duration="150"/>
    <frame tileid="1540" duration="150"/>
    <frame tileid="2021" duration="150"/>
    <frame tileid="2502" duration="150"/>
   </animation>
  </tile>
  <tile id="98">
   <animation>
    <frame tileid="98" duration="150"/>
    <frame tileid="579" duration="150"/>
    <frame tileid="1060" duration="150"/>
    <frame tileid="1541" duration="150"/>
    <frame tileid="2022" duration="150"/>
    <frame tileid="2503" duration="150"/>
   </animation>
  </tile>
  <tile id="99">
   <animation>
    <frame tileid="99" duration="150"/>
    <frame tileid="580" duration="150"/>
    <frame tileid="1061" duration="150"/>
    <frame tileid="1542" duration="150"/>
    <frame tileid="2023" duration="150"/>
    <frame tileid="2504" duration="150"/>
   </animation>
  </tile>
  <tile id="100">
   <animation>
    <frame tileid="100" duration="150"/>
    <frame tileid="581" duration="150"/>
    <frame tileid="1062" duration="150"/>
    <frame tileid="1543" duration="150"/>
    <frame tileid="2024" duration="150"/>
    <frame tileid="2505" duration="150"/>
   </animation>
  </tile>
  <tile id="101">
   <animation>
    <frame tileid="101" duration="150"/>
    <frame tileid="582" duration="150"/>
    <frame tileid="1063" duration="150"/>
    <frame tileid="1544" duration="150"/>
    <frame tileid="2025" duration="150"/>
    <frame tileid="2506" duration="150"/>
   </animation>
  </tile>
  <tile id="102">
   <animation>
    <frame tileid="102" duration="150"/>
    <frame tileid="583" duration="150"/>
    <frame tileid="1064" duration="150"/>
    <frame tileid="1545" duration="150"/>
    <frame tileid="2026" duration="150"/>
    <frame tileid="2507" duration="150"/>
   </animation>
  </tile>
  <tile id="103">
   <animation>
    <frame tileid="103" duration="150"/>
    <frame tileid="584" duration="150"/>
    <frame tileid="1065" duration="150"/>
    <frame tileid="1546" duration="150"/>
    <frame tileid="2027" duration="150"/>
    <frame tileid="2508" duration="150"/>
   </animation>
  </tile>
  <tile id="105">
   <animation>
    <frame tileid="105" duration="150"/>
    <frame tileid="586" duration="150"/>
    <frame tileid="1067" duration="150"/>
    <frame tileid="1548" duration="150"/>
    <frame tileid="2029" duration="150"/>
    <frame tileid="2510" duration="150"/>
   </animation>
  </tile>
  <tile id="106">
   <animation>
    <frame tileid="106" duration="150"/>
    <frame tileid="587" duration="150"/>
    <frame tileid="1068" duration="150"/>
    <frame tileid="1549" duration="150"/>
    <frame tileid="2030" duration="150"/>
    <frame tileid="2511" duration="150"/>
   </animation>
  </tile>
  <tile id="107">
   <animation>
    <frame tileid="107" duration="150"/>
    <frame tileid="588" duration="150"/>
    <frame tileid="1069" duration="150"/>
    <frame tileid="1550" duration="150"/>
    <frame tileid="2031" duration="150"/>
    <frame tileid="2512" duration="150"/>
   </animation>
  </tile>
  <tile id="108">
   <animation>
    <frame tileid="108" duration="150"/>
    <frame tileid="589" duration="150"/>
    <frame tileid="1070" duration="150"/>
    <frame tileid="1551" duration="150"/>
    <frame tileid="2032" duration="150"/>
    <frame tileid="2513" duration="150"/>
   </animation>
  </tile>
  <tile id="109">
   <animation>
    <frame tileid="109" duration="150"/>
    <frame tileid="590" duration="150"/>
    <frame tileid="1071" duration="150"/>
    <frame tileid="1552" duration="150"/>
    <frame tileid="2033" duration="150"/>
    <frame tileid="2514" duration="150"/>
   </animation>
  </tile>
  <tile id="110">
   <animation>
    <frame tileid="110" duration="150"/>
    <frame tileid="591" duration="150"/>
    <frame tileid="1072" duration="150"/>
    <frame tileid="1553" duration="150"/>
    <frame tileid="2034" duration="150"/>
    <frame tileid="2515" duration="150"/>
   </animation>
  </tile>
  <tile id="112">
   <animation>
    <frame tileid="112" duration="150"/>
    <frame tileid="593" duration="150"/>
    <frame tileid="1074" duration="150"/>
    <frame tileid="1555" duration="150"/>
    <frame tileid="2036" duration="150"/>
    <frame tileid="2517" duration="150"/>
   </animation>
  </tile>
  <tile id="113">
   <animation>
    <frame tileid="113" duration="150"/>
    <frame tileid="594" duration="150"/>
    <frame tileid="1075" duration="150"/>
    <frame tileid="1556" duration="150"/>
    <frame tileid="2037" duration="150"/>
    <frame tileid="2518" duration="150"/>
   </animation>
  </tile>
  <tile id="114">
   <animation>
    <frame tileid="114" duration="150"/>
    <frame tileid="595" duration="150"/>
    <frame tileid="1076" duration="150"/>
    <frame tileid="1557" duration="150"/>
    <frame tileid="2038" duration="150"/>
    <frame tileid="2519" duration="150"/>
   </animation>
  </tile>
  <tile id="115">
   <animation>
    <frame tileid="115" duration="150"/>
    <frame tileid="596" duration="150"/>
    <frame tileid="1077" duration="150"/>
    <frame tileid="1558" duration="150"/>
    <frame tileid="2039" duration="150"/>
    <frame tileid="2520" duration="150"/>
   </animation>
  </tile>
  <tile id="116">
   <animation>
    <frame tileid="116" duration="150"/>
    <frame tileid="597" duration="150"/>
    <frame tileid="1078" duration="150"/>
    <frame tileid="1559" duration="150"/>
    <frame tileid="2040" duration="150"/>
    <frame tileid="2521" duration="150"/>
   </animation>
  </tile>
  <tile id="117">
   <animation>
    <frame tileid="117" duration="150"/>
    <frame tileid="598" duration="150"/>
    <frame tileid="1079" duration="150"/>
    <frame tileid="1560" duration="150"/>
    <frame tileid="2041" duration="150"/>
    <frame tileid="2522" duration="150"/>
   </animation>
  </tile>
  <tile id="118">
   <animation>
    <frame tileid="118" duration="150"/>
    <frame tileid="599" duration="150"/>
    <frame tileid="1080" duration="150"/>
    <frame tileid="1561" duration="150"/>
    <frame tileid="2042" duration="150"/>
    <frame tileid="2523" duration="150"/>
   </animation>
  </tile>
  <tile id="119">
   <animation>
    <frame tileid="119" duration="150"/>
    <frame tileid="600" duration="150"/>
    <frame tileid="1081" duration="150"/>
    <frame tileid="1562" duration="150"/>
    <frame tileid="2043" duration="150"/>
    <frame tileid="2524" duration="150"/>
   </animation>
  </tile>
  <tile id="120">
   <animation>
    <frame tileid="120" duration="150"/>
    <frame tileid="601" duration="150"/>
    <frame tileid="1082" duration="150"/>
    <frame tileid="1563" duration="150"/>
    <frame tileid="2044" duration="150"/>
    <frame tileid="2525" duration="150"/>
   </animation>
  </tile>
  <tile id="121">
   <animation>
    <frame tileid="121" duration="150"/>
    <frame tileid="602" duration="150"/>
    <frame tileid="1083" duration="150"/>
    <frame tileid="1564" duration="150"/>
    <frame tileid="2045" duration="150"/>
    <frame tileid="2526" duration="150"/>
   </animation>
  </tile>
  <tile id="122">
   <animation>
    <frame tileid="122" duration="150"/>
    <frame tileid="603" duration="150"/>
    <frame tileid="1084" duration="150"/>
    <frame tileid="1565" duration="150"/>
    <frame tileid="2046" duration="150"/>
    <frame tileid="2527" duration="150"/>
   </animation>
  </tile>
  <tile id="131">
   <animation>
    <frame tileid="131" duration="150"/>
    <frame tileid="612" duration="150"/>
    <frame tileid="1093" duration="150"/>
    <frame tileid="1574" duration="150"/>
    <frame tileid="2055" duration="150"/>
    <frame tileid="2536" duration="150"/>
   </animation>
  </tile>
  <tile id="132">
   <animation>
    <frame tileid="132" duration="150"/>
    <frame tileid="613" duration="150"/>
    <frame tileid="1094" duration="150"/>
    <frame tileid="1575" duration="150"/>
    <frame tileid="2056" duration="150"/>
    <frame tileid="2537" duration="150"/>
   </animation>
  </tile>
  <tile id="133">
   <animation>
    <frame tileid="133" duration="150"/>
    <frame tileid="614" duration="150"/>
    <frame tileid="1095" duration="150"/>
    <frame tileid="1576" duration="150"/>
    <frame tileid="2057" duration="150"/>
    <frame tileid="2538" duration="150"/>
   </animation>
  </tile>
  <tile id="134">
   <animation>
    <frame tileid="134" duration="150"/>
    <frame tileid="615" duration="150"/>
    <frame tileid="1096" duration="150"/>
    <frame tileid="1577" duration="150"/>
    <frame tileid="2058" duration="150"/>
    <frame tileid="2539" duration="150"/>
   </animation>
  </tile>
  <tile id="135">
   <animation>
    <frame tileid="135" duration="150"/>
    <frame tileid="616" duration="150"/>
    <frame tileid="1097" duration="150"/>
    <frame tileid="1578" duration="150"/>
    <frame tileid="2059" duration="150"/>
    <frame tileid="2540" duration="150"/>
   </animation>
  </tile>
  <tile id="136">
   <animation>
    <frame tileid="136" duration="150"/>
    <frame tileid="617" duration="150"/>
    <frame tileid="1098" duration="150"/>
    <frame tileid="1579" duration="150"/>
    <frame tileid="2060" duration="150"/>
    <frame tileid="2541" duration="150"/>
   </animation>
  </tile>
  <tile id="137">
   <animation>
    <frame tileid="137" duration="150"/>
    <frame tileid="618" duration="150"/>
    <frame tileid="1099" duration="150"/>
    <frame tileid="1580" duration="150"/>
    <frame tileid="2060" duration="150"/>
    <frame tileid="2542" duration="150"/>
   </animation>
  </tile>
  <tile id="138">
   <animation>
    <frame tileid="138" duration="150"/>
    <frame tileid="619" duration="150"/>
    <frame tileid="1100" duration="150"/>
    <frame tileid="1581" duration="150"/>
    <frame tileid="2062" duration="150"/>
    <frame tileid="2543" duration="150"/>
   </animation>
  </tile>
  <tile id="176">
   <animation>
    <frame tileid="176" duration="150"/>
    <frame tileid="657" duration="150"/>
    <frame tileid="1138" duration="150"/>
    <frame tileid="1619" duration="150"/>
    <frame tileid="2100" duration="150"/>
    <frame tileid="2581" duration="150"/>
   </animation>
  </tile>
  <tile id="177">
   <animation>
    <frame tileid="177" duration="150"/>
    <frame tileid="658" duration="150"/>
    <frame tileid="1139" duration="150"/>
    <frame tileid="1620" duration="150"/>
    <frame tileid="2101" duration="150"/>
    <frame tileid="2582" duration="150"/>
   </animation>
  </tile>
  <tile id="178">
   <animation>
    <frame tileid="178" duration="150"/>
    <frame tileid="659" duration="150"/>
    <frame tileid="1140" duration="150"/>
    <frame tileid="1621" duration="150"/>
    <frame tileid="2102" duration="150"/>
    <frame tileid="2583" duration="150"/>
   </animation>
  </tile>
  <tile id="179">
   <animation>
    <frame tileid="179" duration="150"/>
    <frame tileid="660" duration="150"/>
    <frame tileid="1141" duration="150"/>
    <frame tileid="1622" duration="150"/>
    <frame tileid="2103" duration="150"/>
    <frame tileid="2584" duration="150"/>
   </animation>
  </tile>
  <tile id="180">
   <animation>
    <frame tileid="180" duration="150"/>
    <frame tileid="661" duration="150"/>
    <frame tileid="1142" duration="150"/>
    <frame tileid="1623" duration="150"/>
    <frame tileid="2104" duration="150"/>
    <frame tileid="2585" duration="150"/>
   </animation>
  </tile>
  <tile id="188">
   <animation>
    <frame tileid="188" duration="150"/>
    <frame tileid="669" duration="150"/>
    <frame tileid="1150" duration="150"/>
    <frame tileid="1631" duration="150"/>
    <frame tileid="2112" duration="150"/>
    <frame tileid="2593" duration="150"/>
   </animation>
  </tile>
  <tile id="189">
   <animation>
    <frame tileid="189" duration="150"/>
    <frame tileid="670" duration="150"/>
    <frame tileid="1151" duration="150"/>
    <frame tileid="1632" duration="150"/>
    <frame tileid="2113" duration="150"/>
    <frame tileid="2594" duration="150"/>
   </animation>
  </tile>
  <tile id="190">
   <animation>
    <frame tileid="190" duration="150"/>
    <frame tileid="671" duration="150"/>
    <frame tileid="1152" duration="150"/>
    <frame tileid="1633" duration="150"/>
    <frame tileid="2114" duration="150"/>
    <frame tileid="2595" duration="150"/>
   </animation>
  </tile>
  <tile id="191">
   <animation>
    <frame tileid="191" duration="150"/>
    <frame tileid="672" duration="150"/>
    <frame tileid="1153" duration="150"/>
    <frame tileid="1634" duration="150"/>
    <frame tileid="2115" duration="150"/>
    <frame tileid="2596" duration="150"/>
   </animation>
  </tile>
  <tile id="192">
   <animation>
    <frame tileid="192" duration="150"/>
    <frame tileid="673" duration="150"/>
    <frame tileid="1154" duration="150"/>
    <frame tileid="1635" duration="150"/>
    <frame tileid="2116" duration="150"/>
    <frame tileid="2597" duration="150"/>
   </animation>
  </tile>
  <tile id="193">
   <animation>
    <frame tileid="193" duration="150"/>
    <frame tileid="674" duration="150"/>
    <frame tileid="1155" duration="150"/>
    <frame tileid="1636" duration="150"/>
    <frame tileid="2117" duration="150"/>
    <frame tileid="2598" duration="150"/>
   </animation>
  </tile>
  <tile id="194">
   <animation>
    <frame tileid="194" duration="150"/>
    <frame tileid="675" duration="150"/>
    <frame tileid="1156" duration="150"/>
    <frame tileid="1637" duration="150"/>
    <frame tileid="2118" duration="150"/>
    <frame tileid="2599" duration="150"/>
   </animation>
  </tile>
  <tile id="201">
   <animation>
    <frame tileid="201" duration="150"/>
    <frame tileid="682" duration="150"/>
    <frame tileid="1163" duration="150"/>
    <frame tileid="1644" duration="150"/>
    <frame tileid="2125" duration="150"/>
    <frame tileid="2606" duration="150"/>
   </animation>
  </tile>
  <tile id="202">
   <animation>
    <frame tileid="202" duration="150"/>
    <frame tileid="683" duration="150"/>
    <frame tileid="1164" duration="150"/>
    <frame tileid="1645" duration="150"/>
    <frame tileid="2126" duration="150"/>
    <frame tileid="2607" duration="150"/>
   </animation>
  </tile>
  <tile id="203">
   <animation>
    <frame tileid="203" duration="150"/>
    <frame tileid="684" duration="150"/>
    <frame tileid="1165" duration="150"/>
    <frame tileid="1646" duration="150"/>
    <frame tileid="2127" duration="150"/>
    <frame tileid="2608" duration="150"/>
   </animation>
  </tile>
  <tile id="204">
   <animation>
    <frame tileid="204" duration="150"/>
    <frame tileid="685" duration="150"/>
    <frame tileid="1166" duration="150"/>
    <frame tileid="1647" duration="150"/>
    <frame tileid="2128" duration="150"/>
    <frame tileid="2609" duration="150"/>
   </animation>
  </tile>
  <tile id="205">
   <animation>
    <frame tileid="205" duration="150"/>
    <frame tileid="686" duration="150"/>
    <frame tileid="1167" duration="150"/>
    <frame tileid="1648" duration="150"/>
    <frame tileid="2129" duration="150"/>
    <frame tileid="2610" duration="150"/>
   </animation>
  </tile>
  <tile id="206">
   <animation>
    <frame tileid="206" duration="150"/>
    <frame tileid="687" duration="150"/>
    <frame tileid="1168" duration="150"/>
    <frame tileid="1649" duration="150"/>
    <frame tileid="2130" duration="150"/>
    <frame tileid="2611" duration="150"/>
   </animation>
  </tile>
  <tile id="207">
   <animation>
    <frame tileid="207" duration="150"/>
    <frame tileid="688" duration="150"/>
    <frame tileid="1169" duration="150"/>
    <frame tileid="1650" duration="150"/>
    <frame tileid="2131" duration="150"/>
    <frame tileid="2612" duration="150"/>
   </animation>
  </tile>
  <tile id="208">
   <animation>
    <frame tileid="208" duration="150"/>
    <frame tileid="689" duration="150"/>
    <frame tileid="1170" duration="150"/>
    <frame tileid="1651" duration="150"/>
    <frame tileid="2132" duration="150"/>
    <frame tileid="2613" duration="150"/>
   </animation>
  </tile>
  <tile id="209">
   <animation>
    <frame tileid="209" duration="150"/>
    <frame tileid="690" duration="150"/>
    <frame tileid="1171" duration="150"/>
    <frame tileid="1652" duration="150"/>
    <frame tileid="2133" duration="150"/>
    <frame tileid="2614" duration="150"/>
   </animation>
  </tile>
  <tile id="210">
   <animation>
    <frame tileid="210" duration="150"/>
    <frame tileid="691" duration="150"/>
    <frame tileid="1172" duration="150"/>
    <frame tileid="1653" duration="150"/>
    <frame tileid="2134" duration="150"/>
    <frame tileid="2615" duration="150"/>
   </animation>
  </tile>
  <tile id="211">
   <animation>
    <frame tileid="211" duration="150"/>
    <frame tileid="692" duration="150"/>
    <frame tileid="1173" duration="150"/>
    <frame tileid="1654" duration="150"/>
    <frame tileid="2135" duration="150"/>
    <frame tileid="2616" duration="150"/>
   </animation>
  </tile>
  <tile id="212">
   <animation>
    <frame tileid="212" duration="150"/>
    <frame tileid="693" duration="150"/>
    <frame tileid="1174" duration="150"/>
    <frame tileid="1655" duration="150"/>
    <frame tileid="2136" duration="150"/>
    <frame tileid="2617" duration="150"/>
   </animation>
  </tile>
  <tile id="213">
   <animation>
    <frame tileid="213" duration="150"/>
    <frame tileid="694" duration="150"/>
    <frame tileid="1175" duration="150"/>
    <frame tileid="1656" duration="150"/>
    <frame tileid="2137" duration="150"/>
    <frame tileid="2618" duration="150"/>
   </animation>
  </tile>
  <tile id="214">
   <animation>
    <frame tileid="214" duration="150"/>
    <frame tileid="695" duration="150"/>
    <frame tileid="1176" duration="150"/>
    <frame tileid="1657" duration="150"/>
    <frame tileid="2138" duration="150"/>
    <frame tileid="2619" duration="150"/>
   </animation>
  </tile>
  <tile id="215">
   <animation>
    <frame tileid="215" duration="150"/>
    <frame tileid="696" duration="150"/>
    <frame tileid="1177" duration="150"/>
    <frame tileid="1658" duration="150"/>
    <frame tileid="2139" duration="150"/>
    <frame tileid="2620" duration="150"/>
   </animation>
  </tile>
  <tile id="223">
   <animation>
    <frame tileid="223" duration="150"/>
    <frame tileid="704" duration="150"/>
    <frame tileid="1185" duration="150"/>
    <frame tileid="1666" duration="150"/>
    <frame tileid="2147" duration="150"/>
    <frame tileid="2628" duration="150"/>
   </animation>
  </tile>
  <tile id="224">
   <animation>
    <frame tileid="224" duration="150"/>
    <frame tileid="705" duration="150"/>
    <frame tileid="1186" duration="150"/>
    <frame tileid="1667" duration="150"/>
    <frame tileid="2148" duration="150"/>
    <frame tileid="2629" duration="150"/>
   </animation>
  </tile>
  <tile id="225">
   <animation>
    <frame tileid="225" duration="150"/>
    <frame tileid="706" duration="150"/>
    <frame tileid="1187" duration="150"/>
    <frame tileid="1668" duration="150"/>
    <frame tileid="2149" duration="150"/>
    <frame tileid="2630" duration="150"/>
   </animation>
  </tile>
  <tile id="226">
   <animation>
    <frame tileid="226" duration="150"/>
    <frame tileid="707" duration="150"/>
    <frame tileid="1188" duration="150"/>
    <frame tileid="1669" duration="150"/>
    <frame tileid="2150" duration="150"/>
    <frame tileid="2631" duration="150"/>
   </animation>
  </tile>
  <tile id="227">
   <animation>
    <frame tileid="227" duration="150"/>
    <frame tileid="708" duration="150"/>
    <frame tileid="1189" duration="150"/>
    <frame tileid="1670" duration="150"/>
    <frame tileid="2151" duration="150"/>
    <frame tileid="2632" duration="150"/>
   </animation>
  </tile>
  <tile id="228">
   <animation>
    <frame tileid="228" duration="150"/>
    <frame tileid="709" duration="150"/>
    <frame tileid="1190" duration="150"/>
    <frame tileid="1671" duration="150"/>
    <frame tileid="2152" duration="150"/>
    <frame tileid="2633" duration="150"/>
   </animation>
  </tile>
  <tile id="229">
   <animation>
    <frame tileid="229" duration="150"/>
    <frame tileid="710" duration="150"/>
    <frame tileid="1191" duration="150"/>
    <frame tileid="1672" duration="150"/>
    <frame tileid="2153" duration="150"/>
    <frame tileid="2634" duration="150"/>
   </animation>
  </tile>
  <tile id="230">
   <animation>
    <frame tileid="230" duration="150"/>
    <frame tileid="711" duration="150"/>
    <frame tileid="1192" duration="150"/>
    <frame tileid="1673" duration="150"/>
    <frame tileid="2154" duration="150"/>
    <frame tileid="2635" duration="150"/>
   </animation>
  </tile>
  <tile id="231">
   <animation>
    <frame tileid="231" duration="150"/>
    <frame tileid="712" duration="150"/>
    <frame tileid="1193" duration="150"/>
    <frame tileid="1674" duration="150"/>
    <frame tileid="2155" duration="150"/>
    <frame tileid="2636" duration="150"/>
   </animation>
  </tile>
  <tile id="232">
   <animation>
    <frame tileid="232" duration="150"/>
    <frame tileid="713" duration="150"/>
    <frame tileid="1194" duration="150"/>
    <frame tileid="1675" duration="150"/>
    <frame tileid="2156" duration="150"/>
    <frame tileid="2637" duration="150"/>
   </animation>
  </tile>
  <tile id="233">
   <animation>
    <frame tileid="233" duration="150"/>
    <frame tileid="714" duration="150"/>
    <frame tileid="1195" duration="150"/>
    <frame tileid="1676" duration="150"/>
    <frame tileid="2157" duration="150"/>
    <frame tileid="2638" duration="150"/>
   </animation>
  </tile>
  <tile id="234">
   <animation>
    <frame tileid="234" duration="150"/>
    <frame tileid="715" duration="150"/>
    <frame tileid="1196" duration="150"/>
    <frame tileid="1677" duration="150"/>
    <frame tileid="2158" duration="150"/>
    <frame tileid="2639" duration="150"/>
   </animation>
  </tile>
  <tile id="235">
   <animation>
    <frame tileid="235" duration="150"/>
    <frame tileid="716" duration="150"/>
    <frame tileid="1197" duration="150"/>
    <frame tileid="1678" duration="150"/>
    <frame tileid="2159" duration="150"/>
    <frame tileid="2640" duration="150"/>
   </animation>
  </tile>
  <tile id="238">
   <animation>
    <frame tileid="238" duration="150"/>
    <frame tileid="719" duration="150"/>
    <frame tileid="1200" duration="150"/>
    <frame tileid="1681" duration="150"/>
    <frame tileid="2162" duration="150"/>
    <frame tileid="2643" duration="150"/>
   </animation>
  </tile>
  <tile id="239">
   <animation>
    <frame tileid="239" duration="150"/>
    <frame tileid="720" duration="150"/>
    <frame tileid="1201" duration="150"/>
    <frame tileid="1682" duration="150"/>
    <frame tileid="2163" duration="150"/>
    <frame tileid="2644" duration="150"/>
   </animation>
  </tile>
  <tile id="240">
   <animation>
    <frame tileid="240" duration="150"/>
    <frame tileid="721" duration="150"/>
    <frame tileid="1202" duration="150"/>
    <frame tileid="1683" duration="150"/>
    <frame tileid="2164" duration="150"/>
    <frame tileid="2645" duration="150"/>
   </animation>
  </tile>
  <tile id="241">
   <animation>
    <frame tileid="241" duration="150"/>
    <frame tileid="722" duration="150"/>
    <frame tileid="1203" duration="150"/>
    <frame tileid="1684" duration="150"/>
    <frame tileid="2165" duration="150"/>
    <frame tileid="2646" duration="150"/>
   </animation>
  </tile>
  <tile id="242">
   <animation>
    <frame tileid="242" duration="150"/>
    <frame tileid="723" duration="150"/>
    <frame tileid="1204" duration="150"/>
    <frame tileid="1685" duration="150"/>
    <frame tileid="2166" duration="150"/>
    <frame tileid="2647" duration="150"/>
   </animation>
  </tile>
  <tile id="243">
   <animation>
    <frame tileid="243" duration="150"/>
    <frame tileid="724" duration="150"/>
    <frame tileid="1205" duration="150"/>
    <frame tileid="1686" duration="150"/>
    <frame tileid="2167" duration="150"/>
    <frame tileid="2648" duration="150"/>
   </animation>
  </tile>
  <tile id="244">
   <animation>
    <frame tileid="244" duration="150"/>
    <frame tileid="725" duration="150"/>
    <frame tileid="1206" duration="150"/>
    <frame tileid="1687" duration="150"/>
    <frame tileid="2168" duration="150"/>
    <frame tileid="2649" duration="150"/>
   </animation>
  </tile>
  <tile id="245">
   <animation>
    <frame tileid="245" duration="150"/>
    <frame tileid="726" duration="150"/>
    <frame tileid="1207" duration="150"/>
    <frame tileid="1688" duration="150"/>
    <frame tileid="2169" duration="150"/>
    <frame tileid="2650" duration="150"/>
   </animation>
  </tile>
  <tile id="246">
   <animation>
    <frame tileid="246" duration="150"/>
    <frame tileid="727" duration="150"/>
    <frame tileid="1208" duration="150"/>
    <frame tileid="1689" duration="150"/>
    <frame tileid="2170" duration="150"/>
    <frame tileid="2651" duration="150"/>
   </animation>
  </tile>
  <tile id="247">
   <animation>
    <frame tileid="247" duration="150"/>
    <frame tileid="728" duration="150"/>
    <frame tileid="1209" duration="150"/>
    <frame tileid="1690" duration="150"/>
    <frame tileid="2171" duration="150"/>
    <frame tileid="2652" duration="150"/>
   </animation>
  </tile>
  <tile id="248">
   <animation>
    <frame tileid="248" duration="150"/>
    <frame tileid="729" duration="150"/>
    <frame tileid="1210" duration="150"/>
    <frame tileid="1691" duration="150"/>
    <frame tileid="2172" duration="150"/>
    <frame tileid="2653" duration="150"/>
   </animation>
  </tile>
  <tile id="249">
   <animation>
    <frame tileid="249" duration="150"/>
    <frame tileid="730" duration="150"/>
    <frame tileid="1211" duration="150"/>
    <frame tileid="1692" duration="150"/>
    <frame tileid="2173" duration="150"/>
    <frame tileid="2654" duration="150"/>
   </animation>
  </tile>
  <tile id="250">
   <animation>
    <frame tileid="250" duration="150"/>
    <frame tileid="731" duration="150"/>
    <frame tileid="1212" duration="150"/>
    <frame tileid="1693" duration="150"/>
    <frame tileid="2174" duration="150"/>
    <frame tileid="2655" duration="150"/>
   </animation>
  </tile>
  <tile id="251">
   <animation>
    <frame tileid="251" duration="150"/>
    <frame tileid="732" duration="150"/>
    <frame tileid="1213" duration="150"/>
    <frame tileid="1694" duration="150"/>
    <frame tileid="2175" duration="150"/>
    <frame tileid="2656" duration="150"/>
   </animation>
  </tile>
  <tile id="255">
   <animation>
    <frame tileid="255" duration="150"/>
    <frame tileid="736" duration="150"/>
    <frame tileid="1217" duration="150"/>
    <frame tileid="1698" duration="150"/>
    <frame tileid="2179" duration="150"/>
    <frame tileid="2660" duration="150"/>
   </animation>
  </tile>
  <tile id="256">
   <animation>
    <frame tileid="256" duration="150"/>
    <frame tileid="737" duration="150"/>
    <frame tileid="1218" duration="150"/>
    <frame tileid="1699" duration="150"/>
    <frame tileid="2180" duration="150"/>
    <frame tileid="2661" duration="150"/>
   </animation>
  </tile>
  <tile id="257">
   <animation>
    <frame tileid="257" duration="150"/>
    <frame tileid="738" duration="150"/>
    <frame tileid="1219" duration="150"/>
    <frame tileid="1700" duration="150"/>
    <frame tileid="2181" duration="150"/>
    <frame tileid="2662" duration="150"/>
   </animation>
  </tile>
  <tile id="264">
   <animation>
    <frame tileid="264" duration="150"/>
    <frame tileid="745" duration="150"/>
    <frame tileid="1226" duration="150"/>
    <frame tileid="1707" duration="150"/>
    <frame tileid="2188" duration="150"/>
    <frame tileid="2669" duration="150"/>
   </animation>
  </tile>
  <tile id="265">
   <animation>
    <frame tileid="265" duration="150"/>
    <frame tileid="746" duration="150"/>
    <frame tileid="1227" duration="150"/>
    <frame tileid="1708" duration="150"/>
    <frame tileid="2189" duration="150"/>
    <frame tileid="2670" duration="150"/>
   </animation>
  </tile>
  <tile id="266">
   <animation>
    <frame tileid="266" duration="150"/>
    <frame tileid="747" duration="150"/>
    <frame tileid="1228" duration="150"/>
    <frame tileid="1709" duration="150"/>
    <frame tileid="2190" duration="150"/>
    <frame tileid="2671" duration="150"/>
   </animation>
  </tile>
  <tile id="267">
   <animation>
    <frame tileid="267" duration="150"/>
    <frame tileid="748" duration="150"/>
    <frame tileid="1229" duration="150"/>
    <frame tileid="1710" duration="150"/>
    <frame tileid="2191" duration="150"/>
    <frame tileid="2672" duration="150"/>
   </animation>
  </tile>
  <tile id="268">
   <animation>
    <frame tileid="268" duration="150"/>
    <frame tileid="749" duration="150"/>
    <frame tileid="1230" duration="150"/>
    <frame tileid="1711" duration="150"/>
    <frame tileid="2192" duration="150"/>
    <frame tileid="2673" duration="150"/>
   </animation>
  </tile>
  <tile id="269">
   <animation>
    <frame tileid="269" duration="150"/>
    <frame tileid="750" duration="150"/>
    <frame tileid="1231" duration="150"/>
    <frame tileid="1712" duration="150"/>
    <frame tileid="2193" duration="150"/>
    <frame tileid="2674" duration="150"/>
   </animation>
  </tile>
  <tile id="313">
   <animation>
    <frame tileid="313" duration="150"/>
    <frame tileid="794" duration="150"/>
    <frame tileid="1275" duration="150"/>
    <frame tileid="1756" duration="150"/>
    <frame tileid="2237" duration="150"/>
    <frame tileid="2718" duration="150"/>
   </animation>
  </tile>
  <tile id="314">
   <animation>
    <frame tileid="314" duration="150"/>
    <frame tileid="795" duration="150"/>
    <frame tileid="1276" duration="150"/>
    <frame tileid="1757" duration="150"/>
    <frame tileid="2238" duration="150"/>
    <frame tileid="2719" duration="150"/>
   </animation>
  </tile>
  <tile id="315">
   <animation>
    <frame tileid="315" duration="150"/>
    <frame tileid="796" duration="150"/>
    <frame tileid="1277" duration="150"/>
    <frame tileid="1758" duration="150"/>
    <frame tileid="2239" duration="150"/>
    <frame tileid="2720" duration="150"/>
   </animation>
  </tile>
  <tile id="316">
   <animation>
    <frame tileid="316" duration="150"/>
    <frame tileid="797" duration="150"/>
    <frame tileid="1278" duration="150"/>
    <frame tileid="1759" duration="150"/>
    <frame tileid="2240" duration="150"/>
    <frame tileid="2721" duration="150"/>
   </animation>
  </tile>
  <tile id="317">
   <animation>
    <frame tileid="317" duration="150"/>
    <frame tileid="798" duration="150"/>
    <frame tileid="1279" duration="150"/>
    <frame tileid="1760" duration="150"/>
    <frame tileid="2241" duration="150"/>
    <frame tileid="2722" duration="150"/>
   </animation>
  </tile>
  <tile id="318">
   <animation>
    <frame tileid="318" duration="150"/>
    <frame tileid="799" duration="150"/>
    <frame tileid="1280" duration="150"/>
    <frame tileid="1761" duration="150"/>
    <frame tileid="2242" duration="150"/>
    <frame tileid="2723" duration="150"/>
   </animation>
  </tile>
  <tile id="319">
   <animation>
    <frame tileid="319" duration="150"/>
    <frame tileid="800" duration="150"/>
    <frame tileid="1281" duration="150"/>
    <frame tileid="1762" duration="150"/>
    <frame tileid="2243" duration="150"/>
    <frame tileid="2724" duration="150"/>
   </animation>
  </tile>
  <tile id="320">
   <animation>
    <frame tileid="320" duration="150"/>
    <frame tileid="801" duration="150"/>
    <frame tileid="1282" duration="150"/>
    <frame tileid="1763" duration="150"/>
    <frame tileid="2244" duration="150"/>
    <frame tileid="2725" duration="150"/>
   </animation>
  </tile>
  <tile id="323">
   <animation>
    <frame tileid="323" duration="150"/>
    <frame tileid="804" duration="150"/>
    <frame tileid="1285" duration="150"/>
    <frame tileid="1766" duration="150"/>
    <frame tileid="2247" duration="150"/>
    <frame tileid="2728" duration="150"/>
   </animation>
  </tile>
  <tile id="324">
   <animation>
    <frame tileid="324" duration="150"/>
    <frame tileid="805" duration="150"/>
    <frame tileid="1286" duration="150"/>
    <frame tileid="1767" duration="150"/>
    <frame tileid="2248" duration="150"/>
    <frame tileid="2729" duration="150"/>
   </animation>
  </tile>
  <tile id="325">
   <animation>
    <frame tileid="325" duration="150"/>
    <frame tileid="806" duration="150"/>
    <frame tileid="1287" duration="150"/>
    <frame tileid="1768" duration="150"/>
    <frame tileid="2249" duration="150"/>
    <frame tileid="2730" duration="150"/>
   </animation>
  </tile>
  <tile id="326">
   <animation>
    <frame tileid="326" duration="150"/>
    <frame tileid="807" duration="150"/>
    <frame tileid="1288" duration="150"/>
    <frame tileid="1769" duration="150"/>
    <frame tileid="2250" duration="150"/>
    <frame tileid="2731" duration="150"/>
   </animation>
  </tile>
  <tile id="327">
   <animation>
    <frame tileid="327" duration="150"/>
    <frame tileid="808" duration="150"/>
    <frame tileid="1289" duration="150"/>
    <frame tileid="1770" duration="150"/>
    <frame tileid="2251" duration="150"/>
    <frame tileid="2732" duration="150"/>
   </animation>
  </tile>
  <tile id="334">
   <animation>
    <frame tileid="334" duration="150"/>
    <frame tileid="815" duration="150"/>
    <frame tileid="1296" duration="150"/>
    <frame tileid="1777" duration="150"/>
    <frame tileid="2258" duration="150"/>
    <frame tileid="2739" duration="150"/>
   </animation>
  </tile>
  <tile id="335">
   <animation>
    <frame tileid="335" duration="150"/>
    <frame tileid="816" duration="150"/>
    <frame tileid="1297" duration="150"/>
    <frame tileid="1778" duration="150"/>
    <frame tileid="2259" duration="150"/>
    <frame tileid="2740" duration="150"/>
   </animation>
  </tile>
  <tile id="336">
   <animation>
    <frame tileid="336" duration="150"/>
    <frame tileid="817" duration="150"/>
    <frame tileid="1298" duration="150"/>
    <frame tileid="1779" duration="150"/>
    <frame tileid="2260" duration="150"/>
    <frame tileid="2741" duration="150"/>
   </animation>
  </tile>
  <tile id="337">
   <animation>
    <frame tileid="337" duration="150"/>
    <frame tileid="818" duration="150"/>
    <frame tileid="1299" duration="150"/>
    <frame tileid="1780" duration="150"/>
    <frame tileid="2261" duration="150"/>
    <frame tileid="2742" duration="150"/>
   </animation>
  </tile>
  <tile id="338">
   <animation>
    <frame tileid="338" duration="150"/>
    <frame tileid="819" duration="150"/>
    <frame tileid="1300" duration="150"/>
    <frame tileid="1781" duration="150"/>
    <frame tileid="2262" duration="150"/>
    <frame tileid="2743" duration="150"/>
   </animation>
  </tile>
  <tile id="339">
   <animation>
    <frame tileid="339" duration="150"/>
    <frame tileid="820" duration="150"/>
    <frame tileid="1301" duration="150"/>
    <frame tileid="1782" duration="150"/>
    <frame tileid="2263" duration="150"/>
    <frame tileid="2744" duration="150"/>
   </animation>
  </tile>
  <tile id="340">
   <animation>
    <frame tileid="340" duration="150"/>
    <frame tileid="821" duration="150"/>
    <frame tileid="1302" duration="150"/>
    <frame tileid="1783" duration="150"/>
    <frame tileid="2264" duration="150"/>
    <frame tileid="2745" duration="150"/>
   </animation>
  </tile>
  <tile id="341">
   <animation>
    <frame tileid="341" duration="150"/>
    <frame tileid="822" duration="150"/>
    <frame tileid="1303" duration="150"/>
    <frame tileid="1784" duration="150"/>
    <frame tileid="2265" duration="150"/>
    <frame tileid="2746" duration="150"/>
   </animation>
  </tile>
  <tile id="342">
   <animation>
    <frame tileid="342" duration="150"/>
    <frame tileid="823" duration="150"/>
    <frame tileid="1304" duration="150"/>
    <frame tileid="1785" duration="150"/>
    <frame tileid="2266" duration="150"/>
    <frame tileid="2747" duration="150"/>
   </animation>
  </tile>
  <tile id="343">
   <animation>
    <frame tileid="343" duration="150"/>
    <frame tileid="824" duration="150"/>
    <frame tileid="1305" duration="150"/>
    <frame tileid="1786" duration="150"/>
    <frame tileid="2267" duration="150"/>
    <frame tileid="2748" duration="150"/>
   </animation>
  </tile>
  <tile id="344">
   <animation>
    <frame tileid="344" duration="150"/>
    <frame tileid="825" duration="150"/>
    <frame tileid="1306" duration="150"/>
    <frame tileid="1787" duration="150"/>
    <frame tileid="2268" duration="150"/>
    <frame tileid="2749" duration="150"/>
   </animation>
  </tile>
  <tile id="345">
   <animation>
    <frame tileid="345" duration="150"/>
    <frame tileid="826" duration="150"/>
    <frame tileid="1307" duration="150"/>
    <frame tileid="1788" duration="150"/>
    <frame tileid="2269" duration="150"/>
    <frame tileid="2750" duration="150"/>
   </animation>
  </tile>
  <tile id="346">
   <animation>
    <frame tileid="346" duration="150"/>
    <frame tileid="827" duration="150"/>
    <frame tileid="1308" duration="150"/>
    <frame tileid="1789" duration="150"/>
    <frame tileid="2270" duration="150"/>
    <frame tileid="2750" duration="150"/>
   </animation>
  </tile>
  <tile id="347">
   <animation>
    <frame tileid="347" duration="150"/>
    <frame tileid="828" duration="150"/>
    <frame tileid="1309" duration="150"/>
    <frame tileid="1790" duration="150"/>
    <frame tileid="2271" duration="150"/>
    <frame tileid="2752" duration="150"/>
   </animation>
  </tile>
  <tile id="350">
   <animation>
    <frame tileid="350" duration="150"/>
    <frame tileid="831" duration="150"/>
    <frame tileid="1312" duration="150"/>
    <frame tileid="1793" duration="150"/>
    <frame tileid="2274" duration="150"/>
    <frame tileid="2755" duration="150"/>
   </animation>
  </tile>
  <tile id="351">
   <animation>
    <frame tileid="351" duration="150"/>
    <frame tileid="832" duration="150"/>
    <frame tileid="1313" duration="150"/>
    <frame tileid="1794" duration="150"/>
    <frame tileid="2275" duration="150"/>
    <frame tileid="2756" duration="150"/>
   </animation>
  </tile>
  <tile id="352">
   <animation>
    <frame tileid="352" duration="150"/>
    <frame tileid="833" duration="150"/>
    <frame tileid="1314" duration="150"/>
    <frame tileid="1795" duration="150"/>
    <frame tileid="2276" duration="150"/>
    <frame tileid="2757" duration="150"/>
   </animation>
  </tile>
  <tile id="353">
   <animation>
    <frame tileid="353" duration="150"/>
    <frame tileid="834" duration="150"/>
    <frame tileid="1315" duration="150"/>
    <frame tileid="1796" duration="150"/>
    <frame tileid="2277" duration="150"/>
    <frame tileid="2758" duration="150"/>
   </animation>
  </tile>
  <tile id="354">
   <animation>
    <frame tileid="354" duration="150"/>
    <frame tileid="835" duration="150"/>
    <frame tileid="1316" duration="150"/>
    <frame tileid="1797" duration="150"/>
    <frame tileid="2278" duration="150"/>
    <frame tileid="2759" duration="150"/>
   </animation>
  </tile>
  <tile id="355">
   <animation>
    <frame tileid="355" duration="150"/>
    <frame tileid="836" duration="150"/>
    <frame tileid="1317" duration="150"/>
    <frame tileid="1798" duration="150"/>
    <frame tileid="2279" duration="150"/>
    <frame tileid="2760" duration="150"/>
   </animation>
  </tile>
  <tile id="356">
   <animation>
    <frame tileid="356" duration="150"/>
    <frame tileid="837" duration="150"/>
    <frame tileid="1318" duration="150"/>
    <frame tileid="1799" duration="150"/>
    <frame tileid="2280" duration="150"/>
    <frame tileid="2761" duration="150"/>
   </animation>
  </tile>
  <tile id="357">
   <animation>
    <frame tileid="357" duration="150"/>
    <frame tileid="838" duration="150"/>
    <frame tileid="1319" duration="150"/>
    <frame tileid="1800" duration="150"/>
    <frame tileid="2281" duration="150"/>
    <frame tileid="2762" duration="150"/>
   </animation>
  </tile>
  <tile id="360">
   <animation>
    <frame tileid="360" duration="150"/>
    <frame tileid="841" duration="150"/>
    <frame tileid="1322" duration="150"/>
    <frame tileid="1803" duration="150"/>
    <frame tileid="2284" duration="150"/>
    <frame tileid="2765" duration="150"/>
   </animation>
  </tile>
  <tile id="361">
   <animation>
    <frame tileid="361" duration="150"/>
    <frame tileid="842" duration="150"/>
    <frame tileid="1323" duration="150"/>
    <frame tileid="1804" duration="150"/>
    <frame tileid="2285" duration="150"/>
    <frame tileid="2766" duration="150"/>
   </animation>
  </tile>
  <tile id="362">
   <animation>
    <frame tileid="362" duration="150"/>
    <frame tileid="843" duration="150"/>
    <frame tileid="1324" duration="150"/>
    <frame tileid="1805" duration="150"/>
    <frame tileid="2286" duration="150"/>
    <frame tileid="2767" duration="150"/>
   </animation>
  </tile>
  <tile id="363">
   <animation>
    <frame tileid="363" duration="150"/>
    <frame tileid="844" duration="150"/>
    <frame tileid="1325" duration="150"/>
    <frame tileid="1806" duration="150"/>
    <frame tileid="2287" duration="150"/>
    <frame tileid="2768" duration="150"/>
   </animation>
  </tile>
  <tile id="370">
   <animation>
    <frame tileid="370" duration="150"/>
    <frame tileid="851" duration="150"/>
    <frame tileid="1332" duration="150"/>
    <frame tileid="1813" duration="150"/>
    <frame tileid="2294" duration="150"/>
    <frame tileid="2775" duration="150"/>
   </animation>
  </tile>
  <tile id="371">
   <animation>
    <frame tileid="371" duration="150"/>
    <frame tileid="852" duration="150"/>
    <frame tileid="1333" duration="150"/>
    <frame tileid="1814" duration="150"/>
    <frame tileid="2295" duration="150"/>
    <frame tileid="2776" duration="150"/>
   </animation>
  </tile>
  <tile id="372">
   <animation>
    <frame tileid="372" duration="150"/>
    <frame tileid="853" duration="150"/>
    <frame tileid="1334" duration="150"/>
    <frame tileid="1815" duration="150"/>
    <frame tileid="2296" duration="150"/>
    <frame tileid="2777" duration="150"/>
   </animation>
  </tile>
  <tile id="373">
   <animation>
    <frame tileid="373" duration="150"/>
    <frame tileid="854" duration="150"/>
    <frame tileid="1335" duration="150"/>
    <frame tileid="1816" duration="150"/>
    <frame tileid="2297" duration="150"/>
    <frame tileid="2778" duration="150"/>
   </animation>
  </tile>
  <tile id="374">
   <animation>
    <frame tileid="374" duration="150"/>
    <frame tileid="855" duration="150"/>
    <frame tileid="1336" duration="150"/>
    <frame tileid="1817" duration="150"/>
    <frame tileid="2298" duration="150"/>
    <frame tileid="2779" duration="150"/>
   </animation>
  </tile>
  <tile id="375">
   <animation>
    <frame tileid="375" duration="150"/>
    <frame tileid="856" duration="150"/>
    <frame tileid="1337" duration="150"/>
    <frame tileid="1818" duration="150"/>
    <frame tileid="2299" duration="150"/>
    <frame tileid="2780" duration="150"/>
   </animation>
  </tile>
  <tile id="376">
   <animation>
    <frame tileid="376" duration="150"/>
    <frame tileid="857" duration="150"/>
    <frame tileid="1338" duration="150"/>
    <frame tileid="1819" duration="150"/>
    <frame tileid="2300" duration="150"/>
    <frame tileid="2781" duration="150"/>
   </animation>
  </tile>
  <tile id="377">
   <animation>
    <frame tileid="377" duration="150"/>
    <frame tileid="858" duration="150"/>
    <frame tileid="1339" duration="150"/>
    <frame tileid="1820" duration="150"/>
    <frame tileid="2301" duration="150"/>
    <frame tileid="2782" duration="150"/>
   </animation>
  </tile>
  <tile id="378">
   <animation>
    <frame tileid="380" duration="150"/>
    <frame tileid="861" duration="150"/>
    <frame tileid="1342" duration="150"/>
    <frame tileid="1823" duration="150"/>
    <frame tileid="2304" duration="150"/>
    <frame tileid="2785" duration="150"/>
   </animation>
  </tile>
  <tile id="379">
   <animation>
    <frame tileid="379" duration="150"/>
    <frame tileid="860" duration="150"/>
    <frame tileid="1341" duration="150"/>
    <frame tileid="1822" duration="150"/>
    <frame tileid="2303" duration="150"/>
    <frame tileid="2784" duration="150"/>
   </animation>
  </tile>
  <tile id="380">
   <animation>
    <frame tileid="380" duration="150"/>
    <frame tileid="861" duration="150"/>
    <frame tileid="1342" duration="150"/>
    <frame tileid="1823" duration="150"/>
    <frame tileid="2304" duration="150"/>
    <frame tileid="2785" duration="150"/>
   </animation>
  </tile>
  <tile id="381">
   <animation>
    <frame tileid="381" duration="150"/>
    <frame tileid="862" duration="150"/>
    <frame tileid="1343" duration="150"/>
    <frame tileid="1824" duration="150"/>
    <frame tileid="2305" duration="150"/>
    <frame tileid="2786" duration="150"/>
   </animation>
  </tile>
  <tile id="382">
   <animation>
    <frame tileid="382" duration="150"/>
    <frame tileid="863" duration="150"/>
    <frame tileid="1344" duration="150"/>
    <frame tileid="1825" duration="150"/>
    <frame tileid="2306" duration="150"/>
    <frame tileid="2787" duration="150"/>
   </animation>
  </tile>
  <tile id="383">
   <animation>
    <frame tileid="383" duration="150"/>
    <frame tileid="864" duration="150"/>
    <frame tileid="1345" duration="150"/>
    <frame tileid="1826" duration="150"/>
    <frame tileid="2307" duration="150"/>
    <frame tileid="2788" duration="150"/>
   </animation>
  </tile>
 </tileset>
 <tileset firstgid="4357" name="Exterior_tiles" tilewidth="16" tileheight="16" tilecount="336" columns="14">
  <image source="Exterior_tiles.png" width="224" height="384"/>
 </tileset>
 <tileset firstgid="4693" name="Spots" tilewidth="16" tileheight="16" tilecount="168" columns="21">
  <image source="Spots.png" width="336" height="128"/>
 </tileset>
 <tileset firstgid="4861" name="piles" tilewidth="16" tileheight="16" tilecount="36" columns="3">
  <image source="piles.png" width="48" height="192"/>
  <tile id="0">
   <animation>
    <frame tileid="0" duration="150"/>
    <frame tileid="6" duration="150"/>
    <frame tileid="12" duration="150"/>
    <frame tileid="18" duration="150"/>
    <frame tileid="24" duration="150"/>
    <frame tileid="30" duration="150"/>
   </animation>
  </tile>
  <tile id="1">
   <animation>
    <frame tileid="1" duration="150"/>
    <frame tileid="7" duration="150"/>
    <frame tileid="13" duration="150"/>
    <frame tileid="19" duration="150"/>
    <frame tileid="25" duration="150"/>
    <frame tileid="31" duration="150"/>
   </animation>
  </tile>
  <tile id="2">
   <animation>
    <frame tileid="2" duration="150"/>
    <frame tileid="8" duration="150"/>
    <frame tileid="14" duration="150"/>
    <frame tileid="20" duration="150"/>
    <frame tileid="26" duration="150"/>
    <frame tileid="32" duration="150"/>
   </animation>
  </tile>
  <tile id="3">
   <animation>
    <frame tileid="3" duration="150"/>
    <frame tileid="9" duration="150"/>
    <frame tileid="15" duration="150"/>
    <frame tileid="21" duration="150"/>
    <frame tileid="27" duration="150"/>
    <frame tileid="33" duration="150"/>
   </animation>
  </tile>
  <tile id="4">
   <animation>
    <frame tileid="4" duration="150"/>
    <frame tileid="10" duration="150"/>
    <frame tileid="16" duration="150"/>
    <frame tileid="22" duration="150"/>
    <frame tileid="28" duration="150"/>
    <frame tileid="34" duration="150"/>
   </animation>
  </tile>
  <tile id="5">
   <animation>
    <frame tileid="5" duration="150"/>
    <frame tileid="11" duration="150"/>
    <frame tileid="17" duration="150"/>
    <frame tileid="23" duration="150"/>
    <frame tileid="29" duration="150"/>
    <frame tileid="35" duration="150"/>
   </animation>
  </tile>
 </tileset>
 <tileset firstgid="4897" name="Water_detailization1" tilewidth="16" tileheight="16" tilecount="924" columns="22">
  <image source="Water_detailization1.png" width="352" height="672"/>
  <tile id="17">
   <animation>
    <frame tileid="17" duration="150"/>
    <frame tileid="171" duration="150"/>
    <frame tileid="325" duration="150"/>
    <frame tileid="479" duration="150"/>
    <frame tileid="633" duration="150"/>
    <frame tileid="787" duration="150"/>
   </animation>
  </tile>
  <tile id="18">
   <animation>
    <frame tileid="18" duration="150"/>
    <frame tileid="172" duration="150"/>
    <frame tileid="326" duration="150"/>
    <frame tileid="480" duration="150"/>
    <frame tileid="634" duration="150"/>
    <frame tileid="788" duration="150"/>
   </animation>
  </tile>
  <tile id="19">
   <animation>
    <frame tileid="19" duration="150"/>
    <frame tileid="173" duration="150"/>
    <frame tileid="327" duration="150"/>
    <frame tileid="481" duration="150"/>
    <frame tileid="635" duration="150"/>
    <frame tileid="789" duration="150"/>
   </animation>
  </tile>
  <tile id="22">
   <animation>
    <frame tileid="22" duration="150"/>
    <frame tileid="176" duration="150"/>
    <frame tileid="330" duration="150"/>
    <frame tileid="484" duration="150"/>
    <frame tileid="638" duration="150"/>
    <frame tileid="792" duration="150"/>
   </animation>
  </tile>
  <tile id="23">
   <animation>
    <frame tileid="23" duration="150"/>
    <frame tileid="177" duration="150"/>
    <frame tileid="331" duration="150"/>
    <frame tileid="485" duration="150"/>
    <frame tileid="639" duration="150"/>
    <frame tileid="793" duration="150"/>
   </animation>
  </tile>
  <tile id="24">
   <animation>
    <frame tileid="24" duration="150"/>
    <frame tileid="178" duration="150"/>
    <frame tileid="332" duration="150"/>
    <frame tileid="486" duration="150"/>
    <frame tileid="640" duration="150"/>
    <frame tileid="794" duration="150"/>
   </animation>
  </tile>
  <tile id="25">
   <animation>
    <frame tileid="25" duration="150"/>
    <frame tileid="179" duration="150"/>
    <frame tileid="333" duration="150"/>
    <frame tileid="487" duration="150"/>
    <frame tileid="641" duration="150"/>
    <frame tileid="795" duration="150"/>
   </animation>
  </tile>
  <tile id="26">
   <animation>
    <frame tileid="26" duration="150"/>
    <frame tileid="180" duration="150"/>
    <frame tileid="334" duration="150"/>
    <frame tileid="488" duration="150"/>
    <frame tileid="642" duration="150"/>
    <frame tileid="796" duration="150"/>
   </animation>
  </tile>
  <tile id="27">
   <animation>
    <frame tileid="27" duration="150"/>
    <frame tileid="181" duration="150"/>
    <frame tileid="335" duration="150"/>
    <frame tileid="489" duration="150"/>
    <frame tileid="643" duration="150"/>
    <frame tileid="797" duration="150"/>
   </animation>
  </tile>
  <tile id="28">
   <animation>
    <frame tileid="28" duration="150"/>
    <frame tileid="182" duration="150"/>
    <frame tileid="336" duration="150"/>
    <frame tileid="490" duration="150"/>
    <frame tileid="644" duration="150"/>
    <frame tileid="798" duration="150"/>
   </animation>
  </tile>
  <tile id="29">
   <animation>
    <frame tileid="29" duration="150"/>
    <frame tileid="183" duration="150"/>
    <frame tileid="337" duration="150"/>
    <frame tileid="491" duration="150"/>
    <frame tileid="645" duration="150"/>
    <frame tileid="799" duration="150"/>
   </animation>
  </tile>
  <tile id="30">
   <animation>
    <frame tileid="30" duration="150"/>
    <frame tileid="184" duration="150"/>
    <frame tileid="338" duration="150"/>
    <frame tileid="492" duration="150"/>
    <frame tileid="646" duration="150"/>
    <frame tileid="800" duration="150"/>
   </animation>
  </tile>
  <tile id="31">
   <animation>
    <frame tileid="31" duration="150"/>
    <frame tileid="185" duration="150"/>
    <frame tileid="339" duration="150"/>
    <frame tileid="493" duration="150"/>
    <frame tileid="647" duration="150"/>
    <frame tileid="801" duration="150"/>
   </animation>
  </tile>
  <tile id="32">
   <animation>
    <frame tileid="32" duration="150"/>
    <frame tileid="186" duration="150"/>
    <frame tileid="340" duration="150"/>
    <frame tileid="494" duration="150"/>
    <frame tileid="648" duration="150"/>
    <frame tileid="802" duration="150"/>
   </animation>
  </tile>
  <tile id="33">
   <animation>
    <frame tileid="33" duration="150"/>
    <frame tileid="187" duration="150"/>
    <frame tileid="341" duration="150"/>
    <frame tileid="495" duration="150"/>
    <frame tileid="649" duration="150"/>
    <frame tileid="803" duration="150"/>
   </animation>
  </tile>
  <tile id="34">
   <animation>
    <frame tileid="34" duration="150"/>
    <frame tileid="188" duration="150"/>
    <frame tileid="342" duration="150"/>
    <frame tileid="496" duration="150"/>
    <frame tileid="650" duration="150"/>
    <frame tileid="804" duration="150"/>
   </animation>
  </tile>
  <tile id="35">
   <animation>
    <frame tileid="35" duration="150"/>
    <frame tileid="189" duration="150"/>
    <frame tileid="343" duration="150"/>
    <frame tileid="497" duration="150"/>
    <frame tileid="651" duration="150"/>
    <frame tileid="805" duration="150"/>
   </animation>
  </tile>
  <tile id="36">
   <animation>
    <frame tileid="36" duration="150"/>
    <frame tileid="190" duration="150"/>
    <frame tileid="344" duration="150"/>
    <frame tileid="498" duration="150"/>
    <frame tileid="652" duration="150"/>
    <frame tileid="806" duration="150"/>
   </animation>
  </tile>
  <tile id="37">
   <animation>
    <frame tileid="37" duration="150"/>
    <frame tileid="191" duration="150"/>
    <frame tileid="345" duration="150"/>
    <frame tileid="499" duration="150"/>
    <frame tileid="653" duration="150"/>
    <frame tileid="807" duration="150"/>
   </animation>
  </tile>
  <tile id="38">
   <animation>
    <frame tileid="38" duration="150"/>
    <frame tileid="192" duration="150"/>
    <frame tileid="346" duration="150"/>
    <frame tileid="500" duration="150"/>
    <frame tileid="654" duration="150"/>
    <frame tileid="808" duration="150"/>
   </animation>
  </tile>
  <tile id="39">
   <animation>
    <frame tileid="39" duration="150"/>
    <frame tileid="193" duration="150"/>
    <frame tileid="347" duration="150"/>
    <frame tileid="501" duration="150"/>
    <frame tileid="655" duration="150"/>
    <frame tileid="809" duration="150"/>
   </animation>
  </tile>
  <tile id="40">
   <animation>
    <frame tileid="40" duration="150"/>
    <frame tileid="194" duration="150"/>
    <frame tileid="348" duration="150"/>
    <frame tileid="502" duration="150"/>
    <frame tileid="656" duration="150"/>
    <frame tileid="810" duration="150"/>
   </animation>
  </tile>
  <tile id="41">
   <animation>
    <frame tileid="41" duration="150"/>
    <frame tileid="195" duration="150"/>
    <frame tileid="349" duration="150"/>
    <frame tileid="503" duration="150"/>
    <frame tileid="657" duration="150"/>
    <frame tileid="811" duration="150"/>
   </animation>
  </tile>
  <tile id="42">
   <animation>
    <frame tileid="42" duration="150"/>
    <frame tileid="196" duration="150"/>
    <frame tileid="350" duration="150"/>
    <frame tileid="504" duration="150"/>
    <frame tileid="658" duration="150"/>
    <frame tileid="812" duration="150"/>
   </animation>
  </tile>
  <tile id="43">
   <animation>
    <frame tileid="43" duration="150"/>
    <frame tileid="197" duration="150"/>
    <frame tileid="351" duration="150"/>
    <frame tileid="505" duration="150"/>
    <frame tileid="659" duration="150"/>
    <frame tileid="813" duration="150"/>
   </animation>
  </tile>
  <tile id="53">
   <animation>
    <frame tileid="53" duration="150"/>
    <frame tileid="207" duration="150"/>
    <frame tileid="361" duration="150"/>
    <frame tileid="515" duration="150"/>
    <frame tileid="669" duration="150"/>
    <frame tileid="823" duration="150"/>
   </animation>
  </tile>
  <tile id="54">
   <animation>
    <frame tileid="54" duration="150"/>
    <frame tileid="208" duration="150"/>
    <frame tileid="362" duration="150"/>
    <frame tileid="516" duration="150"/>
    <frame tileid="670" duration="150"/>
    <frame tileid="824" duration="150"/>
   </animation>
  </tile>
  <tile id="55">
   <animation>
    <frame tileid="55" duration="150"/>
    <frame tileid="209" duration="150"/>
    <frame tileid="363" duration="150"/>
    <frame tileid="517" duration="150"/>
    <frame tileid="671" duration="150"/>
    <frame tileid="825" duration="150"/>
   </animation>
  </tile>
  <tile id="58">
   <animation>
    <frame tileid="58" duration="150"/>
    <frame tileid="212" duration="150"/>
    <frame tileid="366" duration="150"/>
    <frame tileid="520" duration="150"/>
    <frame tileid="674" duration="150"/>
    <frame tileid="828" duration="150"/>
   </animation>
  </tile>
  <tile id="59">
   <animation>
    <frame tileid="59" duration="150"/>
    <frame tileid="213" duration="150"/>
    <frame tileid="367" duration="150"/>
    <frame tileid="521" duration="150"/>
    <frame tileid="675" duration="150"/>
    <frame tileid="829" duration="150"/>
   </animation>
  </tile>
  <tile id="60">
   <animation>
    <frame tileid="60" duration="150"/>
    <frame tileid="214" duration="150"/>
    <frame tileid="368" duration="150"/>
    <frame tileid="522" duration="150"/>
    <frame tileid="676" duration="150"/>
    <frame tileid="830" duration="150"/>
   </animation>
  </tile>
  <tile id="69">
   <animation>
    <frame tileid="69" duration="150"/>
    <frame tileid="223" duration="150"/>
    <frame tileid="377" duration="150"/>
    <frame tileid="531" duration="150"/>
    <frame tileid="685" duration="150"/>
    <frame tileid="839" duration="150"/>
   </animation>
  </tile>
  <tile id="70">
   <animation>
    <frame tileid="70" duration="150"/>
    <frame tileid="224" duration="150"/>
    <frame tileid="378" duration="150"/>
    <frame tileid="532" duration="150"/>
    <frame tileid="686" duration="150"/>
    <frame tileid="840" duration="150"/>
   </animation>
  </tile>
  <tile id="71">
   <animation>
    <frame tileid="71" duration="150"/>
    <frame tileid="225" duration="150"/>
    <frame tileid="379" duration="150"/>
    <frame tileid="533" duration="150"/>
    <frame tileid="687" duration="150"/>
    <frame tileid="841" duration="150"/>
   </animation>
  </tile>
  <tile id="72">
   <animation>
    <frame tileid="72" duration="150"/>
    <frame tileid="226" duration="150"/>
    <frame tileid="380" duration="150"/>
    <frame tileid="534" duration="150"/>
    <frame tileid="688" duration="150"/>
    <frame tileid="842" duration="150"/>
   </animation>
  </tile>
  <tile id="73">
   <animation>
    <frame tileid="73" duration="150"/>
    <frame tileid="227" duration="150"/>
    <frame tileid="381" duration="150"/>
    <frame tileid="535" duration="150"/>
    <frame tileid="689" duration="150"/>
    <frame tileid="843" duration="150"/>
   </animation>
  </tile>
  <tile id="74">
   <animation>
    <frame tileid="74" duration="150"/>
    <frame tileid="228" duration="150"/>
    <frame tileid="382" duration="150"/>
    <frame tileid="536" duration="150"/>
    <frame tileid="690" duration="150"/>
    <frame tileid="844" duration="150"/>
   </animation>
  </tile>
  <tile id="75">
   <animation>
    <frame tileid="75" duration="150"/>
    <frame tileid="229" duration="150"/>
    <frame tileid="383" duration="150"/>
    <frame tileid="537" duration="150"/>
    <frame tileid="691" duration="150"/>
    <frame tileid="845" duration="150"/>
   </animation>
  </tile>
  <tile id="77">
   <animation>
    <frame tileid="77" duration="150"/>
    <frame tileid="231" duration="150"/>
    <frame tileid="385" duration="150"/>
    <frame tileid="539" duration="150"/>
    <frame tileid="693" duration="150"/>
    <frame tileid="847" duration="150"/>
   </animation>
  </tile>
  <tile id="78">
   <animation>
    <frame tileid="78" duration="150"/>
    <frame tileid="232" duration="150"/>
    <frame tileid="386" duration="150"/>
    <frame tileid="540" duration="150"/>
    <frame tileid="694" duration="150"/>
    <frame tileid="848" duration="150"/>
   </animation>
  </tile>
  <tile id="79">
   <animation>
    <frame tileid="79" duration="150"/>
    <frame tileid="233" duration="150"/>
    <frame tileid="387" duration="150"/>
    <frame tileid="541" duration="150"/>
    <frame tileid="695" duration="150"/>
    <frame tileid="849" duration="150"/>
   </animation>
  </tile>
  <tile id="80">
   <animation>
    <frame tileid="80" duration="150"/>
    <frame tileid="234" duration="150"/>
    <frame tileid="388" duration="150"/>
    <frame tileid="542" duration="150"/>
    <frame tileid="696" duration="150"/>
    <frame tileid="850" duration="150"/>
   </animation>
  </tile>
  <tile id="81">
   <animation>
    <frame tileid="81" duration="150"/>
    <frame tileid="235" duration="150"/>
    <frame tileid="389" duration="150"/>
    <frame tileid="543" duration="150"/>
    <frame tileid="697" duration="150"/>
    <frame tileid="851" duration="150"/>
   </animation>
  </tile>
  <tile id="82">
   <animation>
    <frame tileid="82" duration="150"/>
    <frame tileid="236" duration="150"/>
    <frame tileid="390" duration="150"/>
    <frame tileid="544" duration="150"/>
    <frame tileid="698" duration="150"/>
    <frame tileid="852" duration="150"/>
   </animation>
  </tile>
  <tile id="83">
   <animation>
    <frame tileid="83" duration="150"/>
    <frame tileid="237" duration="150"/>
    <frame tileid="391" duration="150"/>
    <frame tileid="545" duration="150"/>
    <frame tileid="699" duration="150"/>
    <frame tileid="853" duration="150"/>
   </animation>
  </tile>
  <tile id="84">
   <animation>
    <frame tileid="84" duration="150"/>
    <frame tileid="238" duration="150"/>
    <frame tileid="392" duration="150"/>
    <frame tileid="546" duration="150"/>
    <frame tileid="700" duration="150"/>
    <frame tileid="854" duration="150"/>
   </animation>
  </tile>
  <tile id="85">
   <animation>
    <frame tileid="85" duration="150"/>
    <frame tileid="239" duration="150"/>
    <frame tileid="393" duration="150"/>
    <frame tileid="547" duration="150"/>
    <frame tileid="701" duration="150"/>
    <frame tileid="855" duration="150"/>
   </animation>
  </tile>
  <tile id="86">
   <animation>
    <frame tileid="86" duration="150"/>
    <frame tileid="240" duration="150"/>
    <frame tileid="394" duration="150"/>
    <frame tileid="548" duration="150"/>
    <frame tileid="702" duration="150"/>
    <frame tileid="856" duration="150"/>
   </animation>
  </tile>
  <tile id="87">
   <animation>
    <frame tileid="87" duration="150"/>
    <frame tileid="241" duration="150"/>
    <frame tileid="395" duration="150"/>
    <frame tileid="549" duration="150"/>
    <frame tileid="703" duration="150"/>
    <frame tileid="857" duration="150"/>
   </animation>
  </tile>
  <tile id="88">
   <animation>
    <frame tileid="88" duration="150"/>
    <frame tileid="242" duration="150"/>
    <frame tileid="396" duration="150"/>
    <frame tileid="550" duration="150"/>
    <frame tileid="704" duration="150"/>
    <frame tileid="858" duration="150"/>
   </animation>
  </tile>
  <tile id="89">
   <animation>
    <frame tileid="89" duration="150"/>
    <frame tileid="243" duration="150"/>
    <frame tileid="397" duration="150"/>
    <frame tileid="551" duration="150"/>
    <frame tileid="705" duration="150"/>
    <frame tileid="859" duration="150"/>
   </animation>
  </tile>
  <tile id="90">
   <animation>
    <frame tileid="90" duration="150"/>
    <frame tileid="244" duration="150"/>
    <frame tileid="398" duration="150"/>
    <frame tileid="552" duration="150"/>
    <frame tileid="706" duration="150"/>
    <frame tileid="860" duration="150"/>
   </animation>
  </tile>
  <tile id="91">
   <animation>
    <frame tileid="91" duration="150"/>
    <frame tileid="245" duration="150"/>
    <frame tileid="399" duration="150"/>
    <frame tileid="553" duration="150"/>
    <frame tileid="707" duration="150"/>
    <frame tileid="861" duration="150"/>
   </animation>
  </tile>
  <tile id="92">
   <animation>
    <frame tileid="92" duration="150"/>
    <frame tileid="246" duration="150"/>
    <frame tileid="400" duration="150"/>
    <frame tileid="554" duration="150"/>
    <frame tileid="708" duration="150"/>
    <frame tileid="862" duration="150"/>
   </animation>
  </tile>
  <tile id="93">
   <animation>
    <frame tileid="93" duration="150"/>
    <frame tileid="247" duration="150"/>
    <frame tileid="401" duration="150"/>
    <frame tileid="555" duration="150"/>
    <frame tileid="709" duration="150"/>
    <frame tileid="863" duration="150"/>
   </animation>
  </tile>
  <tile id="94">
   <animation>
    <frame tileid="94" duration="150"/>
    <frame tileid="248" duration="150"/>
    <frame tileid="402" duration="150"/>
    <frame tileid="556" duration="150"/>
    <frame tileid="710" duration="150"/>
    <frame tileid="864" duration="150"/>
   </animation>
  </tile>
  <tile id="95">
   <animation>
    <frame tileid="95" duration="150"/>
    <frame tileid="249" duration="150"/>
    <frame tileid="403" duration="150"/>
    <frame tileid="557" duration="150"/>
    <frame tileid="711" duration="150"/>
    <frame tileid="865" duration="150"/>
   </animation>
  </tile>
  <tile id="96">
   <animation>
    <frame tileid="96" duration="150"/>
    <frame tileid="250" duration="150"/>
    <frame tileid="404" duration="150"/>
    <frame tileid="558" duration="150"/>
    <frame tileid="712" duration="150"/>
    <frame tileid="866" duration="150"/>
   </animation>
  </tile>
  <tile id="97">
   <animation>
    <frame tileid="97" duration="150"/>
    <frame tileid="251" duration="150"/>
    <frame tileid="405" duration="150"/>
    <frame tileid="559" duration="150"/>
    <frame tileid="713" duration="150"/>
    <frame tileid="867" duration="150"/>
   </animation>
  </tile>
  <tile id="98">
   <animation>
    <frame tileid="98" duration="150"/>
    <frame tileid="252" duration="150"/>
    <frame tileid="406" duration="150"/>
    <frame tileid="560" duration="150"/>
    <frame tileid="714" duration="150"/>
    <frame tileid="868" duration="150"/>
   </animation>
  </tile>
  <tile id="100">
   <animation>
    <frame tileid="100" duration="150"/>
    <frame tileid="254" duration="150"/>
    <frame tileid="408" duration="150"/>
    <frame tileid="562" duration="150"/>
    <frame tileid="716" duration="150"/>
    <frame tileid="870" duration="150"/>
   </animation>
  </tile>
  <tile id="101">
   <animation>
    <frame tileid="101" duration="150"/>
    <frame tileid="255" duration="150"/>
    <frame tileid="409" duration="150"/>
    <frame tileid="563" duration="150"/>
    <frame tileid="717" duration="150"/>
    <frame tileid="871" duration="150"/>
   </animation>
  </tile>
  <tile id="102">
   <animation>
    <frame tileid="102" duration="150"/>
    <frame tileid="256" duration="150"/>
    <frame tileid="410" duration="150"/>
    <frame tileid="564" duration="150"/>
    <frame tileid="718" duration="150"/>
    <frame tileid="872" duration="150"/>
   </animation>
  </tile>
  <tile id="103">
   <animation>
    <frame tileid="103" duration="150"/>
    <frame tileid="257" duration="150"/>
    <frame tileid="411" duration="150"/>
    <frame tileid="565" duration="150"/>
    <frame tileid="719" duration="150"/>
    <frame tileid="873" duration="150"/>
   </animation>
  </tile>
  <tile id="104">
   <animation>
    <frame tileid="104" duration="150"/>
    <frame tileid="258" duration="150"/>
    <frame tileid="412" duration="150"/>
    <frame tileid="566" duration="150"/>
    <frame tileid="720" duration="150"/>
    <frame tileid="874" duration="150"/>
   </animation>
  </tile>
  <tile id="105">
   <animation>
    <frame tileid="105" duration="150"/>
    <frame tileid="259" duration="150"/>
    <frame tileid="413" duration="150"/>
    <frame tileid="567" duration="150"/>
    <frame tileid="721" duration="150"/>
    <frame tileid="875" duration="150"/>
   </animation>
  </tile>
  <tile id="106">
   <animation>
    <frame tileid="106" duration="150"/>
    <frame tileid="260" duration="150"/>
    <frame tileid="414" duration="150"/>
    <frame tileid="568" duration="150"/>
    <frame tileid="722" duration="150"/>
    <frame tileid="876" duration="150"/>
   </animation>
  </tile>
  <tile id="107">
   <animation>
    <frame tileid="107" duration="150"/>
    <frame tileid="261" duration="150"/>
    <frame tileid="415" duration="150"/>
    <frame tileid="569" duration="150"/>
    <frame tileid="723" duration="150"/>
    <frame tileid="877" duration="150"/>
   </animation>
  </tile>
  <tile id="108">
   <animation>
    <frame tileid="108" duration="150"/>
    <frame tileid="262" duration="150"/>
    <frame tileid="416" duration="150"/>
    <frame tileid="570" duration="150"/>
    <frame tileid="724" duration="150"/>
    <frame tileid="878" duration="150"/>
   </animation>
  </tile>
  <tile id="109">
   <animation>
    <frame tileid="109" duration="150"/>
    <frame tileid="263" duration="150"/>
    <frame tileid="417" duration="150"/>
    <frame tileid="571" duration="150"/>
    <frame tileid="725" duration="150"/>
    <frame tileid="879" duration="150"/>
   </animation>
  </tile>
  <tile id="112">
   <animation>
    <frame tileid="112" duration="150"/>
    <frame tileid="266" duration="150"/>
    <frame tileid="420" duration="150"/>
    <frame tileid="574" duration="150"/>
    <frame tileid="728" duration="150"/>
    <frame tileid="882" duration="150"/>
   </animation>
  </tile>
  <tile id="113">
   <animation>
    <frame tileid="113" duration="150"/>
    <frame tileid="267" duration="150"/>
    <frame tileid="421" duration="150"/>
    <frame tileid="575" duration="150"/>
    <frame tileid="729" duration="150"/>
    <frame tileid="883" duration="150"/>
   </animation>
  </tile>
  <tile id="114">
   <animation>
    <frame tileid="114" duration="150"/>
    <frame tileid="268" duration="150"/>
    <frame tileid="422" duration="150"/>
    <frame tileid="576" duration="150"/>
    <frame tileid="730" duration="150"/>
    <frame tileid="884" duration="150"/>
   </animation>
  </tile>
  <tile id="115">
   <animation>
    <frame tileid="115" duration="150"/>
    <frame tileid="269" duration="150"/>
    <frame tileid="423" duration="150"/>
    <frame tileid="577" duration="150"/>
    <frame tileid="731" duration="150"/>
    <frame tileid="885" duration="150"/>
   </animation>
  </tile>
  <tile id="119">
   <animation>
    <frame tileid="119" duration="150"/>
    <frame tileid="273" duration="150"/>
    <frame tileid="427" duration="150"/>
    <frame tileid="581" duration="150"/>
    <frame tileid="735" duration="150"/>
    <frame tileid="889" duration="150"/>
   </animation>
  </tile>
  <tile id="120">
   <animation>
    <frame tileid="120" duration="150"/>
    <frame tileid="274" duration="150"/>
    <frame tileid="428" duration="150"/>
    <frame tileid="582" duration="150"/>
    <frame tileid="736" duration="150"/>
    <frame tileid="890" duration="150"/>
   </animation>
  </tile>
  <tile id="121">
   <animation>
    <frame tileid="121" duration="150"/>
    <frame tileid="275" duration="150"/>
    <frame tileid="429" duration="150"/>
    <frame tileid="583" duration="150"/>
    <frame tileid="737" duration="150"/>
    <frame tileid="891" duration="150"/>
   </animation>
  </tile>
  <tile id="122">
   <animation>
    <frame tileid="122" duration="150"/>
    <frame tileid="276" duration="150"/>
    <frame tileid="430" duration="150"/>
    <frame tileid="584" duration="150"/>
    <frame tileid="738" duration="150"/>
    <frame tileid="892" duration="150"/>
   </animation>
  </tile>
  <tile id="123">
   <animation>
    <frame tileid="123" duration="150"/>
    <frame tileid="277" duration="150"/>
    <frame tileid="431" duration="150"/>
    <frame tileid="585" duration="150"/>
    <frame tileid="739" duration="150"/>
    <frame tileid="893" duration="150"/>
   </animation>
  </tile>
  <tile id="124">
   <animation>
    <frame tileid="124" duration="150"/>
    <frame tileid="278" duration="150"/>
    <frame tileid="432" duration="150"/>
    <frame tileid="586" duration="150"/>
    <frame tileid="740" duration="150"/>
    <frame tileid="894" duration="150"/>
   </animation>
  </tile>
  <tile id="140">
   <animation>
    <frame tileid="140" duration="150"/>
    <frame tileid="294" duration="150"/>
    <frame tileid="448" duration="150"/>
    <frame tileid="602" duration="150"/>
    <frame tileid="756" duration="150"/>
    <frame tileid="910" duration="150"/>
   </animation>
  </tile>
  <tile id="141">
   <animation>
    <frame tileid="141" duration="150"/>
    <frame tileid="295" duration="150"/>
    <frame tileid="449" duration="150"/>
    <frame tileid="603" duration="150"/>
    <frame tileid="757" duration="150"/>
    <frame tileid="911" duration="150"/>
   </animation>
  </tile>
  <tile id="142">
   <animation>
    <frame tileid="142" duration="150"/>
    <frame tileid="296" duration="150"/>
    <frame tileid="450" duration="150"/>
    <frame tileid="604" duration="150"/>
    <frame tileid="758" duration="150"/>
    <frame tileid="912" duration="150"/>
   </animation>
  </tile>
  <tile id="143">
   <animation>
    <frame tileid="143" duration="150"/>
    <frame tileid="297" duration="150"/>
    <frame tileid="451" duration="150"/>
    <frame tileid="605" duration="150"/>
    <frame tileid="759" duration="150"/>
    <frame tileid="913" duration="150"/>
   </animation>
  </tile>
  <tile id="144">
   <animation>
    <frame tileid="144" duration="150"/>
    <frame tileid="298" duration="150"/>
    <frame tileid="452" duration="150"/>
    <frame tileid="606" duration="150"/>
    <frame tileid="760" duration="150"/>
    <frame tileid="914" duration="150"/>
   </animation>
  </tile>
  <tile id="145">
   <animation>
    <frame tileid="145" duration="150"/>
    <frame tileid="299" duration="150"/>
    <frame tileid="453" duration="150"/>
    <frame tileid="607" duration="150"/>
    <frame tileid="761" duration="150"/>
    <frame tileid="915" duration="150"/>
   </animation>
  </tile>
  <tile id="146">
   <animation>
    <frame tileid="146" duration="150"/>
    <frame tileid="300" duration="150"/>
    <frame tileid="454" duration="150"/>
    <frame tileid="608" duration="150"/>
    <frame tileid="762" duration="150"/>
    <frame tileid="916" duration="150"/>
   </animation>
  </tile>
 </tileset>
 <tileset firstgid="5821" name="Small_boat_v1_1" tilewidth="16" tileheight="16" tilecount="216" columns="36">
  <image source="Small_boat_v1_1.png" width="576" height="96"/>
  <tile id="1">
   <animation>
    <frame tileid="1" duration="150"/>
    <frame tileid="4" duration="150"/>
    <frame tileid="7" duration="150"/>
    <frame tileid="10" duration="150"/>
    <frame tileid="13" duration="150"/>
    <frame tileid="16" duration="150"/>
    <frame tileid="19" duration="150"/>
    <frame tileid="22" duration="150"/>
    <frame tileid="25" duration="150"/>
    <frame tileid="28" duration="150"/>
    <frame tileid="31" duration="150"/>
    <frame tileid="34" duration="150"/>
   </animation>
  </tile>
  <tile id="36">
   <animation>
    <frame tileid="36" duration="150"/>
    <frame tileid="39" duration="150"/>
    <frame tileid="42" duration="150"/>
    <frame tileid="45" duration="150"/>
    <frame tileid="48" duration="150"/>
    <frame tileid="51" duration="150"/>
    <frame tileid="54" duration="150"/>
    <frame tileid="57" duration="150"/>
    <frame tileid="60" duration="150"/>
    <frame tileid="63" duration="150"/>
    <frame tileid="66" duration="150"/>
    <frame tileid="69" duration="150"/>
   </animation>
  </tile>
  <tile id="37">
   <animation>
    <frame tileid="37" duration="150"/>
    <frame tileid="40" duration="150"/>
    <frame tileid="43" duration="150"/>
    <frame tileid="46" duration="150"/>
    <frame tileid="49" duration="150"/>
    <frame tileid="52" duration="150"/>
    <frame tileid="55" duration="150"/>
    <frame tileid="58" duration="150"/>
    <frame tileid="61" duration="150"/>
    <frame tileid="64" duration="150"/>
    <frame tileid="67" duration="150"/>
    <frame tileid="70" duration="150"/>
   </animation>
  </tile>
  <tile id="38">
   <animation>
    <frame tileid="38" duration="150"/>
    <frame tileid="41" duration="150"/>
    <frame tileid="44" duration="150"/>
    <frame tileid="47" duration="150"/>
    <frame tileid="50" duration="150"/>
    <frame tileid="53" duration="150"/>
    <frame tileid="56" duration="150"/>
    <frame tileid="59" duration="150"/>
    <frame tileid="62" duration="150"/>
    <frame tileid="65" duration="150"/>
    <frame tileid="68" duration="150"/>
    <frame tileid="71" duration="150"/>
   </animation>
  </tile>
  <tile id="72">
   <animation>
    <frame tileid="72" duration="150"/>
    <frame tileid="75" duration="150"/>
    <frame tileid="78" duration="150"/>
    <frame tileid="81" duration="150"/>
    <frame tileid="84" duration="150"/>
    <frame tileid="87" duration="150"/>
    <frame tileid="90" duration="150"/>
    <frame tileid="93" duration="150"/>
    <frame tileid="96" duration="150"/>
    <frame tileid="99" duration="150"/>
    <frame tileid="102" duration="150"/>
    <frame tileid="105" duration="150"/>
   </animation>
  </tile>
  <tile id="73">
   <animation>
    <frame tileid="73" duration="150"/>
    <frame tileid="76" duration="150"/>
    <frame tileid="79" duration="150"/>
    <frame tileid="82" duration="150"/>
    <frame tileid="85" duration="150"/>
    <frame tileid="88" duration="150"/>
    <frame tileid="91" duration="150"/>
    <frame tileid="94" duration="150"/>
    <frame tileid="97" duration="150"/>
    <frame tileid="100" duration="150"/>
    <frame tileid="103" duration="150"/>
    <frame tileid="106" duration="150"/>
   </animation>
  </tile>
  <tile id="74">
   <animation>
    <frame tileid="74" duration="150"/>
    <frame tileid="77" duration="150"/>
    <frame tileid="80" duration="150"/>
    <frame tileid="83" duration="150"/>
    <frame tileid="86" duration="150"/>
    <frame tileid="89" duration="150"/>
    <frame tileid="92" duration="150"/>
    <frame tileid="95" duration="150"/>
    <frame tileid="98" duration="150"/>
    <frame tileid="101" duration="150"/>
    <frame tileid="104" duration="150"/>
    <frame tileid="107" duration="150"/>
   </animation>
  </tile>
  <tile id="108">
   <animation>
    <frame tileid="108" duration="150"/>
    <frame tileid="111" duration="150"/>
    <frame tileid="114" duration="150"/>
    <frame tileid="117" duration="150"/>
    <frame tileid="120" duration="150"/>
    <frame tileid="123" duration="150"/>
    <frame tileid="126" duration="150"/>
    <frame tileid="129" duration="150"/>
    <frame tileid="132" duration="150"/>
    <frame tileid="135" duration="150"/>
    <frame tileid="138" duration="150"/>
    <frame tileid="141" duration="150"/>
   </animation>
  </tile>
  <tile id="109">
   <animation>
    <frame tileid="109" duration="150"/>
    <frame tileid="112" duration="150"/>
    <frame tileid="115" duration="150"/>
    <frame tileid="118" duration="150"/>
    <frame tileid="121" duration="150"/>
    <frame tileid="124" duration="150"/>
    <frame tileid="127" duration="150"/>
    <frame tileid="130" duration="150"/>
    <frame tileid="133" duration="150"/>
    <frame tileid="136" duration="150"/>
    <frame tileid="139" duration="150"/>
    <frame tileid="142" duration="150"/>
   </animation>
  </tile>
  <tile id="110">
   <animation>
    <frame tileid="110" duration="150"/>
    <frame tileid="113" duration="150"/>
    <frame tileid="116" duration="150"/>
    <frame tileid="119" duration="150"/>
    <frame tileid="122" duration="150"/>
    <frame tileid="125" duration="150"/>
    <frame tileid="128" duration="150"/>
    <frame tileid="131" duration="150"/>
    <frame tileid="134" duration="150"/>
    <frame tileid="137" duration="150"/>
    <frame tileid="140" duration="150"/>
    <frame tileid="143" duration="150"/>
   </animation>
  </tile>
  <tile id="144">
   <animation>
    <frame tileid="144" duration="150"/>
    <frame tileid="147" duration="150"/>
    <frame tileid="150" duration="150"/>
    <frame tileid="153" duration="150"/>
    <frame tileid="156" duration="150"/>
    <frame tileid="159" duration="150"/>
    <frame tileid="162" duration="150"/>
    <frame tileid="165" duration="150"/>
    <frame tileid="168" duration="150"/>
    <frame tileid="171" duration="150"/>
    <frame tileid="174" duration="150"/>
    <frame tileid="177" duration="150"/>
   </animation>
  </tile>
  <tile id="145">
   <animation>
    <frame tileid="145" duration="150"/>
    <frame tileid="148" duration="150"/>
    <frame tileid="151" duration="150"/>
    <frame tileid="154" duration="150"/>
    <frame tileid="157" duration="150"/>
    <frame tileid="160" duration="150"/>
    <frame tileid="163" duration="150"/>
    <frame tileid="166" duration="150"/>
    <frame tileid="169" duration="150"/>
    <frame tileid="172" duration="150"/>
    <frame tileid="175" duration="150"/>
    <frame tileid="178" duration="150"/>
   </animation>
  </tile>
  <tile id="146">
   <animation>
    <frame tileid="146" duration="150"/>
    <frame tileid="149" duration="150"/>
    <frame tileid="152" duration="150"/>
    <frame tileid="155" duration="150"/>
    <frame tileid="158" duration="150"/>
    <frame tileid="161" duration="150"/>
    <frame tileid="164" duration="150"/>
    <frame tileid="167" duration="150"/>
    <frame tileid="170" duration="150"/>
    <frame tileid="173" duration="150"/>
    <frame tileid="176" duration="150"/>
    <frame tileid="179" duration="150"/>
   </animation>
  </tile>
  <tile id="180">
   <animation>
    <frame tileid="180" duration="150"/>
    <frame tileid="183" duration="150"/>
    <frame tileid="186" duration="150"/>
    <frame tileid="189" duration="150"/>
    <frame tileid="192" duration="150"/>
    <frame tileid="195" duration="150"/>
    <frame tileid="198" duration="150"/>
    <frame tileid="201" duration="150"/>
    <frame tileid="204" duration="150"/>
    <frame tileid="207" duration="150"/>
    <frame tileid="210" duration="150"/>
    <frame tileid="213" duration="150"/>
   </animation>
  </tile>
  <tile id="181">
   <animation>
    <frame tileid="181" duration="150"/>
    <frame tileid="184" duration="150"/>
    <frame tileid="187" duration="150"/>
    <frame tileid="190" duration="150"/>
    <frame tileid="193" duration="150"/>
    <frame tileid="196" duration="150"/>
    <frame tileid="199" duration="150"/>
    <frame tileid="202" duration="150"/>
    <frame tileid="205" duration="150"/>
    <frame tileid="208" duration="150"/>
    <frame tileid="211" duration="150"/>
    <frame tileid="214" duration="150"/>
   </animation>
  </tile>
  <tile id="182">
   <animation>
    <frame tileid="182" duration="150"/>
    <frame tileid="185" duration="150"/>
    <frame tileid="188" duration="150"/>
    <frame tileid="191" duration="150"/>
    <frame tileid="194" duration="150"/>
    <frame tileid="197" duration="150"/>
    <frame tileid="200" duration="150"/>
    <frame tileid="203" duration="150"/>
    <frame tileid="206" duration="150"/>
    <frame tileid="209" duration="150"/>
    <frame tileid="212" duration="150"/>
    <frame tileid="215" duration="150"/>
   </animation>
  </tile>
 </tileset>
 <tileset firstgid="6037" name="Small_boat_v1_1" tilewidth="16" tileheight="16" tilecount="216" columns="36">
  <image source="Small_boat_v1_2.png" width="576" height="96"/>
  <tile id="1">
   <animation>
    <frame tileid="1" duration="150"/>
    <frame tileid="4" duration="150"/>
    <frame tileid="7" duration="150"/>
    <frame tileid="10" duration="150"/>
    <frame tileid="13" duration="150"/>
    <frame tileid="16" duration="150"/>
    <frame tileid="19" duration="150"/>
    <frame tileid="22" duration="150"/>
    <frame tileid="25" duration="150"/>
    <frame tileid="28" duration="150"/>
    <frame tileid="31" duration="150"/>
    <frame tileid="34" duration="150"/>
   </animation>
  </tile>
  <tile id="36">
   <animation>
    <frame tileid="36" duration="150"/>
    <frame tileid="39" duration="150"/>
    <frame tileid="42" duration="150"/>
    <frame tileid="45" duration="150"/>
    <frame tileid="48" duration="150"/>
    <frame tileid="51" duration="150"/>
    <frame tileid="54" duration="150"/>
    <frame tileid="57" duration="150"/>
    <frame tileid="60" duration="150"/>
    <frame tileid="63" duration="150"/>
    <frame tileid="66" duration="150"/>
    <frame tileid="69" duration="150"/>
   </animation>
  </tile>
  <tile id="37">
   <animation>
    <frame tileid="37" duration="150"/>
    <frame tileid="40" duration="150"/>
    <frame tileid="43" duration="150"/>
    <frame tileid="46" duration="150"/>
    <frame tileid="49" duration="150"/>
    <frame tileid="52" duration="150"/>
    <frame tileid="55" duration="150"/>
    <frame tileid="58" duration="150"/>
    <frame tileid="61" duration="150"/>
    <frame tileid="64" duration="150"/>
    <frame tileid="67" duration="150"/>
    <frame tileid="70" duration="150"/>
   </animation>
  </tile>
  <tile id="38">
   <animation>
    <frame tileid="38" duration="150"/>
    <frame tileid="41" duration="150"/>
    <frame tileid="44" duration="150"/>
    <frame tileid="47" duration="150"/>
    <frame tileid="50" duration="150"/>
    <frame tileid="53" duration="150"/>
    <frame tileid="56" duration="150"/>
    <frame tileid="59" duration="150"/>
    <frame tileid="62" duration="150"/>
    <frame tileid="65" duration="150"/>
    <frame tileid="68" duration="150"/>
    <frame tileid="71" duration="150"/>
   </animation>
  </tile>
  <tile id="72">
   <animation>
    <frame tileid="72" duration="150"/>
    <frame tileid="75" duration="150"/>
    <frame tileid="78" duration="150"/>
    <frame tileid="81" duration="150"/>
    <frame tileid="84" duration="150"/>
    <frame tileid="87" duration="150"/>
    <frame tileid="90" duration="150"/>
    <frame tileid="93" duration="150"/>
    <frame tileid="96" duration="150"/>
    <frame tileid="99" duration="150"/>
    <frame tileid="102" duration="150"/>
    <frame tileid="105" duration="150"/>
   </animation>
  </tile>
  <tile id="73">
   <animation>
    <frame tileid="73" duration="150"/>
    <frame tileid="76" duration="150"/>
    <frame tileid="79" duration="150"/>
    <frame tileid="82" duration="150"/>
    <frame tileid="85" duration="150"/>
    <frame tileid="88" duration="150"/>
    <frame tileid="91" duration="150"/>
    <frame tileid="94" duration="150"/>
    <frame tileid="97" duration="150"/>
    <frame tileid="100" duration="150"/>
    <frame tileid="103" duration="150"/>
    <frame tileid="106" duration="150"/>
   </animation>
  </tile>
  <tile id="74">
   <animation>
    <frame tileid="74" duration="150"/>
    <frame tileid="77" duration="150"/>
    <frame tileid="80" duration="150"/>
    <frame tileid="83" duration="150"/>
    <frame tileid="86" duration="150"/>
    <frame tileid="89" duration="150"/>
    <frame tileid="92" duration="150"/>
    <frame tileid="95" duration="150"/>
    <frame tileid="98" duration="150"/>
    <frame tileid="101" duration="150"/>
    <frame tileid="104" duration="150"/>
    <frame tileid="107" duration="150"/>
   </animation>
  </tile>
  <tile id="108">
   <animation>
    <frame tileid="108" duration="150"/>
    <frame tileid="111" duration="150"/>
    <frame tileid="114" duration="150"/>
    <frame tileid="117" duration="150"/>
    <frame tileid="120" duration="150"/>
    <frame tileid="123" duration="150"/>
    <frame tileid="126" duration="150"/>
    <frame tileid="129" duration="150"/>
    <frame tileid="132" duration="150"/>
    <frame tileid="135" duration="150"/>
    <frame tileid="138" duration="150"/>
    <frame tileid="141" duration="150"/>
   </animation>
  </tile>
  <tile id="109">
   <animation>
    <frame tileid="109" duration="150"/>
    <frame tileid="112" duration="150"/>
    <frame tileid="115" duration="150"/>
    <frame tileid="118" duration="150"/>
    <frame tileid="121" duration="150"/>
    <frame tileid="124" duration="150"/>
    <frame tileid="127" duration="150"/>
    <frame tileid="130" duration="150"/>
    <frame tileid="133" duration="150"/>
    <frame tileid="136" duration="150"/>
    <frame tileid="139" duration="150"/>
    <frame tileid="142" duration="150"/>
   </animation>
  </tile>
  <tile id="110">
   <animation>
    <frame tileid="110" duration="150"/>
    <frame tileid="113" duration="150"/>
    <frame tileid="116" duration="150"/>
    <frame tileid="119" duration="150"/>
    <frame tileid="122" duration="150"/>
    <frame tileid="125" duration="150"/>
    <frame tileid="128" duration="150"/>
    <frame tileid="131" duration="150"/>
    <frame tileid="134" duration="150"/>
    <frame tileid="137" duration="150"/>
    <frame tileid="140" duration="150"/>
    <frame tileid="143" duration="150"/>
   </animation>
  </tile>
  <tile id="144">
   <animation>
    <frame tileid="144" duration="150"/>
    <frame tileid="147" duration="150"/>
    <frame tileid="150" duration="150"/>
    <frame tileid="153" duration="150"/>
    <frame tileid="156" duration="150"/>
    <frame tileid="159" duration="150"/>
    <frame tileid="162" duration="150"/>
    <frame tileid="165" duration="150"/>
    <frame tileid="168" duration="150"/>
    <frame tileid="171" duration="150"/>
    <frame tileid="174" duration="150"/>
    <frame tileid="177" duration="150"/>
   </animation>
  </tile>
  <tile id="145">
   <animation>
    <frame tileid="145" duration="150"/>
    <frame tileid="148" duration="150"/>
    <frame tileid="151" duration="150"/>
    <frame tileid="154" duration="150"/>
    <frame tileid="157" duration="150"/>
    <frame tileid="160" duration="150"/>
    <frame tileid="163" duration="150"/>
    <frame tileid="166" duration="150"/>
    <frame tileid="169" duration="150"/>
    <frame tileid="172" duration="150"/>
    <frame tileid="175" duration="150"/>
    <frame tileid="178" duration="150"/>
   </animation>
  </tile>
  <tile id="146">
   <animation>
    <frame tileid="146" duration="150"/>
    <frame tileid="149" duration="150"/>
    <frame tileid="152" duration="150"/>
    <frame tileid="155" duration="150"/>
    <frame tileid="158" duration="150"/>
    <frame tileid="161" duration="150"/>
    <frame tileid="164" duration="150"/>
    <frame tileid="167" duration="150"/>
    <frame tileid="170" duration="150"/>
    <frame tileid="173" duration="150"/>
    <frame tileid="176" duration="150"/>
    <frame tileid="179" duration="150"/>
   </animation>
  </tile>
  <tile id="180">
   <animation>
    <frame tileid="180" duration="150"/>
    <frame tileid="183" duration="150"/>
    <frame tileid="186" duration="150"/>
    <frame tileid="189" duration="150"/>
    <frame tileid="192" duration="150"/>
    <frame tileid="195" duration="150"/>
    <frame tileid="198" duration="150"/>
    <frame tileid="201" duration="150"/>
    <frame tileid="204" duration="150"/>
    <frame tileid="207" duration="150"/>
    <frame tileid="210" duration="150"/>
    <frame tileid="213" duration="150"/>
   </animation>
  </tile>
  <tile id="181">
   <animation>
    <frame tileid="181" duration="150"/>
    <frame tileid="184" duration="150"/>
    <frame tileid="187" duration="150"/>
    <frame tileid="190" duration="150"/>
    <frame tileid="193" duration="150"/>
    <frame tileid="196" duration="150"/>
    <frame tileid="199" duration="150"/>
    <frame tileid="202" duration="150"/>
    <frame tileid="205" duration="150"/>
    <frame tileid="208" duration="150"/>
    <frame tileid="211" duration="150"/>
    <frame tileid="214" duration="150"/>
   </animation>
  </tile>
  <tile id="182">
   <animation>
    <frame tileid="182" duration="150"/>
    <frame tileid="185" duration="150"/>
    <frame tileid="188" duration="150"/>
    <frame tileid="191" duration="150"/>
    <frame tileid="194" duration="150"/>
    <frame tileid="197" duration="150"/>
    <frame tileid="200" duration="150"/>
    <frame tileid="203" duration="150"/>
    <frame tileid="206" duration="150"/>
    <frame tileid="209" duration="150"/>
    <frame tileid="212" duration="150"/>
    <frame tileid="215" duration="150"/>
   </animation>
  </tile>
 </tileset>
 <tileset firstgid="6253" name="Small_boat_v1_1" tilewidth="16" tileheight="16" tilecount="216" columns="36">
  <image source="Small_boat_v1_3.png" width="576" height="96"/>
  <tile id="1">
   <animation>
    <frame tileid="1" duration="150"/>
    <frame tileid="4" duration="150"/>
    <frame tileid="7" duration="150"/>
    <frame tileid="10" duration="150"/>
    <frame tileid="13" duration="150"/>
    <frame tileid="16" duration="150"/>
    <frame tileid="19" duration="150"/>
    <frame tileid="22" duration="150"/>
    <frame tileid="25" duration="150"/>
    <frame tileid="28" duration="150"/>
    <frame tileid="31" duration="150"/>
    <frame tileid="34" duration="150"/>
   </animation>
  </tile>
  <tile id="36">
   <animation>
    <frame tileid="36" duration="150"/>
    <frame tileid="39" duration="150"/>
    <frame tileid="42" duration="150"/>
    <frame tileid="45" duration="150"/>
    <frame tileid="48" duration="150"/>
    <frame tileid="51" duration="150"/>
    <frame tileid="54" duration="150"/>
    <frame tileid="57" duration="150"/>
    <frame tileid="60" duration="150"/>
    <frame tileid="63" duration="150"/>
    <frame tileid="66" duration="150"/>
    <frame tileid="69" duration="150"/>
   </animation>
  </tile>
  <tile id="37">
   <animation>
    <frame tileid="37" duration="150"/>
    <frame tileid="40" duration="150"/>
    <frame tileid="43" duration="150"/>
    <frame tileid="46" duration="150"/>
    <frame tileid="49" duration="150"/>
    <frame tileid="52" duration="150"/>
    <frame tileid="55" duration="150"/>
    <frame tileid="58" duration="150"/>
    <frame tileid="61" duration="150"/>
    <frame tileid="64" duration="150"/>
    <frame tileid="67" duration="150"/>
    <frame tileid="70" duration="150"/>
   </animation>
  </tile>
  <tile id="38">
   <animation>
    <frame tileid="38" duration="150"/>
    <frame tileid="41" duration="150"/>
    <frame tileid="44" duration="150"/>
    <frame tileid="47" duration="150"/>
    <frame tileid="50" duration="150"/>
    <frame tileid="53" duration="150"/>
    <frame tileid="56" duration="150"/>
    <frame tileid="59" duration="150"/>
    <frame tileid="62" duration="150"/>
    <frame tileid="65" duration="150"/>
    <frame tileid="68" duration="150"/>
    <frame tileid="71" duration="150"/>
   </animation>
  </tile>
  <tile id="72">
   <animation>
    <frame tileid="72" duration="150"/>
    <frame tileid="75" duration="150"/>
    <frame tileid="78" duration="150"/>
    <frame tileid="81" duration="150"/>
    <frame tileid="84" duration="150"/>
    <frame tileid="87" duration="150"/>
    <frame tileid="90" duration="150"/>
    <frame tileid="93" duration="150"/>
    <frame tileid="96" duration="150"/>
    <frame tileid="99" duration="150"/>
    <frame tileid="102" duration="150"/>
    <frame tileid="105" duration="150"/>
   </animation>
  </tile>
  <tile id="73">
   <animation>
    <frame tileid="73" duration="150"/>
    <frame tileid="76" duration="150"/>
    <frame tileid="79" duration="150"/>
    <frame tileid="82" duration="150"/>
    <frame tileid="85" duration="150"/>
    <frame tileid="88" duration="150"/>
    <frame tileid="91" duration="150"/>
    <frame tileid="94" duration="150"/>
    <frame tileid="97" duration="150"/>
    <frame tileid="100" duration="150"/>
    <frame tileid="103" duration="150"/>
    <frame tileid="106" duration="150"/>
   </animation>
  </tile>
  <tile id="74">
   <animation>
    <frame tileid="74" duration="150"/>
    <frame tileid="77" duration="150"/>
    <frame tileid="80" duration="150"/>
    <frame tileid="83" duration="150"/>
    <frame tileid="86" duration="150"/>
    <frame tileid="89" duration="150"/>
    <frame tileid="92" duration="150"/>
    <frame tileid="95" duration="150"/>
    <frame tileid="98" duration="150"/>
    <frame tileid="101" duration="150"/>
    <frame tileid="104" duration="150"/>
    <frame tileid="107" duration="150"/>
   </animation>
  </tile>
  <tile id="108">
   <animation>
    <frame tileid="108" duration="150"/>
    <frame tileid="111" duration="150"/>
    <frame tileid="114" duration="150"/>
    <frame tileid="117" duration="150"/>
    <frame tileid="120" duration="150"/>
    <frame tileid="123" duration="150"/>
    <frame tileid="126" duration="150"/>
    <frame tileid="129" duration="150"/>
    <frame tileid="132" duration="150"/>
    <frame tileid="135" duration="150"/>
    <frame tileid="138" duration="150"/>
    <frame tileid="141" duration="150"/>
   </animation>
  </tile>
  <tile id="109">
   <animation>
    <frame tileid="109" duration="150"/>
    <frame tileid="112" duration="150"/>
    <frame tileid="115" duration="150"/>
    <frame tileid="118" duration="150"/>
    <frame tileid="121" duration="150"/>
    <frame tileid="124" duration="150"/>
    <frame tileid="127" duration="150"/>
    <frame tileid="130" duration="150"/>
    <frame tileid="133" duration="150"/>
    <frame tileid="136" duration="150"/>
    <frame tileid="139" duration="150"/>
    <frame tileid="142" duration="150"/>
   </animation>
  </tile>
  <tile id="110">
   <animation>
    <frame tileid="110" duration="150"/>
    <frame tileid="113" duration="150"/>
    <frame tileid="116" duration="150"/>
    <frame tileid="119" duration="150"/>
    <frame tileid="122" duration="150"/>
    <frame tileid="125" duration="150"/>
    <frame tileid="128" duration="150"/>
    <frame tileid="131" duration="150"/>
    <frame tileid="134" duration="150"/>
    <frame tileid="137" duration="150"/>
    <frame tileid="140" duration="150"/>
    <frame tileid="143" duration="150"/>
   </animation>
  </tile>
  <tile id="144">
   <animation>
    <frame tileid="144" duration="150"/>
    <frame tileid="147" duration="150"/>
    <frame tileid="150" duration="150"/>
    <frame tileid="153" duration="150"/>
    <frame tileid="156" duration="150"/>
    <frame tileid="159" duration="150"/>
    <frame tileid="162" duration="150"/>
    <frame tileid="165" duration="150"/>
    <frame tileid="168" duration="150"/>
    <frame tileid="171" duration="150"/>
    <frame tileid="174" duration="150"/>
    <frame tileid="177" duration="150"/>
   </animation>
  </tile>
  <tile id="145">
   <animation>
    <frame tileid="145" duration="150"/>
    <frame tileid="148" duration="150"/>
    <frame tileid="151" duration="150"/>
    <frame tileid="154" duration="150"/>
    <frame tileid="157" duration="150"/>
    <frame tileid="160" duration="150"/>
    <frame tileid="163" duration="150"/>
    <frame tileid="166" duration="150"/>
    <frame tileid="169" duration="150"/>
    <frame tileid="172" duration="150"/>
    <frame tileid="175" duration="150"/>
    <frame tileid="178" duration="150"/>
   </animation>
  </tile>
  <tile id="146">
   <animation>
    <frame tileid="146" duration="150"/>
    <frame tileid="149" duration="150"/>
    <frame tileid="152" duration="150"/>
    <frame tileid="155" duration="150"/>
    <frame tileid="158" duration="150"/>
    <frame tileid="161" duration="150"/>
    <frame tileid="164" duration="150"/>
    <frame tileid="167" duration="150"/>
    <frame tileid="170" duration="150"/>
    <frame tileid="173" duration="150"/>
    <frame tileid="176" duration="150"/>
    <frame tileid="179" duration="150"/>
   </animation>
  </tile>
  <tile id="180">
   <animation>
    <frame tileid="180" duration="150"/>
    <frame tileid="183" duration="150"/>
    <frame tileid="186" duration="150"/>
    <frame tileid="189" duration="150"/>
    <frame tileid="192" duration="150"/>
    <frame tileid="195" duration="150"/>
    <frame tileid="198" duration="150"/>
    <frame tileid="201" duration="150"/>
    <frame tileid="204" duration="150"/>
    <frame tileid="207" duration="150"/>
    <frame tileid="210" duration="150"/>
    <frame tileid="213" duration="150"/>
   </animation>
  </tile>
  <tile id="181">
   <animation>
    <frame tileid="181" duration="150"/>
    <frame tileid="184" duration="150"/>
    <frame tileid="187" duration="150"/>
    <frame tileid="190" duration="150"/>
    <frame tileid="193" duration="150"/>
    <frame tileid="196" duration="150"/>
    <frame tileid="199" duration="150"/>
    <frame tileid="202" duration="150"/>
    <frame tileid="205" duration="150"/>
    <frame tileid="208" duration="150"/>
    <frame tileid="211" duration="150"/>
    <frame tileid="214" duration="150"/>
   </animation>
  </tile>
  <tile id="182">
   <animation>
    <frame tileid="182" duration="150"/>
    <frame tileid="185" duration="150"/>
    <frame tileid="188" duration="150"/>
    <frame tileid="191" duration="150"/>
    <frame tileid="194" duration="150"/>
    <frame tileid="197" duration="150"/>
    <frame tileid="200" duration="150"/>
    <frame tileid="203" duration="150"/>
    <frame tileid="206" duration="150"/>
    <frame tileid="209" duration="150"/>
    <frame tileid="212" duration="150"/>
    <frame tileid="215" duration="150"/>
   </animation>
  </tile>
 </tileset>
 <tileset firstgid="6469" name="Small_boat_v1_1" tilewidth="16" tileheight="16" tilecount="216" columns="36">
  <image source="Small_boat_v1_5.png" width="576" height="96"/>
  <tile id="1">
   <animation>
    <frame tileid="1" duration="150"/>
    <frame tileid="4" duration="150"/>
    <frame tileid="7" duration="150"/>
    <frame tileid="10" duration="150"/>
    <frame tileid="13" duration="150"/>
    <frame tileid="16" duration="150"/>
    <frame tileid="19" duration="150"/>
    <frame tileid="22" duration="150"/>
    <frame tileid="25" duration="150"/>
    <frame tileid="28" duration="150"/>
    <frame tileid="31" duration="150"/>
    <frame tileid="34" duration="150"/>
   </animation>
  </tile>
  <tile id="36">
   <animation>
    <frame tileid="36" duration="150"/>
    <frame tileid="39" duration="150"/>
    <frame tileid="42" duration="150"/>
    <frame tileid="45" duration="150"/>
    <frame tileid="48" duration="150"/>
    <frame tileid="51" duration="150"/>
    <frame tileid="54" duration="150"/>
    <frame tileid="57" duration="150"/>
    <frame tileid="60" duration="150"/>
    <frame tileid="63" duration="150"/>
    <frame tileid="66" duration="150"/>
    <frame tileid="69" duration="150"/>
   </animation>
  </tile>
  <tile id="37">
   <animation>
    <frame tileid="37" duration="150"/>
    <frame tileid="40" duration="150"/>
    <frame tileid="43" duration="150"/>
    <frame tileid="46" duration="150"/>
    <frame tileid="49" duration="150"/>
    <frame tileid="52" duration="150"/>
    <frame tileid="55" duration="150"/>
    <frame tileid="58" duration="150"/>
    <frame tileid="61" duration="150"/>
    <frame tileid="64" duration="150"/>
    <frame tileid="67" duration="150"/>
    <frame tileid="70" duration="150"/>
   </animation>
  </tile>
  <tile id="38">
   <animation>
    <frame tileid="38" duration="150"/>
    <frame tileid="41" duration="150"/>
    <frame tileid="44" duration="150"/>
    <frame tileid="47" duration="150"/>
    <frame tileid="50" duration="150"/>
    <frame tileid="53" duration="150"/>
    <frame tileid="56" duration="150"/>
    <frame tileid="59" duration="150"/>
    <frame tileid="62" duration="150"/>
    <frame tileid="65" duration="150"/>
    <frame tileid="68" duration="150"/>
    <frame tileid="71" duration="150"/>
   </animation>
  </tile>
  <tile id="72">
   <animation>
    <frame tileid="72" duration="150"/>
    <frame tileid="75" duration="150"/>
    <frame tileid="78" duration="150"/>
    <frame tileid="81" duration="150"/>
    <frame tileid="84" duration="150"/>
    <frame tileid="87" duration="150"/>
    <frame tileid="90" duration="150"/>
    <frame tileid="93" duration="150"/>
    <frame tileid="96" duration="150"/>
    <frame tileid="99" duration="150"/>
    <frame tileid="102" duration="150"/>
    <frame tileid="105" duration="150"/>
   </animation>
  </tile>
  <tile id="73">
   <animation>
    <frame tileid="73" duration="150"/>
    <frame tileid="76" duration="150"/>
    <frame tileid="79" duration="150"/>
    <frame tileid="82" duration="150"/>
    <frame tileid="85" duration="150"/>
    <frame tileid="88" duration="150"/>
    <frame tileid="91" duration="150"/>
    <frame tileid="94" duration="150"/>
    <frame tileid="97" duration="150"/>
    <frame tileid="100" duration="150"/>
    <frame tileid="103" duration="150"/>
    <frame tileid="106" duration="150"/>
   </animation>
  </tile>
  <tile id="74">
   <animation>
    <frame tileid="74" duration="150"/>
    <frame tileid="77" duration="150"/>
    <frame tileid="80" duration="150"/>
    <frame tileid="83" duration="150"/>
    <frame tileid="86" duration="150"/>
    <frame tileid="89" duration="150"/>
    <frame tileid="92" duration="150"/>
    <frame tileid="95" duration="150"/>
    <frame tileid="98" duration="150"/>
    <frame tileid="101" duration="150"/>
    <frame tileid="104" duration="150"/>
    <frame tileid="107" duration="150"/>
   </animation>
  </tile>
  <tile id="108">
   <animation>
    <frame tileid="108" duration="150"/>
    <frame tileid="111" duration="150"/>
    <frame tileid="114" duration="150"/>
    <frame tileid="117" duration="150"/>
    <frame tileid="120" duration="150"/>
    <frame tileid="123" duration="150"/>
    <frame tileid="126" duration="150"/>
    <frame tileid="129" duration="150"/>
    <frame tileid="132" duration="150"/>
    <frame tileid="135" duration="150"/>
    <frame tileid="138" duration="150"/>
    <frame tileid="141" duration="150"/>
   </animation>
  </tile>
  <tile id="109">
   <animation>
    <frame tileid="109" duration="150"/>
    <frame tileid="112" duration="150"/>
    <frame tileid="115" duration="150"/>
    <frame tileid="118" duration="150"/>
    <frame tileid="121" duration="150"/>
    <frame tileid="124" duration="150"/>
    <frame tileid="127" duration="150"/>
    <frame tileid="130" duration="150"/>
    <frame tileid="133" duration="150"/>
    <frame tileid="136" duration="150"/>
    <frame tileid="139" duration="150"/>
    <frame tileid="142" duration="150"/>
   </animation>
  </tile>
  <tile id="110">
   <animation>
    <frame tileid="110" duration="150"/>
    <frame tileid="113" duration="150"/>
    <frame tileid="116" duration="150"/>
    <frame tileid="119" duration="150"/>
    <frame tileid="122" duration="150"/>
    <frame tileid="125" duration="150"/>
    <frame tileid="128" duration="150"/>
    <frame tileid="131" duration="150"/>
    <frame tileid="134" duration="150"/>
    <frame tileid="137" duration="150"/>
    <frame tileid="140" duration="150"/>
    <frame tileid="143" duration="150"/>
   </animation>
  </tile>
  <tile id="144">
   <animation>
    <frame tileid="144" duration="150"/>
    <frame tileid="147" duration="150"/>
    <frame tileid="150" duration="150"/>
    <frame tileid="153" duration="150"/>
    <frame tileid="156" duration="150"/>
    <frame tileid="159" duration="150"/>
    <frame tileid="162" duration="150"/>
    <frame tileid="165" duration="150"/>
    <frame tileid="168" duration="150"/>
    <frame tileid="171" duration="150"/>
    <frame tileid="174" duration="150"/>
    <frame tileid="177" duration="150"/>
   </animation>
  </tile>
  <tile id="145">
   <animation>
    <frame tileid="145" duration="150"/>
    <frame tileid="148" duration="150"/>
    <frame tileid="151" duration="150"/>
    <frame tileid="154" duration="150"/>
    <frame tileid="157" duration="150"/>
    <frame tileid="160" duration="150"/>
    <frame tileid="163" duration="150"/>
    <frame tileid="166" duration="150"/>
    <frame tileid="169" duration="150"/>
    <frame tileid="172" duration="150"/>
    <frame tileid="175" duration="150"/>
    <frame tileid="178" duration="150"/>
   </animation>
  </tile>
  <tile id="146">
   <animation>
    <frame tileid="146" duration="150"/>
    <frame tileid="149" duration="150"/>
    <frame tileid="152" duration="150"/>
    <frame tileid="155" duration="150"/>
    <frame tileid="158" duration="150"/>
    <frame tileid="161" duration="150"/>
    <frame tileid="164" duration="150"/>
    <frame tileid="167" duration="150"/>
    <frame tileid="170" duration="150"/>
    <frame tileid="173" duration="150"/>
    <frame tileid="176" duration="150"/>
    <frame tileid="179" duration="150"/>
   </animation>
  </tile>
  <tile id="180">
   <animation>
    <frame tileid="180" duration="150"/>
    <frame tileid="183" duration="150"/>
    <frame tileid="186" duration="150"/>
    <frame tileid="189" duration="150"/>
    <frame tileid="192" duration="150"/>
    <frame tileid="195" duration="150"/>
    <frame tileid="198" duration="150"/>
    <frame tileid="201" duration="150"/>
    <frame tileid="204" duration="150"/>
    <frame tileid="207" duration="150"/>
    <frame tileid="210" duration="150"/>
    <frame tileid="213" duration="150"/>
   </animation>
  </tile>
  <tile id="181">
   <animation>
    <frame tileid="181" duration="150"/>
    <frame tileid="184" duration="150"/>
    <frame tileid="187" duration="150"/>
    <frame tileid="190" duration="150"/>
    <frame tileid="193" duration="150"/>
    <frame tileid="196" duration="150"/>
    <frame tileid="199" duration="150"/>
    <frame tileid="202" duration="150"/>
    <frame tileid="205" duration="150"/>
    <frame tileid="208" duration="150"/>
    <frame tileid="211" duration="150"/>
    <frame tileid="214" duration="150"/>
   </animation>
  </tile>
  <tile id="182">
   <animation>
    <frame tileid="182" duration="150"/>
    <frame tileid="185" duration="150"/>
    <frame tileid="188" duration="150"/>
    <frame tileid="191" duration="150"/>
    <frame tileid="194" duration="150"/>
    <frame tileid="197" duration="150"/>
    <frame tileid="200" duration="150"/>
    <frame tileid="203" duration="150"/>
    <frame tileid="206" duration="150"/>
    <frame tileid="209" duration="150"/>
    <frame tileid="212" duration="150"/>
    <frame tileid="215" duration="150"/>
   </animation>
  </tile>
 </tileset>
 <tileset firstgid="6685" name="Small_boat_v1_1" tilewidth="16" tileheight="16" tilecount="216" columns="36">
  <image source="Small_boat_v1_7.png" width="576" height="96"/>
  <tile id="1">
   <animation>
    <frame tileid="1" duration="150"/>
    <frame tileid="4" duration="150"/>
    <frame tileid="7" duration="150"/>
    <frame tileid="10" duration="150"/>
    <frame tileid="13" duration="150"/>
    <frame tileid="16" duration="150"/>
    <frame tileid="19" duration="150"/>
    <frame tileid="22" duration="150"/>
    <frame tileid="25" duration="150"/>
    <frame tileid="28" duration="150"/>
    <frame tileid="31" duration="150"/>
    <frame tileid="34" duration="150"/>
   </animation>
  </tile>
  <tile id="36">
   <animation>
    <frame tileid="36" duration="150"/>
    <frame tileid="39" duration="150"/>
    <frame tileid="42" duration="150"/>
    <frame tileid="45" duration="150"/>
    <frame tileid="48" duration="150"/>
    <frame tileid="51" duration="150"/>
    <frame tileid="54" duration="150"/>
    <frame tileid="57" duration="150"/>
    <frame tileid="60" duration="150"/>
    <frame tileid="63" duration="150"/>
    <frame tileid="66" duration="150"/>
    <frame tileid="69" duration="150"/>
   </animation>
  </tile>
  <tile id="37">
   <animation>
    <frame tileid="37" duration="150"/>
    <frame tileid="40" duration="150"/>
    <frame tileid="43" duration="150"/>
    <frame tileid="46" duration="150"/>
    <frame tileid="49" duration="150"/>
    <frame tileid="52" duration="150"/>
    <frame tileid="55" duration="150"/>
    <frame tileid="58" duration="150"/>
    <frame tileid="61" duration="150"/>
    <frame tileid="64" duration="150"/>
    <frame tileid="67" duration="150"/>
    <frame tileid="70" duration="150"/>
   </animation>
  </tile>
  <tile id="38">
   <animation>
    <frame tileid="38" duration="150"/>
    <frame tileid="41" duration="150"/>
    <frame tileid="44" duration="150"/>
    <frame tileid="47" duration="150"/>
    <frame tileid="50" duration="150"/>
    <frame tileid="53" duration="150"/>
    <frame tileid="56" duration="150"/>
    <frame tileid="59" duration="150"/>
    <frame tileid="62" duration="150"/>
    <frame tileid="65" duration="150"/>
    <frame tileid="68" duration="150"/>
    <frame tileid="71" duration="150"/>
   </animation>
  </tile>
  <tile id="72">
   <animation>
    <frame tileid="72" duration="150"/>
    <frame tileid="75" duration="150"/>
    <frame tileid="78" duration="150"/>
    <frame tileid="81" duration="150"/>
    <frame tileid="84" duration="150"/>
    <frame tileid="87" duration="150"/>
    <frame tileid="90" duration="150"/>
    <frame tileid="93" duration="150"/>
    <frame tileid="96" duration="150"/>
    <frame tileid="99" duration="150"/>
    <frame tileid="102" duration="150"/>
    <frame tileid="105" duration="150"/>
   </animation>
  </tile>
  <tile id="73">
   <animation>
    <frame tileid="73" duration="150"/>
    <frame tileid="76" duration="150"/>
    <frame tileid="79" duration="150"/>
    <frame tileid="82" duration="150"/>
    <frame tileid="85" duration="150"/>
    <frame tileid="88" duration="150"/>
    <frame tileid="91" duration="150"/>
    <frame tileid="94" duration="150"/>
    <frame tileid="97" duration="150"/>
    <frame tileid="100" duration="150"/>
    <frame tileid="103" duration="150"/>
    <frame tileid="106" duration="150"/>
   </animation>
  </tile>
  <tile id="74">
   <animation>
    <frame tileid="74" duration="150"/>
    <frame tileid="77" duration="150"/>
    <frame tileid="80" duration="150"/>
    <frame tileid="83" duration="150"/>
    <frame tileid="86" duration="150"/>
    <frame tileid="89" duration="150"/>
    <frame tileid="92" duration="150"/>
    <frame tileid="95" duration="150"/>
    <frame tileid="98" duration="150"/>
    <frame tileid="101" duration="150"/>
    <frame tileid="104" duration="150"/>
    <frame tileid="107" duration="150"/>
   </animation>
  </tile>
  <tile id="108">
   <animation>
    <frame tileid="108" duration="150"/>
    <frame tileid="111" duration="150"/>
    <frame tileid="114" duration="150"/>
    <frame tileid="117" duration="150"/>
    <frame tileid="120" duration="150"/>
    <frame tileid="123" duration="150"/>
    <frame tileid="126" duration="150"/>
    <frame tileid="129" duration="150"/>
    <frame tileid="132" duration="150"/>
    <frame tileid="135" duration="150"/>
    <frame tileid="138" duration="150"/>
    <frame tileid="141" duration="150"/>
   </animation>
  </tile>
  <tile id="109">
   <animation>
    <frame tileid="109" duration="150"/>
    <frame tileid="112" duration="150"/>
    <frame tileid="115" duration="150"/>
    <frame tileid="118" duration="150"/>
    <frame tileid="121" duration="150"/>
    <frame tileid="124" duration="150"/>
    <frame tileid="127" duration="150"/>
    <frame tileid="130" duration="150"/>
    <frame tileid="133" duration="150"/>
    <frame tileid="136" duration="150"/>
    <frame tileid="139" duration="150"/>
    <frame tileid="142" duration="150"/>
   </animation>
  </tile>
  <tile id="110">
   <animation>
    <frame tileid="110" duration="150"/>
    <frame tileid="113" duration="150"/>
    <frame tileid="116" duration="150"/>
    <frame tileid="119" duration="150"/>
    <frame tileid="122" duration="150"/>
    <frame tileid="125" duration="150"/>
    <frame tileid="128" duration="150"/>
    <frame tileid="131" duration="150"/>
    <frame tileid="134" duration="150"/>
    <frame tileid="137" duration="150"/>
    <frame tileid="140" duration="150"/>
    <frame tileid="143" duration="150"/>
   </animation>
  </tile>
  <tile id="144">
   <animation>
    <frame tileid="144" duration="150"/>
    <frame tileid="147" duration="150"/>
    <frame tileid="150" duration="150"/>
    <frame tileid="153" duration="150"/>
    <frame tileid="156" duration="150"/>
    <frame tileid="159" duration="150"/>
    <frame tileid="162" duration="150"/>
    <frame tileid="165" duration="150"/>
    <frame tileid="168" duration="150"/>
    <frame tileid="171" duration="150"/>
    <frame tileid="174" duration="150"/>
    <frame tileid="177" duration="150"/>
   </animation>
  </tile>
  <tile id="145">
   <animation>
    <frame tileid="145" duration="150"/>
    <frame tileid="148" duration="150"/>
    <frame tileid="151" duration="150"/>
    <frame tileid="154" duration="150"/>
    <frame tileid="157" duration="150"/>
    <frame tileid="160" duration="150"/>
    <frame tileid="163" duration="150"/>
    <frame tileid="166" duration="150"/>
    <frame tileid="169" duration="150"/>
    <frame tileid="172" duration="150"/>
    <frame tileid="175" duration="150"/>
    <frame tileid="178" duration="150"/>
   </animation>
  </tile>
  <tile id="146">
   <animation>
    <frame tileid="146" duration="150"/>
    <frame tileid="149" duration="150"/>
    <frame tileid="152" duration="150"/>
    <frame tileid="155" duration="150"/>
    <frame tileid="158" duration="150"/>
    <frame tileid="161" duration="150"/>
    <frame tileid="164" duration="150"/>
    <frame tileid="167" duration="150"/>
    <frame tileid="170" duration="150"/>
    <frame tileid="173" duration="150"/>
    <frame tileid="176" duration="150"/>
    <frame tileid="179" duration="150"/>
   </animation>
  </tile>
  <tile id="180">
   <animation>
    <frame tileid="180" duration="150"/>
    <frame tileid="183" duration="150"/>
    <frame tileid="186" duration="150"/>
    <frame tileid="189" duration="150"/>
    <frame tileid="192" duration="150"/>
    <frame tileid="195" duration="150"/>
    <frame tileid="198" duration="150"/>
    <frame tileid="201" duration="150"/>
    <frame tileid="204" duration="150"/>
    <frame tileid="207" duration="150"/>
    <frame tileid="210" duration="150"/>
    <frame tileid="213" duration="150"/>
   </animation>
  </tile>
  <tile id="181">
   <animation>
    <frame tileid="181" duration="150"/>
    <frame tileid="184" duration="150"/>
    <frame tileid="187" duration="150"/>
    <frame tileid="190" duration="150"/>
    <frame tileid="193" duration="150"/>
    <frame tileid="196" duration="150"/>
    <frame tileid="199" duration="150"/>
    <frame tileid="202" duration="150"/>
    <frame tileid="205" duration="150"/>
    <frame tileid="208" duration="150"/>
    <frame tileid="211" duration="150"/>
    <frame tileid="214" duration="150"/>
   </animation>
  </tile>
  <tile id="182">
   <animation>
    <frame tileid="182" duration="150"/>
    <frame tileid="185" duration="150"/>
    <frame tileid="188" duration="150"/>
    <frame tileid="191" duration="150"/>
    <frame tileid="194" duration="150"/>
    <frame tileid="197" duration="150"/>
    <frame tileid="200" duration="150"/>
    <frame tileid="203" duration="150"/>
    <frame tileid="206" duration="150"/>
    <frame tileid="209" duration="150"/>
    <frame tileid="212" duration="150"/>
    <frame tileid="215" duration="150"/>
   </animation>
  </tile>
 </tileset>
 <tileset firstgid="6901" name="Fish3" tilewidth="16" tileheight="16" tilecount="54" columns="27">
  <image source="Fish3_animation.png" width="432" height="32"/>
  <tile id="0">
   <animation>
    <frame tileid="0" duration="150"/>
    <frame tileid="3" duration="150"/>
    <frame tileid="6" duration="150"/>
    <frame tileid="9" duration="150"/>
    <frame tileid="12" duration="150"/>
    <frame tileid="15" duration="150"/>
    <frame tileid="18" duration="150"/>
    <frame tileid="21" duration="150"/>
    <frame tileid="24" duration="150"/>
    <frame tileid="0" duration="150"/>
    <frame tileid="0" duration="150"/>
    <frame tileid="0" duration="150"/>
   </animation>
  </tile>
  <tile id="1">
   <animation>
    <frame tileid="1" duration="150"/>
    <frame tileid="4" duration="150"/>
    <frame tileid="7" duration="150"/>
    <frame tileid="10" duration="150"/>
    <frame tileid="13" duration="150"/>
    <frame tileid="16" duration="150"/>
    <frame tileid="19" duration="150"/>
    <frame tileid="22" duration="150"/>
    <frame tileid="25" duration="150"/>
    <frame tileid="0" duration="150"/>
    <frame tileid="0" duration="150"/>
    <frame tileid="0" duration="150"/>
   </animation>
  </tile>
  <tile id="2">
   <animation>
    <frame tileid="2" duration="150"/>
    <frame tileid="5" duration="150"/>
    <frame tileid="8" duration="150"/>
    <frame tileid="11" duration="150"/>
    <frame tileid="14" duration="150"/>
    <frame tileid="17" duration="150"/>
    <frame tileid="20" duration="150"/>
    <frame tileid="23" duration="150"/>
    <frame tileid="26" duration="150"/>
    <frame tileid="0" duration="150"/>
    <frame tileid="0" duration="150"/>
    <frame tileid="0" duration="150"/>
   </animation>
  </tile>
  <tile id="27">
   <animation>
    <frame tileid="27" duration="150"/>
    <frame tileid="30" duration="150"/>
    <frame tileid="33" duration="150"/>
    <frame tileid="36" duration="150"/>
    <frame tileid="39" duration="150"/>
    <frame tileid="42" duration="150"/>
    <frame tileid="45" duration="150"/>
    <frame tileid="48" duration="150"/>
    <frame tileid="51" duration="150"/>
    <frame tileid="27" duration="150"/>
    <frame tileid="27" duration="150"/>
    <frame tileid="27" duration="150"/>
   </animation>
  </tile>
  <tile id="28">
   <animation>
    <frame tileid="28" duration="150"/>
    <frame tileid="31" duration="150"/>
    <frame tileid="34" duration="150"/>
    <frame tileid="37" duration="150"/>
    <frame tileid="40" duration="150"/>
    <frame tileid="43" duration="150"/>
    <frame tileid="46" duration="150"/>
    <frame tileid="49" duration="150"/>
    <frame tileid="52" duration="150"/>
    <frame tileid="27" duration="150"/>
    <frame tileid="27" duration="150"/>
    <frame tileid="27" duration="150"/>
   </animation>
  </tile>
  <tile id="29">
   <animation>
    <frame tileid="29" duration="150"/>
    <frame tileid="32" duration="150"/>
    <frame tileid="35" duration="150"/>
    <frame tileid="38" duration="150"/>
    <frame tileid="41" duration="150"/>
    <frame tileid="44" duration="150"/>
    <frame tileid="47" duration="150"/>
    <frame tileid="50" duration="150"/>
    <frame tileid="53" duration="150"/>
    <frame tileid="27" duration="150"/>
    <frame tileid="27" duration="150"/>
    <frame tileid="27" duration="150"/>
   </animation>
  </tile>
 </tileset>
 <tileset firstgid="6955" name="Fish3" tilewidth="16" tileheight="16" tilecount="54" columns="27">
  <image source="Fish4_animation.png" width="432" height="32"/>
  <tile id="0">
   <animation>
    <frame tileid="0" duration="150"/>
    <frame tileid="3" duration="150"/>
    <frame tileid="6" duration="150"/>
    <frame tileid="9" duration="150"/>
    <frame tileid="12" duration="150"/>
    <frame tileid="15" duration="150"/>
    <frame tileid="18" duration="150"/>
    <frame tileid="21" duration="150"/>
    <frame tileid="24" duration="150"/>
    <frame tileid="0" duration="150"/>
    <frame tileid="0" duration="150"/>
    <frame tileid="0" duration="150"/>
   </animation>
  </tile>
  <tile id="1">
   <animation>
    <frame tileid="1" duration="150"/>
    <frame tileid="4" duration="150"/>
    <frame tileid="7" duration="150"/>
    <frame tileid="10" duration="150"/>
    <frame tileid="13" duration="150"/>
    <frame tileid="16" duration="150"/>
    <frame tileid="19" duration="150"/>
    <frame tileid="22" duration="150"/>
    <frame tileid="25" duration="150"/>
    <frame tileid="0" duration="150"/>
    <frame tileid="0" duration="150"/>
    <frame tileid="0" duration="150"/>
   </animation>
  </tile>
  <tile id="2">
   <animation>
    <frame tileid="2" duration="150"/>
    <frame tileid="5" duration="150"/>
    <frame tileid="8" duration="150"/>
    <frame tileid="11" duration="150"/>
    <frame tileid="14" duration="150"/>
    <frame tileid="17" duration="150"/>
    <frame tileid="20" duration="150"/>
    <frame tileid="23" duration="150"/>
    <frame tileid="26" duration="150"/>
    <frame tileid="0" duration="150"/>
    <frame tileid="0" duration="150"/>
    <frame tileid="0" duration="150"/>
   </animation>
  </tile>
  <tile id="27">
   <animation>
    <frame tileid="27" duration="150"/>
    <frame tileid="30" duration="150"/>
    <frame tileid="33" duration="150"/>
    <frame tileid="36" duration="150"/>
    <frame tileid="39" duration="150"/>
    <frame tileid="42" duration="150"/>
    <frame tileid="45" duration="150"/>
    <frame tileid="48" duration="150"/>
    <frame tileid="51" duration="150"/>
    <frame tileid="27" duration="150"/>
    <frame tileid="27" duration="150"/>
    <frame tileid="27" duration="150"/>
   </animation>
  </tile>
  <tile id="28">
   <animation>
    <frame tileid="28" duration="150"/>
    <frame tileid="31" duration="150"/>
    <frame tileid="34" duration="150"/>
    <frame tileid="37" duration="150"/>
    <frame tileid="40" duration="150"/>
    <frame tileid="43" duration="150"/>
    <frame tileid="46" duration="150"/>
    <frame tileid="49" duration="150"/>
    <frame tileid="52" duration="150"/>
    <frame tileid="27" duration="150"/>
    <frame tileid="27" duration="150"/>
    <frame tileid="27" duration="150"/>
   </animation>
  </tile>
  <tile id="29">
   <animation>
    <frame tileid="29" duration="150"/>
    <frame tileid="32" duration="150"/>
    <frame tileid="35" duration="150"/>
    <frame tileid="38" duration="150"/>
    <frame tileid="41" duration="150"/>
    <frame tileid="44" duration="150"/>
    <frame tileid="47" duration="150"/>
    <frame tileid="50" duration="150"/>
    <frame tileid="53" duration="150"/>
    <frame tileid="27" duration="150"/>
    <frame tileid="27" duration="150"/>
    <frame tileid="27" duration="150"/>
   </animation>
  </tile>
 </tileset>
 <tileset firstgid="7009" name="Fish1" tilewidth="16" tileheight="16" tilecount="36" columns="18">
  <image source="Fish2_animation.png" width="288" height="32"/>
  <tile id="0">
   <animation>
    <frame tileid="0" duration="150"/>
    <frame tileid="2" duration="150"/>
    <frame tileid="4" duration="150"/>
    <frame tileid="6" duration="150"/>
    <frame tileid="8" duration="150"/>
    <frame tileid="10" duration="150"/>
    <frame tileid="12" duration="150"/>
    <frame tileid="14" duration="150"/>
    <frame tileid="16" duration="150"/>
    <frame tileid="0" duration="150"/>
    <frame tileid="0" duration="150"/>
    <frame tileid="0" duration="150"/>
   </animation>
  </tile>
  <tile id="1">
   <animation>
    <frame tileid="1" duration="150"/>
    <frame tileid="3" duration="150"/>
    <frame tileid="5" duration="150"/>
    <frame tileid="7" duration="150"/>
    <frame tileid="9" duration="150"/>
    <frame tileid="11" duration="150"/>
    <frame tileid="13" duration="150"/>
    <frame tileid="15" duration="150"/>
    <frame tileid="17" duration="150"/>
    <frame tileid="0" duration="150"/>
    <frame tileid="0" duration="150"/>
    <frame tileid="0" duration="150"/>
   </animation>
  </tile>
  <tile id="18">
   <animation>
    <frame tileid="18" duration="150"/>
    <frame tileid="20" duration="150"/>
    <frame tileid="22" duration="150"/>
    <frame tileid="24" duration="150"/>
    <frame tileid="26" duration="150"/>
    <frame tileid="28" duration="150"/>
    <frame tileid="30" duration="150"/>
    <frame tileid="32" duration="150"/>
    <frame tileid="34" duration="150"/>
    <frame tileid="18" duration="150"/>
    <frame tileid="18" duration="150"/>
    <frame tileid="18" duration="150"/>
   </animation>
  </tile>
  <tile id="19">
   <animation>
    <frame tileid="19" duration="150"/>
    <frame tileid="21" duration="150"/>
    <frame tileid="23" duration="150"/>
    <frame tileid="25" duration="150"/>
    <frame tileid="27" duration="150"/>
    <frame tileid="29" duration="150"/>
    <frame tileid="31" duration="150"/>
    <frame tileid="33" duration="150"/>
    <frame tileid="35" duration="150"/>
    <frame tileid="18" duration="150"/>
    <frame tileid="18" duration="150"/>
    <frame tileid="18" duration="150"/>
   </animation>
  </tile>
 </tileset>
 <tileset firstgid="7045" name="Fish1" tilewidth="16" tileheight="16" tilecount="36" columns="18">
  <image source="Fish1_animation.png" width="288" height="32"/>
  <tile id="0">
   <animation>
    <frame tileid="0" duration="150"/>
    <frame tileid="2" duration="150"/>
    <frame tileid="4" duration="150"/>
    <frame tileid="6" duration="150"/>
    <frame tileid="8" duration="150"/>
    <frame tileid="10" duration="150"/>
    <frame tileid="12" duration="150"/>
    <frame tileid="14" duration="150"/>
    <frame tileid="16" duration="150"/>
    <frame tileid="0" duration="150"/>
    <frame tileid="0" duration="150"/>
    <frame tileid="0" duration="150"/>
   </animation>
  </tile>
  <tile id="1">
   <animation>
    <frame tileid="1" duration="150"/>
    <frame tileid="3" duration="150"/>
    <frame tileid="5" duration="150"/>
    <frame tileid="7" duration="150"/>
    <frame tileid="9" duration="150"/>
    <frame tileid="11" duration="150"/>
    <frame tileid="13" duration="150"/>
    <frame tileid="15" duration="150"/>
    <frame tileid="17" duration="150"/>
    <frame tileid="0" duration="150"/>
    <frame tileid="0" duration="150"/>
    <frame tileid="0" duration="150"/>
   </animation>
  </tile>
  <tile id="18">
   <animation>
    <frame tileid="18" duration="150"/>
    <frame tileid="20" duration="150"/>
    <frame tileid="22" duration="150"/>
    <frame tileid="24" duration="150"/>
    <frame tileid="26" duration="150"/>
    <frame tileid="28" duration="150"/>
    <frame tileid="30" duration="150"/>
    <frame tileid="32" duration="150"/>
    <frame tileid="34" duration="150"/>
    <frame tileid="18" duration="150"/>
    <frame tileid="18" duration="150"/>
    <frame tileid="18" duration="150"/>
   </animation>
  </tile>
  <tile id="19">
   <animation>
    <frame tileid="19" duration="150"/>
    <frame tileid="21" duration="150"/>
    <frame tileid="23" duration="150"/>
    <frame tileid="25" duration="150"/>
    <frame tileid="27" duration="150"/>
    <frame tileid="29" duration="150"/>
    <frame tileid="31" duration="150"/>
    <frame tileid="33" duration="150"/>
    <frame tileid="35" duration="150"/>
    <frame tileid="18" duration="150"/>
    <frame tileid="18" duration="150"/>
    <frame tileid="18" duration="150"/>
   </animation>
  </tile>
 </tileset>
 <tileset firstgid="7081" name="Small_boat_v2_1-Sheet" tilewidth="16" tileheight="16" tilecount="252" columns="36">
  <image source="Small_boat_v2_1-Sheet.png" width="576" height="112"/>
  <tile id="36">
   <animation>
    <frame tileid="36" duration="150"/>
    <frame tileid="39" duration="150"/>
    <frame tileid="42" duration="150"/>
    <frame tileid="45" duration="150"/>
    <frame tileid="48" duration="150"/>
    <frame tileid="51" duration="150"/>
    <frame tileid="54" duration="150"/>
    <frame tileid="57" duration="150"/>
    <frame tileid="60" duration="150"/>
    <frame tileid="63" duration="150"/>
    <frame tileid="66" duration="150"/>
    <frame tileid="69" duration="150"/>
   </animation>
  </tile>
  <tile id="37">
   <animation>
    <frame tileid="37" duration="150"/>
    <frame tileid="40" duration="150"/>
    <frame tileid="43" duration="150"/>
    <frame tileid="46" duration="150"/>
    <frame tileid="49" duration="150"/>
    <frame tileid="52" duration="150"/>
    <frame tileid="55" duration="150"/>
    <frame tileid="58" duration="150"/>
    <frame tileid="61" duration="150"/>
    <frame tileid="64" duration="150"/>
    <frame tileid="67" duration="150"/>
    <frame tileid="70" duration="150"/>
   </animation>
  </tile>
  <tile id="38">
   <animation>
    <frame tileid="38" duration="150"/>
    <frame tileid="41" duration="150"/>
    <frame tileid="44" duration="150"/>
    <frame tileid="47" duration="150"/>
    <frame tileid="50" duration="150"/>
    <frame tileid="53" duration="150"/>
    <frame tileid="56" duration="150"/>
    <frame tileid="59" duration="150"/>
    <frame tileid="62" duration="150"/>
    <frame tileid="65" duration="150"/>
    <frame tileid="68" duration="150"/>
    <frame tileid="71" duration="150"/>
   </animation>
  </tile>
  <tile id="72">
   <animation>
    <frame tileid="72" duration="150"/>
    <frame tileid="75" duration="150"/>
    <frame tileid="78" duration="150"/>
    <frame tileid="81" duration="150"/>
    <frame tileid="84" duration="150"/>
    <frame tileid="87" duration="150"/>
    <frame tileid="90" duration="150"/>
    <frame tileid="93" duration="150"/>
    <frame tileid="96" duration="150"/>
    <frame tileid="99" duration="150"/>
    <frame tileid="102" duration="150"/>
    <frame tileid="105" duration="150"/>
   </animation>
  </tile>
  <tile id="73">
   <animation>
    <frame tileid="73" duration="150"/>
    <frame tileid="76" duration="150"/>
    <frame tileid="79" duration="150"/>
    <frame tileid="82" duration="150"/>
    <frame tileid="85" duration="150"/>
    <frame tileid="88" duration="150"/>
    <frame tileid="91" duration="150"/>
    <frame tileid="94" duration="150"/>
    <frame tileid="97" duration="150"/>
    <frame tileid="100" duration="150"/>
    <frame tileid="103" duration="150"/>
    <frame tileid="106" duration="150"/>
   </animation>
  </tile>
  <tile id="74">
   <animation>
    <frame tileid="74" duration="150"/>
    <frame tileid="77" duration="150"/>
    <frame tileid="80" duration="150"/>
    <frame tileid="83" duration="150"/>
    <frame tileid="86" duration="150"/>
    <frame tileid="89" duration="150"/>
    <frame tileid="92" duration="150"/>
    <frame tileid="95" duration="150"/>
    <frame tileid="98" duration="150"/>
    <frame tileid="101" duration="150"/>
    <frame tileid="104" duration="150"/>
    <frame tileid="107" duration="150"/>
   </animation>
  </tile>
  <tile id="108">
   <animation>
    <frame tileid="108" duration="150"/>
    <frame tileid="111" duration="150"/>
    <frame tileid="114" duration="150"/>
    <frame tileid="117" duration="150"/>
    <frame tileid="120" duration="150"/>
    <frame tileid="123" duration="150"/>
    <frame tileid="126" duration="150"/>
    <frame tileid="129" duration="150"/>
    <frame tileid="132" duration="150"/>
    <frame tileid="135" duration="150"/>
    <frame tileid="138" duration="150"/>
    <frame tileid="141" duration="150"/>
   </animation>
  </tile>
  <tile id="109">
   <animation>
    <frame tileid="109" duration="150"/>
    <frame tileid="112" duration="150"/>
    <frame tileid="115" duration="150"/>
    <frame tileid="118" duration="150"/>
    <frame tileid="121" duration="150"/>
    <frame tileid="124" duration="150"/>
    <frame tileid="127" duration="150"/>
    <frame tileid="130" duration="150"/>
    <frame tileid="133" duration="150"/>
    <frame tileid="136" duration="150"/>
    <frame tileid="139" duration="150"/>
    <frame tileid="142" duration="150"/>
   </animation>
  </tile>
  <tile id="110">
   <animation>
    <frame tileid="110" duration="150"/>
    <frame tileid="113" duration="150"/>
    <frame tileid="116" duration="150"/>
    <frame tileid="119" duration="150"/>
    <frame tileid="122" duration="150"/>
    <frame tileid="125" duration="150"/>
    <frame tileid="128" duration="150"/>
    <frame tileid="131" duration="150"/>
    <frame tileid="134" duration="150"/>
    <frame tileid="137" duration="150"/>
    <frame tileid="140" duration="150"/>
    <frame tileid="143" duration="150"/>
   </animation>
  </tile>
  <tile id="144">
   <animation>
    <frame tileid="144" duration="150"/>
    <frame tileid="147" duration="150"/>
    <frame tileid="150" duration="150"/>
    <frame tileid="153" duration="150"/>
    <frame tileid="156" duration="150"/>
    <frame tileid="159" duration="150"/>
    <frame tileid="162" duration="150"/>
    <frame tileid="165" duration="150"/>
    <frame tileid="168" duration="150"/>
    <frame tileid="171" duration="150"/>
    <frame tileid="174" duration="150"/>
    <frame tileid="177" duration="150"/>
   </animation>
  </tile>
  <tile id="145">
   <animation>
    <frame tileid="145" duration="150"/>
    <frame tileid="148" duration="150"/>
    <frame tileid="151" duration="150"/>
    <frame tileid="154" duration="150"/>
    <frame tileid="157" duration="150"/>
    <frame tileid="160" duration="150"/>
    <frame tileid="163" duration="150"/>
    <frame tileid="166" duration="150"/>
    <frame tileid="169" duration="150"/>
    <frame tileid="172" duration="150"/>
    <frame tileid="175" duration="150"/>
    <frame tileid="178" duration="150"/>
   </animation>
  </tile>
  <tile id="146">
   <animation>
    <frame tileid="146" duration="150"/>
    <frame tileid="149" duration="150"/>
    <frame tileid="152" duration="150"/>
    <frame tileid="155" duration="150"/>
    <frame tileid="158" duration="150"/>
    <frame tileid="161" duration="150"/>
    <frame tileid="164" duration="150"/>
    <frame tileid="167" duration="150"/>
    <frame tileid="170" duration="150"/>
    <frame tileid="173" duration="150"/>
    <frame tileid="176" duration="150"/>
    <frame tileid="179" duration="150"/>
   </animation>
  </tile>
  <tile id="180">
   <animation>
    <frame tileid="180" duration="150"/>
    <frame tileid="183" duration="150"/>
    <frame tileid="186" duration="150"/>
    <frame tileid="189" duration="150"/>
    <frame tileid="192" duration="150"/>
    <frame tileid="195" duration="150"/>
    <frame tileid="198" duration="150"/>
    <frame tileid="201" duration="150"/>
    <frame tileid="204" duration="150"/>
    <frame tileid="207" duration="150"/>
    <frame tileid="210" duration="150"/>
    <frame tileid="213" duration="150"/>
   </animation>
  </tile>
  <tile id="181">
   <animation>
    <frame tileid="181" duration="150"/>
    <frame tileid="184" duration="150"/>
    <frame tileid="187" duration="150"/>
    <frame tileid="190" duration="150"/>
    <frame tileid="193" duration="150"/>
    <frame tileid="196" duration="150"/>
    <frame tileid="199" duration="150"/>
    <frame tileid="202" duration="150"/>
    <frame tileid="205" duration="150"/>
    <frame tileid="208" duration="150"/>
    <frame tileid="211" duration="150"/>
    <frame tileid="214" duration="150"/>
   </animation>
  </tile>
  <tile id="182">
   <animation>
    <frame tileid="182" duration="150"/>
    <frame tileid="185" duration="150"/>
    <frame tileid="188" duration="150"/>
    <frame tileid="191" duration="150"/>
    <frame tileid="194" duration="150"/>
    <frame tileid="197" duration="150"/>
    <frame tileid="200" duration="150"/>
    <frame tileid="203" duration="150"/>
    <frame tileid="206" duration="150"/>
    <frame tileid="209" duration="150"/>
    <frame tileid="212" duration="150"/>
    <frame tileid="215" duration="150"/>
   </animation>
  </tile>
  <tile id="216">
   <animation>
    <frame tileid="216" duration="150"/>
    <frame tileid="219" duration="150"/>
    <frame tileid="222" duration="150"/>
    <frame tileid="225" duration="150"/>
    <frame tileid="228" duration="150"/>
    <frame tileid="231" duration="150"/>
    <frame tileid="234" duration="150"/>
    <frame tileid="237" duration="150"/>
    <frame tileid="240" duration="150"/>
    <frame tileid="243" duration="150"/>
    <frame tileid="246" duration="150"/>
    <frame tileid="249" duration="150"/>
   </animation>
  </tile>
  <tile id="217">
   <animation>
    <frame tileid="217" duration="150"/>
    <frame tileid="220" duration="150"/>
    <frame tileid="223" duration="150"/>
    <frame tileid="226" duration="150"/>
    <frame tileid="229" duration="150"/>
    <frame tileid="232" duration="150"/>
    <frame tileid="235" duration="150"/>
    <frame tileid="238" duration="150"/>
    <frame tileid="241" duration="150"/>
    <frame tileid="244" duration="150"/>
    <frame tileid="247" duration="150"/>
    <frame tileid="250" duration="150"/>
   </animation>
  </tile>
  <tile id="218">
   <animation>
    <frame tileid="218" duration="150"/>
    <frame tileid="221" duration="150"/>
    <frame tileid="224" duration="150"/>
    <frame tileid="227" duration="150"/>
    <frame tileid="230" duration="150"/>
    <frame tileid="233" duration="150"/>
    <frame tileid="236" duration="150"/>
    <frame tileid="239" duration="150"/>
    <frame tileid="242" duration="150"/>
    <frame tileid="245" duration="150"/>
    <frame tileid="248" duration="150"/>
    <frame tileid="251" duration="150"/>
   </animation>
  </tile>
 </tileset>
 <tileset firstgid="7333" name="Small_boat_v2_1-Sheet" tilewidth="16" tileheight="16" tilecount="252" columns="36">
  <image source="Small_boat_v2_2.png" width="576" height="112"/>
  <tile id="36">
   <animation>
    <frame tileid="36" duration="150"/>
    <frame tileid="39" duration="150"/>
    <frame tileid="42" duration="150"/>
    <frame tileid="45" duration="150"/>
    <frame tileid="48" duration="150"/>
    <frame tileid="51" duration="150"/>
    <frame tileid="54" duration="150"/>
    <frame tileid="57" duration="150"/>
    <frame tileid="60" duration="150"/>
    <frame tileid="63" duration="150"/>
    <frame tileid="66" duration="150"/>
    <frame tileid="69" duration="150"/>
   </animation>
  </tile>
  <tile id="37">
   <animation>
    <frame tileid="37" duration="150"/>
    <frame tileid="40" duration="150"/>
    <frame tileid="43" duration="150"/>
    <frame tileid="46" duration="150"/>
    <frame tileid="49" duration="150"/>
    <frame tileid="52" duration="150"/>
    <frame tileid="55" duration="150"/>
    <frame tileid="58" duration="150"/>
    <frame tileid="61" duration="150"/>
    <frame tileid="64" duration="150"/>
    <frame tileid="67" duration="150"/>
    <frame tileid="70" duration="150"/>
   </animation>
  </tile>
  <tile id="38">
   <animation>
    <frame tileid="38" duration="150"/>
    <frame tileid="41" duration="150"/>
    <frame tileid="44" duration="150"/>
    <frame tileid="47" duration="150"/>
    <frame tileid="50" duration="150"/>
    <frame tileid="53" duration="150"/>
    <frame tileid="56" duration="150"/>
    <frame tileid="59" duration="150"/>
    <frame tileid="62" duration="150"/>
    <frame tileid="65" duration="150"/>
    <frame tileid="68" duration="150"/>
    <frame tileid="71" duration="150"/>
   </animation>
  </tile>
  <tile id="72">
   <animation>
    <frame tileid="72" duration="150"/>
    <frame tileid="75" duration="150"/>
    <frame tileid="78" duration="150"/>
    <frame tileid="81" duration="150"/>
    <frame tileid="84" duration="150"/>
    <frame tileid="87" duration="150"/>
    <frame tileid="90" duration="150"/>
    <frame tileid="93" duration="150"/>
    <frame tileid="96" duration="150"/>
    <frame tileid="99" duration="150"/>
    <frame tileid="102" duration="150"/>
    <frame tileid="105" duration="150"/>
   </animation>
  </tile>
  <tile id="73">
   <animation>
    <frame tileid="73" duration="150"/>
    <frame tileid="76" duration="150"/>
    <frame tileid="79" duration="150"/>
    <frame tileid="82" duration="150"/>
    <frame tileid="85" duration="150"/>
    <frame tileid="88" duration="150"/>
    <frame tileid="91" duration="150"/>
    <frame tileid="94" duration="150"/>
    <frame tileid="97" duration="150"/>
    <frame tileid="100" duration="150"/>
    <frame tileid="103" duration="150"/>
    <frame tileid="106" duration="150"/>
   </animation>
  </tile>
  <tile id="74">
   <animation>
    <frame tileid="74" duration="150"/>
    <frame tileid="77" duration="150"/>
    <frame tileid="80" duration="150"/>
    <frame tileid="83" duration="150"/>
    <frame tileid="86" duration="150"/>
    <frame tileid="89" duration="150"/>
    <frame tileid="92" duration="150"/>
    <frame tileid="95" duration="150"/>
    <frame tileid="98" duration="150"/>
    <frame tileid="101" duration="150"/>
    <frame tileid="104" duration="150"/>
    <frame tileid="107" duration="150"/>
   </animation>
  </tile>
  <tile id="108">
   <animation>
    <frame tileid="108" duration="150"/>
    <frame tileid="111" duration="150"/>
    <frame tileid="114" duration="150"/>
    <frame tileid="117" duration="150"/>
    <frame tileid="120" duration="150"/>
    <frame tileid="123" duration="150"/>
    <frame tileid="126" duration="150"/>
    <frame tileid="129" duration="150"/>
    <frame tileid="132" duration="150"/>
    <frame tileid="135" duration="150"/>
    <frame tileid="138" duration="150"/>
    <frame tileid="141" duration="150"/>
   </animation>
  </tile>
  <tile id="109">
   <animation>
    <frame tileid="109" duration="150"/>
    <frame tileid="112" duration="150"/>
    <frame tileid="115" duration="150"/>
    <frame tileid="118" duration="150"/>
    <frame tileid="121" duration="150"/>
    <frame tileid="124" duration="150"/>
    <frame tileid="127" duration="150"/>
    <frame tileid="130" duration="150"/>
    <frame tileid="133" duration="150"/>
    <frame tileid="136" duration="150"/>
    <frame tileid="139" duration="150"/>
    <frame tileid="142" duration="150"/>
   </animation>
  </tile>
  <tile id="110">
   <animation>
    <frame tileid="110" duration="150"/>
    <frame tileid="113" duration="150"/>
    <frame tileid="116" duration="150"/>
    <frame tileid="119" duration="150"/>
    <frame tileid="122" duration="150"/>
    <frame tileid="125" duration="150"/>
    <frame tileid="128" duration="150"/>
    <frame tileid="131" duration="150"/>
    <frame tileid="134" duration="150"/>
    <frame tileid="137" duration="150"/>
    <frame tileid="140" duration="150"/>
    <frame tileid="143" duration="150"/>
   </animation>
  </tile>
  <tile id="144">
   <animation>
    <frame tileid="144" duration="150"/>
    <frame tileid="147" duration="150"/>
    <frame tileid="150" duration="150"/>
    <frame tileid="153" duration="150"/>
    <frame tileid="156" duration="150"/>
    <frame tileid="159" duration="150"/>
    <frame tileid="162" duration="150"/>
    <frame tileid="165" duration="150"/>
    <frame tileid="168" duration="150"/>
    <frame tileid="171" duration="150"/>
    <frame tileid="174" duration="150"/>
    <frame tileid="177" duration="150"/>
   </animation>
  </tile>
  <tile id="145">
   <animation>
    <frame tileid="145" duration="150"/>
    <frame tileid="148" duration="150"/>
    <frame tileid="151" duration="150"/>
    <frame tileid="154" duration="150"/>
    <frame tileid="157" duration="150"/>
    <frame tileid="160" duration="150"/>
    <frame tileid="163" duration="150"/>
    <frame tileid="166" duration="150"/>
    <frame tileid="169" duration="150"/>
    <frame tileid="172" duration="150"/>
    <frame tileid="175" duration="150"/>
    <frame tileid="178" duration="150"/>
   </animation>
  </tile>
  <tile id="146">
   <animation>
    <frame tileid="146" duration="150"/>
    <frame tileid="149" duration="150"/>
    <frame tileid="152" duration="150"/>
    <frame tileid="155" duration="150"/>
    <frame tileid="158" duration="150"/>
    <frame tileid="161" duration="150"/>
    <frame tileid="164" duration="150"/>
    <frame tileid="167" duration="150"/>
    <frame tileid="170" duration="150"/>
    <frame tileid="173" duration="150"/>
    <frame tileid="176" duration="150"/>
    <frame tileid="179" duration="150"/>
   </animation>
  </tile>
  <tile id="180">
   <animation>
    <frame tileid="180" duration="150"/>
    <frame tileid="183" duration="150"/>
    <frame tileid="186" duration="150"/>
    <frame tileid="189" duration="150"/>
    <frame tileid="192" duration="150"/>
    <frame tileid="195" duration="150"/>
    <frame tileid="198" duration="150"/>
    <frame tileid="201" duration="150"/>
    <frame tileid="204" duration="150"/>
    <frame tileid="207" duration="150"/>
    <frame tileid="210" duration="150"/>
    <frame tileid="213" duration="150"/>
   </animation>
  </tile>
  <tile id="181">
   <animation>
    <frame tileid="181" duration="150"/>
    <frame tileid="184" duration="150"/>
    <frame tileid="187" duration="150"/>
    <frame tileid="190" duration="150"/>
    <frame tileid="193" duration="150"/>
    <frame tileid="196" duration="150"/>
    <frame tileid="199" duration="150"/>
    <frame tileid="202" duration="150"/>
    <frame tileid="205" duration="150"/>
    <frame tileid="208" duration="150"/>
    <frame tileid="211" duration="150"/>
    <frame tileid="214" duration="150"/>
   </animation>
  </tile>
  <tile id="182">
   <animation>
    <frame tileid="182" duration="150"/>
    <frame tileid="185" duration="150"/>
    <frame tileid="188" duration="150"/>
    <frame tileid="191" duration="150"/>
    <frame tileid="194" duration="150"/>
    <frame tileid="197" duration="150"/>
    <frame tileid="200" duration="150"/>
    <frame tileid="203" duration="150"/>
    <frame tileid="206" duration="150"/>
    <frame tileid="209" duration="150"/>
    <frame tileid="212" duration="150"/>
    <frame tileid="215" duration="150"/>
   </animation>
  </tile>
  <tile id="216">
   <animation>
    <frame tileid="216" duration="150"/>
    <frame tileid="219" duration="150"/>
    <frame tileid="222" duration="150"/>
    <frame tileid="225" duration="150"/>
    <frame tileid="228" duration="150"/>
    <frame tileid="231" duration="150"/>
    <frame tileid="234" duration="150"/>
    <frame tileid="237" duration="150"/>
    <frame tileid="240" duration="150"/>
    <frame tileid="243" duration="150"/>
    <frame tileid="246" duration="150"/>
    <frame tileid="249" duration="150"/>
   </animation>
  </tile>
  <tile id="217">
   <animation>
    <frame tileid="217" duration="150"/>
    <frame tileid="220" duration="150"/>
    <frame tileid="223" duration="150"/>
    <frame tileid="226" duration="150"/>
    <frame tileid="229" duration="150"/>
    <frame tileid="232" duration="150"/>
    <frame tileid="235" duration="150"/>
    <frame tileid="238" duration="150"/>
    <frame tileid="241" duration="150"/>
    <frame tileid="244" duration="150"/>
    <frame tileid="247" duration="150"/>
    <frame tileid="250" duration="150"/>
   </animation>
  </tile>
  <tile id="218">
   <animation>
    <frame tileid="218" duration="150"/>
    <frame tileid="221" duration="150"/>
    <frame tileid="224" duration="150"/>
    <frame tileid="227" duration="150"/>
    <frame tileid="230" duration="150"/>
    <frame tileid="233" duration="150"/>
    <frame tileid="236" duration="150"/>
    <frame tileid="239" duration="150"/>
    <frame tileid="242" duration="150"/>
    <frame tileid="245" duration="150"/>
    <frame tileid="248" duration="150"/>
    <frame tileid="251" duration="150"/>
   </animation>
  </tile>
 </tileset>
 <tileset firstgid="7585" name="Boat2" tilewidth="16" tileheight="16" tilecount="840" columns="40">
  <image source="Boat2.png" width="640" height="336"/>
  <tile id="4">
   <animation>
    <frame tileid="4" duration="150"/>
    <frame tileid="14" duration="150"/>
    <frame tileid="24" duration="150"/>
    <frame tileid="34" duration="150"/>
    <frame tileid="284" duration="150"/>
    <frame tileid="294" duration="150"/>
    <frame tileid="304" duration="150"/>
    <frame tileid="314" duration="150"/>
    <frame tileid="564" duration="150"/>
    <frame tileid="574" duration="150"/>
    <frame tileid="584" duration="150"/>
    <frame tileid="594" duration="150"/>
   </animation>
  </tile>
  <tile id="44">
   <animation>
    <frame tileid="44" duration="150"/>
    <frame tileid="54" duration="150"/>
    <frame tileid="64" duration="150"/>
    <frame tileid="74" duration="150"/>
    <frame tileid="324" duration="150"/>
    <frame tileid="334" duration="150"/>
    <frame tileid="344" duration="150"/>
    <frame tileid="354" duration="150"/>
    <frame tileid="604" duration="150"/>
    <frame tileid="614" duration="150"/>
    <frame tileid="624" duration="150"/>
    <frame tileid="634" duration="150"/>
   </animation>
  </tile>
  <tile id="45">
   <animation>
    <frame tileid="45" duration="150"/>
    <frame tileid="55" duration="150"/>
    <frame tileid="65" duration="150"/>
    <frame tileid="75" duration="150"/>
    <frame tileid="325" duration="150"/>
    <frame tileid="335" duration="150"/>
    <frame tileid="345" duration="150"/>
    <frame tileid="355" duration="150"/>
    <frame tileid="605" duration="150"/>
    <frame tileid="615" duration="150"/>
    <frame tileid="625" duration="150"/>
    <frame tileid="635" duration="150"/>
   </animation>
  </tile>
  <tile id="84">
   <animation>
    <frame tileid="84" duration="150"/>
    <frame tileid="94" duration="150"/>
    <frame tileid="104" duration="150"/>
    <frame tileid="114" duration="150"/>
    <frame tileid="364" duration="150"/>
    <frame tileid="374" duration="150"/>
    <frame tileid="384" duration="150"/>
    <frame tileid="394" duration="150"/>
    <frame tileid="644" duration="150"/>
    <frame tileid="654" duration="150"/>
    <frame tileid="664" duration="150"/>
    <frame tileid="674" duration="150"/>
   </animation>
  </tile>
  <tile id="85">
   <animation>
    <frame tileid="85" duration="150"/>
    <frame tileid="95" duration="150"/>
    <frame tileid="105" duration="150"/>
    <frame tileid="115" duration="150"/>
    <frame tileid="365" duration="150"/>
    <frame tileid="375" duration="150"/>
    <frame tileid="385" duration="150"/>
    <frame tileid="395" duration="150"/>
    <frame tileid="645" duration="150"/>
    <frame tileid="655" duration="150"/>
    <frame tileid="665" duration="150"/>
    <frame tileid="675" duration="150"/>
   </animation>
  </tile>
  <tile id="86">
   <animation>
    <frame tileid="86" duration="150"/>
    <frame tileid="96" duration="150"/>
    <frame tileid="106" duration="150"/>
    <frame tileid="116" duration="150"/>
    <frame tileid="366" duration="150"/>
    <frame tileid="376" duration="150"/>
    <frame tileid="386" duration="150"/>
    <frame tileid="396" duration="150"/>
    <frame tileid="646" duration="150"/>
    <frame tileid="656" duration="150"/>
    <frame tileid="666" duration="150"/>
    <frame tileid="676" duration="150"/>
   </animation>
  </tile>
  <tile id="123">
   <animation>
    <frame tileid="123" duration="150"/>
    <frame tileid="133" duration="150"/>
    <frame tileid="143" duration="150"/>
    <frame tileid="153" duration="150"/>
    <frame tileid="403" duration="150"/>
    <frame tileid="413" duration="150"/>
    <frame tileid="423" duration="150"/>
    <frame tileid="433" duration="150"/>
    <frame tileid="683" duration="150"/>
    <frame tileid="693" duration="150"/>
    <frame tileid="703" duration="150"/>
    <frame tileid="713" duration="150"/>
   </animation>
  </tile>
  <tile id="124">
   <animation>
    <frame tileid="124" duration="150"/>
    <frame tileid="134" duration="150"/>
    <frame tileid="144" duration="150"/>
    <frame tileid="154" duration="150"/>
    <frame tileid="404" duration="150"/>
    <frame tileid="414" duration="150"/>
    <frame tileid="424" duration="150"/>
    <frame tileid="434" duration="150"/>
    <frame tileid="684" duration="150"/>
    <frame tileid="694" duration="150"/>
    <frame tileid="704" duration="150"/>
    <frame tileid="714" duration="150"/>
   </animation>
  </tile>
  <tile id="125">
   <animation>
    <frame tileid="125" duration="150"/>
    <frame tileid="135" duration="150"/>
    <frame tileid="145" duration="150"/>
    <frame tileid="155" duration="150"/>
    <frame tileid="405" duration="150"/>
    <frame tileid="415" duration="150"/>
    <frame tileid="425" duration="150"/>
    <frame tileid="435" duration="150"/>
    <frame tileid="685" duration="150"/>
    <frame tileid="695" duration="150"/>
    <frame tileid="705" duration="150"/>
    <frame tileid="715" duration="150"/>
   </animation>
  </tile>
  <tile id="126">
   <animation>
    <frame tileid="126" duration="150"/>
    <frame tileid="136" duration="150"/>
    <frame tileid="146" duration="150"/>
    <frame tileid="156" duration="150"/>
    <frame tileid="406" duration="150"/>
    <frame tileid="416" duration="150"/>
    <frame tileid="426" duration="150"/>
    <frame tileid="436" duration="150"/>
    <frame tileid="686" duration="150"/>
    <frame tileid="696" duration="150"/>
    <frame tileid="706" duration="150"/>
    <frame tileid="716" duration="150"/>
   </animation>
  </tile>
  <tile id="127">
   <animation>
    <frame tileid="127" duration="150"/>
    <frame tileid="137" duration="150"/>
    <frame tileid="147" duration="150"/>
    <frame tileid="157" duration="150"/>
    <frame tileid="407" duration="150"/>
    <frame tileid="417" duration="150"/>
    <frame tileid="427" duration="150"/>
    <frame tileid="437" duration="150"/>
    <frame tileid="687" duration="150"/>
    <frame tileid="697" duration="150"/>
    <frame tileid="707" duration="150"/>
    <frame tileid="717" duration="150"/>
   </animation>
  </tile>
  <tile id="161">
   <animation>
    <frame tileid="161" duration="150"/>
    <frame tileid="171" duration="150"/>
    <frame tileid="181" duration="150"/>
    <frame tileid="191" duration="150"/>
    <frame tileid="441" duration="150"/>
    <frame tileid="451" duration="150"/>
    <frame tileid="461" duration="150"/>
    <frame tileid="471" duration="150"/>
    <frame tileid="721" duration="150"/>
    <frame tileid="731" duration="150"/>
    <frame tileid="741" duration="150"/>
    <frame tileid="751" duration="150"/>
   </animation>
  </tile>
  <tile id="162">
   <animation>
    <frame tileid="162" duration="150"/>
    <frame tileid="172" duration="150"/>
    <frame tileid="182" duration="150"/>
    <frame tileid="192" duration="150"/>
    <frame tileid="442" duration="150"/>
    <frame tileid="452" duration="150"/>
    <frame tileid="462" duration="150"/>
    <frame tileid="472" duration="150"/>
    <frame tileid="722" duration="150"/>
    <frame tileid="732" duration="150"/>
    <frame tileid="742" duration="150"/>
    <frame tileid="752" duration="150"/>
   </animation>
  </tile>
  <tile id="163">
   <animation>
    <frame tileid="163" duration="150"/>
    <frame tileid="173" duration="150"/>
    <frame tileid="183" duration="150"/>
    <frame tileid="193" duration="150"/>
    <frame tileid="443" duration="150"/>
    <frame tileid="453" duration="150"/>
    <frame tileid="463" duration="150"/>
    <frame tileid="473" duration="150"/>
    <frame tileid="723" duration="150"/>
    <frame tileid="733" duration="150"/>
    <frame tileid="743" duration="150"/>
    <frame tileid="753" duration="150"/>
   </animation>
  </tile>
  <tile id="164">
   <animation>
    <frame tileid="164" duration="150"/>
    <frame tileid="174" duration="150"/>
    <frame tileid="184" duration="150"/>
    <frame tileid="194" duration="150"/>
    <frame tileid="444" duration="150"/>
    <frame tileid="454" duration="150"/>
    <frame tileid="464" duration="150"/>
    <frame tileid="474" duration="150"/>
    <frame tileid="724" duration="150"/>
    <frame tileid="734" duration="150"/>
    <frame tileid="744" duration="150"/>
    <frame tileid="754" duration="150"/>
   </animation>
  </tile>
  <tile id="165">
   <animation>
    <frame tileid="165" duration="150"/>
    <frame tileid="175" duration="150"/>
    <frame tileid="185" duration="150"/>
    <frame tileid="195" duration="150"/>
    <frame tileid="445" duration="150"/>
    <frame tileid="455" duration="150"/>
    <frame tileid="465" duration="150"/>
    <frame tileid="475" duration="150"/>
    <frame tileid="725" duration="150"/>
    <frame tileid="735" duration="150"/>
    <frame tileid="745" duration="150"/>
    <frame tileid="755" duration="150"/>
   </animation>
  </tile>
  <tile id="166">
   <animation>
    <frame tileid="166" duration="150"/>
    <frame tileid="176" duration="150"/>
    <frame tileid="186" duration="150"/>
    <frame tileid="196" duration="150"/>
    <frame tileid="446" duration="150"/>
    <frame tileid="456" duration="150"/>
    <frame tileid="466" duration="150"/>
    <frame tileid="476" duration="150"/>
    <frame tileid="726" duration="150"/>
    <frame tileid="736" duration="150"/>
    <frame tileid="746" duration="150"/>
    <frame tileid="756" duration="150"/>
   </animation>
  </tile>
  <tile id="167">
   <animation>
    <frame tileid="167" duration="150"/>
    <frame tileid="177" duration="150"/>
    <frame tileid="187" duration="150"/>
    <frame tileid="197" duration="150"/>
    <frame tileid="447" duration="150"/>
    <frame tileid="457" duration="150"/>
    <frame tileid="467" duration="150"/>
    <frame tileid="477" duration="150"/>
    <frame tileid="727" duration="150"/>
    <frame tileid="737" duration="150"/>
    <frame tileid="747" duration="150"/>
    <frame tileid="757" duration="150"/>
   </animation>
  </tile>
  <tile id="168">
   <animation>
    <frame tileid="168" duration="150"/>
    <frame tileid="178" duration="150"/>
    <frame tileid="188" duration="150"/>
    <frame tileid="198" duration="150"/>
    <frame tileid="448" duration="150"/>
    <frame tileid="458" duration="150"/>
    <frame tileid="468" duration="150"/>
    <frame tileid="478" duration="150"/>
    <frame tileid="728" duration="150"/>
    <frame tileid="738" duration="150"/>
    <frame tileid="748" duration="150"/>
    <frame tileid="758" duration="150"/>
   </animation>
  </tile>
  <tile id="169">
   <animation>
    <frame tileid="169" duration="150"/>
    <frame tileid="179" duration="150"/>
    <frame tileid="189" duration="150"/>
    <frame tileid="199" duration="150"/>
    <frame tileid="449" duration="150"/>
    <frame tileid="459" duration="150"/>
    <frame tileid="469" duration="150"/>
    <frame tileid="479" duration="150"/>
    <frame tileid="729" duration="150"/>
    <frame tileid="739" duration="150"/>
    <frame tileid="749" duration="150"/>
    <frame tileid="759" duration="150"/>
   </animation>
  </tile>
  <tile id="201">
   <animation>
    <frame tileid="201" duration="150"/>
    <frame tileid="211" duration="150"/>
    <frame tileid="221" duration="150"/>
    <frame tileid="231" duration="150"/>
    <frame tileid="481" duration="150"/>
    <frame tileid="491" duration="150"/>
    <frame tileid="501" duration="150"/>
    <frame tileid="511" duration="150"/>
    <frame tileid="761" duration="150"/>
    <frame tileid="771" duration="150"/>
    <frame tileid="781" duration="150"/>
    <frame tileid="791" duration="150"/>
   </animation>
  </tile>
  <tile id="202">
   <animation>
    <frame tileid="202" duration="150"/>
    <frame tileid="212" duration="150"/>
    <frame tileid="222" duration="150"/>
    <frame tileid="232" duration="150"/>
    <frame tileid="482" duration="150"/>
    <frame tileid="492" duration="150"/>
    <frame tileid="502" duration="150"/>
    <frame tileid="512" duration="150"/>
    <frame tileid="762" duration="150"/>
    <frame tileid="772" duration="150"/>
    <frame tileid="782" duration="150"/>
    <frame tileid="792" duration="150"/>
   </animation>
  </tile>
  <tile id="203">
   <animation>
    <frame tileid="203" duration="150"/>
    <frame tileid="213" duration="150"/>
    <frame tileid="223" duration="150"/>
    <frame tileid="233" duration="150"/>
    <frame tileid="483" duration="150"/>
    <frame tileid="493" duration="150"/>
    <frame tileid="503" duration="150"/>
    <frame tileid="513" duration="150"/>
    <frame tileid="763" duration="150"/>
    <frame tileid="773" duration="150"/>
    <frame tileid="783" duration="150"/>
    <frame tileid="793" duration="150"/>
   </animation>
  </tile>
  <tile id="204">
   <animation>
    <frame tileid="204" duration="150"/>
    <frame tileid="214" duration="150"/>
    <frame tileid="224" duration="150"/>
    <frame tileid="234" duration="150"/>
    <frame tileid="484" duration="150"/>
    <frame tileid="494" duration="150"/>
    <frame tileid="504" duration="150"/>
    <frame tileid="514" duration="150"/>
    <frame tileid="764" duration="150"/>
    <frame tileid="774" duration="150"/>
    <frame tileid="784" duration="150"/>
    <frame tileid="794" duration="150"/>
   </animation>
  </tile>
  <tile id="205">
   <animation>
    <frame tileid="205" duration="150"/>
    <frame tileid="215" duration="150"/>
    <frame tileid="225" duration="150"/>
    <frame tileid="235" duration="150"/>
    <frame tileid="485" duration="150"/>
    <frame tileid="495" duration="150"/>
    <frame tileid="505" duration="150"/>
    <frame tileid="515" duration="150"/>
    <frame tileid="765" duration="150"/>
    <frame tileid="775" duration="150"/>
    <frame tileid="785" duration="150"/>
    <frame tileid="795" duration="150"/>
   </animation>
  </tile>
  <tile id="206">
   <animation>
    <frame tileid="206" duration="150"/>
    <frame tileid="216" duration="150"/>
    <frame tileid="226" duration="150"/>
    <frame tileid="236" duration="150"/>
    <frame tileid="486" duration="150"/>
    <frame tileid="496" duration="150"/>
    <frame tileid="506" duration="150"/>
    <frame tileid="516" duration="150"/>
    <frame tileid="766" duration="150"/>
    <frame tileid="776" duration="150"/>
    <frame tileid="786" duration="150"/>
    <frame tileid="796" duration="150"/>
   </animation>
  </tile>
  <tile id="207">
   <animation>
    <frame tileid="207" duration="150"/>
    <frame tileid="217" duration="150"/>
    <frame tileid="227" duration="150"/>
    <frame tileid="237" duration="150"/>
    <frame tileid="487" duration="150"/>
    <frame tileid="497" duration="150"/>
    <frame tileid="507" duration="150"/>
    <frame tileid="517" duration="150"/>
    <frame tileid="767" duration="150"/>
    <frame tileid="777" duration="150"/>
    <frame tileid="787" duration="150"/>
    <frame tileid="797" duration="150"/>
   </animation>
  </tile>
  <tile id="208">
   <animation>
    <frame tileid="208" duration="150"/>
    <frame tileid="218" duration="150"/>
    <frame tileid="228" duration="150"/>
    <frame tileid="238" duration="150"/>
    <frame tileid="488" duration="150"/>
    <frame tileid="498" duration="150"/>
    <frame tileid="508" duration="150"/>
    <frame tileid="518" duration="150"/>
    <frame tileid="768" duration="150"/>
    <frame tileid="778" duration="150"/>
    <frame tileid="788" duration="150"/>
    <frame tileid="798" duration="150"/>
   </animation>
  </tile>
  <tile id="209">
   <animation>
    <frame tileid="209" duration="150"/>
    <frame tileid="219" duration="150"/>
    <frame tileid="229" duration="150"/>
    <frame tileid="239" duration="150"/>
    <frame tileid="489" duration="150"/>
    <frame tileid="499" duration="150"/>
    <frame tileid="509" duration="150"/>
    <frame tileid="519" duration="150"/>
    <frame tileid="769" duration="150"/>
    <frame tileid="779" duration="150"/>
    <frame tileid="789" duration="150"/>
    <frame tileid="799" duration="150"/>
   </animation>
  </tile>
  <tile id="242">
   <animation>
    <frame tileid="242" duration="150"/>
    <frame tileid="252" duration="150"/>
    <frame tileid="262" duration="150"/>
    <frame tileid="272" duration="150"/>
    <frame tileid="522" duration="150"/>
    <frame tileid="532" duration="150"/>
    <frame tileid="542" duration="150"/>
    <frame tileid="552" duration="150"/>
    <frame tileid="802" duration="150"/>
    <frame tileid="812" duration="150"/>
    <frame tileid="822" duration="150"/>
    <frame tileid="832" duration="150"/>
   </animation>
  </tile>
  <tile id="243">
   <animation>
    <frame tileid="243" duration="150"/>
    <frame tileid="253" duration="150"/>
    <frame tileid="263" duration="150"/>
    <frame tileid="273" duration="150"/>
    <frame tileid="523" duration="150"/>
    <frame tileid="533" duration="150"/>
    <frame tileid="543" duration="150"/>
    <frame tileid="553" duration="150"/>
    <frame tileid="803" duration="150"/>
    <frame tileid="813" duration="150"/>
    <frame tileid="823" duration="150"/>
    <frame tileid="833" duration="150"/>
   </animation>
  </tile>
  <tile id="244">
   <animation>
    <frame tileid="244" duration="150"/>
    <frame tileid="254" duration="150"/>
    <frame tileid="264" duration="150"/>
    <frame tileid="274" duration="150"/>
    <frame tileid="524" duration="150"/>
    <frame tileid="534" duration="150"/>
    <frame tileid="544" duration="150"/>
    <frame tileid="554" duration="150"/>
    <frame tileid="804" duration="150"/>
    <frame tileid="814" duration="150"/>
    <frame tileid="824" duration="150"/>
    <frame tileid="834" duration="150"/>
   </animation>
  </tile>
  <tile id="245">
   <animation>
    <frame tileid="245" duration="150"/>
    <frame tileid="255" duration="150"/>
    <frame tileid="265" duration="150"/>
    <frame tileid="275" duration="150"/>
    <frame tileid="525" duration="150"/>
    <frame tileid="535" duration="150"/>
    <frame tileid="545" duration="150"/>
    <frame tileid="555" duration="150"/>
    <frame tileid="805" duration="150"/>
    <frame tileid="815" duration="150"/>
    <frame tileid="825" duration="150"/>
    <frame tileid="835" duration="150"/>
   </animation>
  </tile>
  <tile id="246">
   <animation>
    <frame tileid="246" duration="150"/>
    <frame tileid="256" duration="150"/>
    <frame tileid="266" duration="150"/>
    <frame tileid="276" duration="150"/>
    <frame tileid="526" duration="150"/>
    <frame tileid="536" duration="150"/>
    <frame tileid="546" duration="150"/>
    <frame tileid="556" duration="150"/>
    <frame tileid="806" duration="150"/>
    <frame tileid="816" duration="150"/>
    <frame tileid="826" duration="150"/>
    <frame tileid="836" duration="150"/>
   </animation>
  </tile>
  <tile id="247">
   <animation>
    <frame tileid="247" duration="150"/>
    <frame tileid="257" duration="150"/>
    <frame tileid="267" duration="150"/>
    <frame tileid="277" duration="150"/>
    <frame tileid="527" duration="150"/>
    <frame tileid="537" duration="150"/>
    <frame tileid="547" duration="150"/>
    <frame tileid="557" duration="150"/>
    <frame tileid="807" duration="150"/>
    <frame tileid="817" duration="150"/>
    <frame tileid="827" duration="150"/>
    <frame tileid="837" duration="150"/>
   </animation>
  </tile>
  <tile id="248">
   <animation>
    <frame tileid="248" duration="150"/>
    <frame tileid="258" duration="150"/>
    <frame tileid="268" duration="150"/>
    <frame tileid="278" duration="150"/>
    <frame tileid="528" duration="150"/>
    <frame tileid="538" duration="150"/>
    <frame tileid="548" duration="150"/>
    <frame tileid="558" duration="150"/>
    <frame tileid="808" duration="150"/>
    <frame tileid="818" duration="150"/>
    <frame tileid="828" duration="150"/>
    <frame tileid="838" duration="150"/>
   </animation>
  </tile>
 </tileset>
 <tileset firstgid="8425" name="Boat1" tilewidth="16" tileheight="16" tilecount="1056" columns="44">
  <image source="Boat1.png" width="704" height="384"/>
  <tile id="8">
   <animation>
    <frame tileid="8" duration="150"/>
    <frame tileid="19" duration="150"/>
    <frame tileid="30" duration="150"/>
    <frame tileid="41" duration="150"/>
    <frame tileid="360" duration="150"/>
    <frame tileid="371" duration="150"/>
    <frame tileid="382" duration="150"/>
    <frame tileid="393" duration="150"/>
    <frame tileid="712" duration="150"/>
    <frame tileid="723" duration="150"/>
    <frame tileid="734" duration="150"/>
    <frame tileid="745" duration="150"/>
   </animation>
  </tile>
  <tile id="50">
   <animation>
    <frame tileid="50" duration="150"/>
    <frame tileid="61" duration="150"/>
    <frame tileid="72" duration="150"/>
    <frame tileid="83" duration="150"/>
    <frame tileid="402" duration="150"/>
    <frame tileid="413" duration="150"/>
    <frame tileid="424" duration="150"/>
    <frame tileid="435" duration="150"/>
    <frame tileid="754" duration="150"/>
    <frame tileid="765" duration="150"/>
    <frame tileid="776" duration="150"/>
    <frame tileid="787" duration="150"/>
   </animation>
  </tile>
  <tile id="51">
   <animation>
    <frame tileid="51" duration="150"/>
    <frame tileid="62" duration="150"/>
    <frame tileid="73" duration="150"/>
    <frame tileid="84" duration="150"/>
    <frame tileid="403" duration="150"/>
    <frame tileid="414" duration="150"/>
    <frame tileid="425" duration="150"/>
    <frame tileid="436" duration="150"/>
    <frame tileid="755" duration="150"/>
    <frame tileid="766" duration="150"/>
    <frame tileid="777" duration="150"/>
    <frame tileid="788" duration="150"/>
   </animation>
  </tile>
  <tile id="52">
   <animation>
    <frame tileid="52" duration="150"/>
    <frame tileid="63" duration="150"/>
    <frame tileid="74" duration="150"/>
    <frame tileid="85" duration="150"/>
    <frame tileid="404" duration="150"/>
    <frame tileid="415" duration="150"/>
    <frame tileid="426" duration="150"/>
    <frame tileid="437" duration="150"/>
    <frame tileid="756" duration="150"/>
    <frame tileid="767" duration="150"/>
    <frame tileid="778" duration="150"/>
    <frame tileid="789" duration="150"/>
   </animation>
  </tile>
  <tile id="92">
   <animation>
    <frame tileid="92" duration="150"/>
    <frame tileid="103" duration="150"/>
    <frame tileid="114" duration="150"/>
    <frame tileid="125" duration="150"/>
    <frame tileid="444" duration="150"/>
    <frame tileid="455" duration="150"/>
    <frame tileid="466" duration="150"/>
    <frame tileid="477" duration="150"/>
    <frame tileid="796" duration="150"/>
    <frame tileid="807" duration="150"/>
    <frame tileid="818" duration="150"/>
    <frame tileid="829" duration="150"/>
   </animation>
  </tile>
  <tile id="93">
   <animation>
    <frame tileid="93" duration="150"/>
    <frame tileid="104" duration="150"/>
    <frame tileid="115" duration="150"/>
    <frame tileid="126" duration="150"/>
    <frame tileid="445" duration="150"/>
    <frame tileid="456" duration="150"/>
    <frame tileid="467" duration="150"/>
    <frame tileid="478" duration="150"/>
    <frame tileid="797" duration="150"/>
    <frame tileid="808" duration="150"/>
    <frame tileid="819" duration="150"/>
    <frame tileid="830" duration="150"/>
   </animation>
  </tile>
  <tile id="94">
   <animation>
    <frame tileid="94" duration="150"/>
    <frame tileid="105" duration="150"/>
    <frame tileid="116" duration="150"/>
    <frame tileid="127" duration="150"/>
    <frame tileid="446" duration="150"/>
    <frame tileid="457" duration="150"/>
    <frame tileid="468" duration="150"/>
    <frame tileid="479" duration="150"/>
    <frame tileid="798" duration="150"/>
    <frame tileid="809" duration="150"/>
    <frame tileid="820" duration="150"/>
    <frame tileid="831" duration="150"/>
   </animation>
  </tile>
  <tile id="95">
   <animation>
    <frame tileid="95" duration="150"/>
    <frame tileid="106" duration="150"/>
    <frame tileid="117" duration="150"/>
    <frame tileid="128" duration="150"/>
    <frame tileid="447" duration="150"/>
    <frame tileid="458" duration="150"/>
    <frame tileid="469" duration="150"/>
    <frame tileid="480" duration="150"/>
    <frame tileid="799" duration="150"/>
    <frame tileid="810" duration="150"/>
    <frame tileid="821" duration="150"/>
    <frame tileid="832" duration="150"/>
   </animation>
  </tile>
  <tile id="96">
   <animation>
    <frame tileid="96" duration="150"/>
    <frame tileid="107" duration="150"/>
    <frame tileid="118" duration="150"/>
    <frame tileid="129" duration="150"/>
    <frame tileid="448" duration="150"/>
    <frame tileid="459" duration="150"/>
    <frame tileid="470" duration="150"/>
    <frame tileid="481" duration="150"/>
    <frame tileid="800" duration="150"/>
    <frame tileid="811" duration="150"/>
    <frame tileid="822" duration="150"/>
    <frame tileid="833" duration="150"/>
   </animation>
  </tile>
  <tile id="97">
   <animation>
    <frame tileid="97" duration="150"/>
    <frame tileid="108" duration="150"/>
    <frame tileid="119" duration="150"/>
    <frame tileid="130" duration="150"/>
    <frame tileid="449" duration="150"/>
    <frame tileid="460" duration="150"/>
    <frame tileid="471" duration="150"/>
    <frame tileid="482" duration="150"/>
    <frame tileid="801" duration="150"/>
    <frame tileid="812" duration="150"/>
    <frame tileid="823" duration="150"/>
    <frame tileid="834" duration="150"/>
   </animation>
  </tile>
  <tile id="134">
   <animation>
    <frame tileid="134" duration="150"/>
    <frame tileid="145" duration="150"/>
    <frame tileid="156" duration="150"/>
    <frame tileid="167" duration="150"/>
    <frame tileid="486" duration="150"/>
    <frame tileid="497" duration="150"/>
    <frame tileid="508" duration="150"/>
    <frame tileid="519" duration="150"/>
    <frame tileid="838" duration="150"/>
    <frame tileid="849" duration="150"/>
    <frame tileid="860" duration="150"/>
    <frame tileid="871" duration="150"/>
   </animation>
  </tile>
  <tile id="135">
   <animation>
    <frame tileid="135" duration="150"/>
    <frame tileid="146" duration="150"/>
    <frame tileid="157" duration="150"/>
    <frame tileid="168" duration="150"/>
    <frame tileid="487" duration="150"/>
    <frame tileid="498" duration="150"/>
    <frame tileid="509" duration="150"/>
    <frame tileid="520" duration="150"/>
    <frame tileid="839" duration="150"/>
    <frame tileid="850" duration="150"/>
    <frame tileid="861" duration="150"/>
    <frame tileid="872" duration="150"/>
   </animation>
  </tile>
  <tile id="136">
   <animation>
    <frame tileid="136" duration="150"/>
    <frame tileid="147" duration="150"/>
    <frame tileid="158" duration="150"/>
    <frame tileid="169" duration="150"/>
    <frame tileid="488" duration="150"/>
    <frame tileid="499" duration="150"/>
    <frame tileid="510" duration="150"/>
    <frame tileid="521" duration="150"/>
    <frame tileid="840" duration="150"/>
    <frame tileid="851" duration="150"/>
    <frame tileid="862" duration="150"/>
    <frame tileid="873" duration="150"/>
   </animation>
  </tile>
  <tile id="137">
   <animation>
    <frame tileid="137" duration="150"/>
    <frame tileid="148" duration="150"/>
    <frame tileid="159" duration="150"/>
    <frame tileid="170" duration="150"/>
    <frame tileid="489" duration="150"/>
    <frame tileid="500" duration="150"/>
    <frame tileid="511" duration="150"/>
    <frame tileid="522" duration="150"/>
    <frame tileid="841" duration="150"/>
    <frame tileid="852" duration="150"/>
    <frame tileid="863" duration="150"/>
    <frame tileid="874" duration="150"/>
   </animation>
  </tile>
  <tile id="138">
   <animation>
    <frame tileid="138" duration="150"/>
    <frame tileid="149" duration="150"/>
    <frame tileid="160" duration="150"/>
    <frame tileid="171" duration="150"/>
    <frame tileid="490" duration="150"/>
    <frame tileid="501" duration="150"/>
    <frame tileid="512" duration="150"/>
    <frame tileid="523" duration="150"/>
    <frame tileid="842" duration="150"/>
    <frame tileid="853" duration="150"/>
    <frame tileid="864" duration="150"/>
    <frame tileid="875" duration="150"/>
   </animation>
  </tile>
  <tile id="139">
   <animation>
    <frame tileid="139" duration="150"/>
    <frame tileid="150" duration="150"/>
    <frame tileid="161" duration="150"/>
    <frame tileid="172" duration="150"/>
    <frame tileid="491" duration="150"/>
    <frame tileid="502" duration="150"/>
    <frame tileid="513" duration="150"/>
    <frame tileid="524" duration="150"/>
    <frame tileid="843" duration="150"/>
    <frame tileid="854" duration="150"/>
    <frame tileid="865" duration="150"/>
    <frame tileid="876" duration="150"/>
   </animation>
  </tile>
  <tile id="140">
   <animation>
    <frame tileid="140" duration="150"/>
    <frame tileid="151" duration="150"/>
    <frame tileid="162" duration="150"/>
    <frame tileid="173" duration="150"/>
    <frame tileid="492" duration="150"/>
    <frame tileid="503" duration="150"/>
    <frame tileid="514" duration="150"/>
    <frame tileid="525" duration="150"/>
    <frame tileid="844" duration="150"/>
    <frame tileid="855" duration="150"/>
    <frame tileid="866" duration="150"/>
    <frame tileid="877" duration="150"/>
   </animation>
  </tile>
  <tile id="141">
   <animation>
    <frame tileid="141" duration="150"/>
    <frame tileid="152" duration="150"/>
    <frame tileid="163" duration="150"/>
    <frame tileid="174" duration="150"/>
    <frame tileid="493" duration="150"/>
    <frame tileid="504" duration="150"/>
    <frame tileid="515" duration="150"/>
    <frame tileid="526" duration="150"/>
    <frame tileid="845" duration="150"/>
    <frame tileid="856" duration="150"/>
    <frame tileid="867" duration="150"/>
    <frame tileid="878" duration="150"/>
   </animation>
  </tile>
  <tile id="177">
   <animation>
    <frame tileid="177" duration="150"/>
    <frame tileid="188" duration="150"/>
    <frame tileid="199" duration="150"/>
    <frame tileid="210" duration="150"/>
    <frame tileid="529" duration="150"/>
    <frame tileid="540" duration="150"/>
    <frame tileid="551" duration="150"/>
    <frame tileid="562" duration="150"/>
    <frame tileid="881" duration="150"/>
    <frame tileid="892" duration="150"/>
    <frame tileid="903" duration="150"/>
    <frame tileid="914" duration="150"/>
   </animation>
  </tile>
  <tile id="178">
   <animation>
    <frame tileid="178" duration="150"/>
    <frame tileid="189" duration="150"/>
    <frame tileid="200" duration="150"/>
    <frame tileid="211" duration="150"/>
    <frame tileid="530" duration="150"/>
    <frame tileid="541" duration="150"/>
    <frame tileid="552" duration="150"/>
    <frame tileid="563" duration="150"/>
    <frame tileid="882" duration="150"/>
    <frame tileid="893" duration="150"/>
    <frame tileid="904" duration="150"/>
    <frame tileid="915" duration="150"/>
   </animation>
  </tile>
  <tile id="179">
   <animation>
    <frame tileid="179" duration="150"/>
    <frame tileid="190" duration="150"/>
    <frame tileid="201" duration="150"/>
    <frame tileid="212" duration="150"/>
    <frame tileid="531" duration="150"/>
    <frame tileid="542" duration="150"/>
    <frame tileid="553" duration="150"/>
    <frame tileid="564" duration="150"/>
    <frame tileid="883" duration="150"/>
    <frame tileid="894" duration="150"/>
    <frame tileid="905" duration="150"/>
    <frame tileid="916" duration="150"/>
   </animation>
  </tile>
  <tile id="180">
   <animation>
    <frame tileid="180" duration="150"/>
    <frame tileid="191" duration="150"/>
    <frame tileid="202" duration="150"/>
    <frame tileid="213" duration="150"/>
    <frame tileid="532" duration="150"/>
    <frame tileid="543" duration="150"/>
    <frame tileid="554" duration="150"/>
    <frame tileid="565" duration="150"/>
    <frame tileid="884" duration="150"/>
    <frame tileid="895" duration="150"/>
    <frame tileid="906" duration="150"/>
    <frame tileid="917" duration="150"/>
   </animation>
  </tile>
  <tile id="181">
   <animation>
    <frame tileid="181" duration="150"/>
    <frame tileid="192" duration="150"/>
    <frame tileid="203" duration="150"/>
    <frame tileid="214" duration="150"/>
    <frame tileid="533" duration="150"/>
    <frame tileid="544" duration="150"/>
    <frame tileid="555" duration="150"/>
    <frame tileid="566" duration="150"/>
    <frame tileid="885" duration="150"/>
    <frame tileid="896" duration="150"/>
    <frame tileid="907" duration="150"/>
    <frame tileid="918" duration="150"/>
   </animation>
  </tile>
  <tile id="182">
   <animation>
    <frame tileid="182" duration="150"/>
    <frame tileid="193" duration="150"/>
    <frame tileid="204" duration="150"/>
    <frame tileid="215" duration="150"/>
    <frame tileid="534" duration="150"/>
    <frame tileid="545" duration="150"/>
    <frame tileid="556" duration="150"/>
    <frame tileid="567" duration="150"/>
    <frame tileid="886" duration="150"/>
    <frame tileid="897" duration="150"/>
    <frame tileid="908" duration="150"/>
    <frame tileid="919" duration="150"/>
   </animation>
  </tile>
  <tile id="183">
   <animation>
    <frame tileid="183" duration="150"/>
    <frame tileid="194" duration="150"/>
    <frame tileid="205" duration="150"/>
    <frame tileid="216" duration="150"/>
    <frame tileid="535" duration="150"/>
    <frame tileid="546" duration="150"/>
    <frame tileid="557" duration="150"/>
    <frame tileid="568" duration="150"/>
    <frame tileid="887" duration="150"/>
    <frame tileid="898" duration="150"/>
    <frame tileid="909" duration="150"/>
    <frame tileid="920" duration="150"/>
   </animation>
  </tile>
  <tile id="184">
   <animation>
    <frame tileid="184" duration="150"/>
    <frame tileid="195" duration="150"/>
    <frame tileid="206" duration="150"/>
    <frame tileid="217" duration="150"/>
    <frame tileid="536" duration="150"/>
    <frame tileid="547" duration="150"/>
    <frame tileid="558" duration="150"/>
    <frame tileid="569" duration="150"/>
    <frame tileid="888" duration="150"/>
    <frame tileid="899" duration="150"/>
    <frame tileid="910" duration="150"/>
    <frame tileid="921" duration="150"/>
   </animation>
  </tile>
  <tile id="185">
   <animation>
    <frame tileid="185" duration="150"/>
    <frame tileid="196" duration="150"/>
    <frame tileid="207" duration="150"/>
    <frame tileid="218" duration="150"/>
    <frame tileid="537" duration="150"/>
    <frame tileid="548" duration="150"/>
    <frame tileid="559" duration="150"/>
    <frame tileid="570" duration="150"/>
    <frame tileid="889" duration="150"/>
    <frame tileid="900" duration="150"/>
    <frame tileid="911" duration="150"/>
    <frame tileid="922" duration="150"/>
   </animation>
  </tile>
  <tile id="186">
   <animation>
    <frame tileid="186" duration="150"/>
    <frame tileid="197" duration="150"/>
    <frame tileid="208" duration="150"/>
    <frame tileid="219" duration="150"/>
    <frame tileid="538" duration="150"/>
    <frame tileid="549" duration="150"/>
    <frame tileid="560" duration="150"/>
    <frame tileid="571" duration="150"/>
    <frame tileid="890" duration="150"/>
    <frame tileid="901" duration="150"/>
    <frame tileid="912" duration="150"/>
    <frame tileid="923" duration="150"/>
   </animation>
  </tile>
  <tile id="221">
   <animation>
    <frame tileid="221" duration="150"/>
    <frame tileid="232" duration="150"/>
    <frame tileid="243" duration="150"/>
    <frame tileid="254" duration="150"/>
    <frame tileid="573" duration="150"/>
    <frame tileid="584" duration="150"/>
    <frame tileid="595" duration="150"/>
    <frame tileid="606" duration="150"/>
    <frame tileid="925" duration="150"/>
    <frame tileid="936" duration="150"/>
    <frame tileid="947" duration="150"/>
    <frame tileid="958" duration="150"/>
   </animation>
  </tile>
  <tile id="222">
   <animation>
    <frame tileid="222" duration="150"/>
    <frame tileid="233" duration="150"/>
    <frame tileid="244" duration="150"/>
    <frame tileid="255" duration="150"/>
    <frame tileid="574" duration="150"/>
    <frame tileid="585" duration="150"/>
    <frame tileid="596" duration="150"/>
    <frame tileid="607" duration="150"/>
    <frame tileid="926" duration="150"/>
    <frame tileid="937" duration="150"/>
    <frame tileid="948" duration="150"/>
    <frame tileid="959" duration="150"/>
   </animation>
  </tile>
  <tile id="223">
   <animation>
    <frame tileid="223" duration="150"/>
    <frame tileid="234" duration="150"/>
    <frame tileid="245" duration="150"/>
    <frame tileid="256" duration="150"/>
    <frame tileid="575" duration="150"/>
    <frame tileid="586" duration="150"/>
    <frame tileid="597" duration="150"/>
    <frame tileid="608" duration="150"/>
    <frame tileid="927" duration="150"/>
    <frame tileid="938" duration="150"/>
    <frame tileid="949" duration="150"/>
    <frame tileid="960" duration="150"/>
   </animation>
  </tile>
  <tile id="224">
   <animation>
    <frame tileid="224" duration="150"/>
    <frame tileid="235" duration="150"/>
    <frame tileid="246" duration="150"/>
    <frame tileid="257" duration="150"/>
    <frame tileid="576" duration="150"/>
    <frame tileid="587" duration="150"/>
    <frame tileid="598" duration="150"/>
    <frame tileid="609" duration="150"/>
    <frame tileid="928" duration="150"/>
    <frame tileid="939" duration="150"/>
    <frame tileid="950" duration="150"/>
    <frame tileid="961" duration="150"/>
   </animation>
  </tile>
  <tile id="225">
   <animation>
    <frame tileid="225" duration="150"/>
    <frame tileid="236" duration="150"/>
    <frame tileid="247" duration="150"/>
    <frame tileid="258" duration="150"/>
    <frame tileid="577" duration="150"/>
    <frame tileid="588" duration="150"/>
    <frame tileid="599" duration="150"/>
    <frame tileid="610" duration="150"/>
    <frame tileid="929" duration="150"/>
    <frame tileid="940" duration="150"/>
    <frame tileid="951" duration="150"/>
    <frame tileid="962" duration="150"/>
   </animation>
  </tile>
  <tile id="226">
   <animation>
    <frame tileid="226" duration="150"/>
    <frame tileid="237" duration="150"/>
    <frame tileid="248" duration="150"/>
    <frame tileid="259" duration="150"/>
    <frame tileid="578" duration="150"/>
    <frame tileid="589" duration="150"/>
    <frame tileid="600" duration="150"/>
    <frame tileid="611" duration="150"/>
    <frame tileid="930" duration="150"/>
    <frame tileid="941" duration="150"/>
    <frame tileid="952" duration="150"/>
    <frame tileid="963" duration="150"/>
   </animation>
  </tile>
  <tile id="227">
   <animation>
    <frame tileid="227" duration="150"/>
    <frame tileid="238" duration="150"/>
    <frame tileid="249" duration="150"/>
    <frame tileid="260" duration="150"/>
    <frame tileid="579" duration="150"/>
    <frame tileid="590" duration="150"/>
    <frame tileid="601" duration="150"/>
    <frame tileid="612" duration="150"/>
    <frame tileid="931" duration="150"/>
    <frame tileid="942" duration="150"/>
    <frame tileid="953" duration="150"/>
    <frame tileid="964" duration="150"/>
   </animation>
  </tile>
  <tile id="228">
   <animation>
    <frame tileid="228" duration="150"/>
    <frame tileid="239" duration="150"/>
    <frame tileid="250" duration="150"/>
    <frame tileid="261" duration="150"/>
    <frame tileid="580" duration="150"/>
    <frame tileid="591" duration="150"/>
    <frame tileid="602" duration="150"/>
    <frame tileid="613" duration="150"/>
    <frame tileid="932" duration="150"/>
    <frame tileid="943" duration="150"/>
    <frame tileid="954" duration="150"/>
    <frame tileid="965" duration="150"/>
   </animation>
  </tile>
  <tile id="229">
   <animation>
    <frame tileid="229" duration="150"/>
    <frame tileid="240" duration="150"/>
    <frame tileid="251" duration="150"/>
    <frame tileid="262" duration="150"/>
    <frame tileid="581" duration="150"/>
    <frame tileid="592" duration="150"/>
    <frame tileid="603" duration="150"/>
    <frame tileid="614" duration="150"/>
    <frame tileid="933" duration="150"/>
    <frame tileid="944" duration="150"/>
    <frame tileid="955" duration="150"/>
    <frame tileid="966" duration="150"/>
   </animation>
  </tile>
  <tile id="230">
   <animation>
    <frame tileid="230" duration="150"/>
    <frame tileid="241" duration="150"/>
    <frame tileid="252" duration="150"/>
    <frame tileid="263" duration="150"/>
    <frame tileid="582" duration="150"/>
    <frame tileid="593" duration="150"/>
    <frame tileid="604" duration="150"/>
    <frame tileid="615" duration="150"/>
    <frame tileid="934" duration="150"/>
    <frame tileid="945" duration="150"/>
    <frame tileid="956" duration="150"/>
    <frame tileid="967" duration="150"/>
   </animation>
  </tile>
  <tile id="265">
   <animation>
    <frame tileid="265" duration="150"/>
    <frame tileid="276" duration="150"/>
    <frame tileid="287" duration="150"/>
    <frame tileid="298" duration="150"/>
    <frame tileid="617" duration="150"/>
    <frame tileid="628" duration="150"/>
    <frame tileid="639" duration="150"/>
    <frame tileid="650" duration="150"/>
    <frame tileid="969" duration="150"/>
    <frame tileid="980" duration="150"/>
    <frame tileid="991" duration="150"/>
    <frame tileid="1002" duration="150"/>
   </animation>
  </tile>
  <tile id="266">
   <animation>
    <frame tileid="266" duration="150"/>
    <frame tileid="277" duration="150"/>
    <frame tileid="288" duration="150"/>
    <frame tileid="299" duration="150"/>
    <frame tileid="618" duration="150"/>
    <frame tileid="629" duration="150"/>
    <frame tileid="640" duration="150"/>
    <frame tileid="651" duration="150"/>
    <frame tileid="970" duration="150"/>
    <frame tileid="981" duration="150"/>
    <frame tileid="992" duration="150"/>
    <frame tileid="1003" duration="150"/>
   </animation>
  </tile>
  <tile id="267">
   <animation>
    <frame tileid="267" duration="150"/>
    <frame tileid="278" duration="150"/>
    <frame tileid="289" duration="150"/>
    <frame tileid="300" duration="150"/>
    <frame tileid="619" duration="150"/>
    <frame tileid="630" duration="150"/>
    <frame tileid="641" duration="150"/>
    <frame tileid="652" duration="150"/>
    <frame tileid="971" duration="150"/>
    <frame tileid="982" duration="150"/>
    <frame tileid="993" duration="150"/>
    <frame tileid="1004" duration="150"/>
   </animation>
  </tile>
  <tile id="268">
   <animation>
    <frame tileid="268" duration="150"/>
    <frame tileid="279" duration="150"/>
    <frame tileid="290" duration="150"/>
    <frame tileid="301" duration="150"/>
    <frame tileid="620" duration="150"/>
    <frame tileid="631" duration="150"/>
    <frame tileid="642" duration="150"/>
    <frame tileid="653" duration="150"/>
    <frame tileid="972" duration="150"/>
    <frame tileid="983" duration="150"/>
    <frame tileid="994" duration="150"/>
    <frame tileid="1005" duration="150"/>
   </animation>
  </tile>
  <tile id="269">
   <animation>
    <frame tileid="269" duration="150"/>
    <frame tileid="280" duration="150"/>
    <frame tileid="291" duration="150"/>
    <frame tileid="302" duration="150"/>
    <frame tileid="621" duration="150"/>
    <frame tileid="632" duration="150"/>
    <frame tileid="643" duration="150"/>
    <frame tileid="654" duration="150"/>
    <frame tileid="973" duration="150"/>
    <frame tileid="984" duration="150"/>
    <frame tileid="995" duration="150"/>
    <frame tileid="1006" duration="150"/>
   </animation>
  </tile>
  <tile id="270">
   <animation>
    <frame tileid="270" duration="150"/>
    <frame tileid="281" duration="150"/>
    <frame tileid="292" duration="150"/>
    <frame tileid="303" duration="150"/>
    <frame tileid="622" duration="150"/>
    <frame tileid="633" duration="150"/>
    <frame tileid="644" duration="150"/>
    <frame tileid="655" duration="150"/>
    <frame tileid="974" duration="150"/>
    <frame tileid="985" duration="150"/>
    <frame tileid="996" duration="150"/>
    <frame tileid="1007" duration="150"/>
   </animation>
  </tile>
  <tile id="271">
   <animation>
    <frame tileid="271" duration="150"/>
    <frame tileid="282" duration="150"/>
    <frame tileid="293" duration="150"/>
    <frame tileid="304" duration="150"/>
    <frame tileid="623" duration="150"/>
    <frame tileid="634" duration="150"/>
    <frame tileid="645" duration="150"/>
    <frame tileid="656" duration="150"/>
    <frame tileid="975" duration="150"/>
    <frame tileid="986" duration="150"/>
    <frame tileid="997" duration="150"/>
    <frame tileid="1008" duration="150"/>
   </animation>
  </tile>
  <tile id="272">
   <animation>
    <frame tileid="272" duration="150"/>
    <frame tileid="283" duration="150"/>
    <frame tileid="294" duration="150"/>
    <frame tileid="305" duration="150"/>
    <frame tileid="624" duration="150"/>
    <frame tileid="635" duration="150"/>
    <frame tileid="646" duration="150"/>
    <frame tileid="657" duration="150"/>
    <frame tileid="976" duration="150"/>
    <frame tileid="987" duration="150"/>
    <frame tileid="998" duration="150"/>
    <frame tileid="1009" duration="150"/>
   </animation>
  </tile>
  <tile id="273">
   <animation>
    <frame tileid="273" duration="150"/>
    <frame tileid="284" duration="150"/>
    <frame tileid="295" duration="150"/>
    <frame tileid="306" duration="150"/>
    <frame tileid="625" duration="150"/>
    <frame tileid="636" duration="150"/>
    <frame tileid="647" duration="150"/>
    <frame tileid="658" duration="150"/>
    <frame tileid="977" duration="150"/>
    <frame tileid="988" duration="150"/>
    <frame tileid="999" duration="150"/>
    <frame tileid="1010" duration="150"/>
   </animation>
  </tile>
 </tileset>
 <tileset firstgid="9481" name="Boy_weaves" tilewidth="16" tileheight="16" tilecount="72" columns="24">
  <image source="Boy_weaves.png" width="384" height="48"/>
  <tile id="0">
   <animation>
    <frame tileid="0" duration="150"/>
    <frame tileid="2" duration="150"/>
    <frame tileid="4" duration="150"/>
    <frame tileid="6" duration="150"/>
    <frame tileid="8" duration="150"/>
    <frame tileid="10" duration="150"/>
    <frame tileid="12" duration="150"/>
    <frame tileid="14" duration="150"/>
    <frame tileid="16" duration="150"/>
    <frame tileid="18" duration="150"/>
    <frame tileid="20" duration="150"/>
    <frame tileid="22" duration="150"/>
   </animation>
  </tile>
  <tile id="1">
   <animation>
    <frame tileid="1" duration="150"/>
    <frame tileid="3" duration="150"/>
    <frame tileid="5" duration="150"/>
    <frame tileid="7" duration="150"/>
    <frame tileid="9" duration="150"/>
    <frame tileid="11" duration="150"/>
    <frame tileid="13" duration="150"/>
    <frame tileid="15" duration="150"/>
    <frame tileid="17" duration="150"/>
    <frame tileid="19" duration="150"/>
    <frame tileid="21" duration="150"/>
    <frame tileid="23" duration="150"/>
   </animation>
  </tile>
  <tile id="24">
   <animation>
    <frame tileid="24" duration="150"/>
    <frame tileid="26" duration="150"/>
    <frame tileid="28" duration="150"/>
    <frame tileid="30" duration="150"/>
    <frame tileid="32" duration="150"/>
    <frame tileid="34" duration="150"/>
    <frame tileid="36" duration="150"/>
    <frame tileid="38" duration="150"/>
    <frame tileid="40" duration="150"/>
    <frame tileid="42" duration="150"/>
    <frame tileid="44" duration="150"/>
    <frame tileid="46" duration="150"/>
   </animation>
  </tile>
  <tile id="25">
   <animation>
    <frame tileid="25" duration="150"/>
    <frame tileid="27" duration="150"/>
    <frame tileid="29" duration="150"/>
    <frame tileid="31" duration="150"/>
    <frame tileid="33" duration="150"/>
    <frame tileid="35" duration="150"/>
    <frame tileid="37" duration="150"/>
    <frame tileid="39" duration="150"/>
    <frame tileid="41" duration="150"/>
    <frame tileid="43" duration="150"/>
    <frame tileid="45" duration="150"/>
    <frame tileid="47" duration="150"/>
   </animation>
  </tile>
  <tile id="48">
   <animation>
    <frame tileid="48" duration="150"/>
    <frame tileid="50" duration="150"/>
    <frame tileid="52" duration="150"/>
    <frame tileid="54" duration="150"/>
    <frame tileid="56" duration="150"/>
    <frame tileid="58" duration="150"/>
    <frame tileid="60" duration="150"/>
    <frame tileid="62" duration="150"/>
    <frame tileid="64" duration="150"/>
    <frame tileid="66" duration="150"/>
    <frame tileid="68" duration="150"/>
    <frame tileid="70" duration="150"/>
   </animation>
  </tile>
  <tile id="49">
   <animation>
    <frame tileid="49" duration="150"/>
    <frame tileid="51" duration="150"/>
    <frame tileid="53" duration="150"/>
    <frame tileid="55" duration="150"/>
    <frame tileid="57" duration="150"/>
    <frame tileid="59" duration="150"/>
    <frame tileid="61" duration="150"/>
    <frame tileid="63" duration="150"/>
    <frame tileid="65" duration="150"/>
    <frame tileid="67" duration="150"/>
    <frame tileid="69" duration="150"/>
    <frame tileid="71" duration="150"/>
   </animation>
  </tile>
 </tileset>
 <tileset firstgid="9553" name="Fisherman_boat1_throws" tilewidth="16" tileheight="16" tilecount="300" columns="20">
  <image source="Fisherman_boat1_throws.png" width="320" height="240"/>
  <tile id="2">
   <animation>
    <frame tileid="2" duration="150"/>
    <frame tileid="7" duration="150"/>
    <frame tileid="12" duration="150"/>
    <frame tileid="17" duration="150"/>
    <frame tileid="102" duration="150"/>
    <frame tileid="107" duration="150"/>
    <frame tileid="112" duration="150"/>
    <frame tileid="117" duration="150"/>
    <frame tileid="202" duration="150"/>
    <frame tileid="207" duration="150"/>
    <frame tileid="212" duration="150"/>
    <frame tileid="217" duration="150"/>
   </animation>
  </tile>
  <tile id="3">
   <animation>
    <frame tileid="3" duration="150"/>
    <frame tileid="8" duration="150"/>
    <frame tileid="13" duration="150"/>
    <frame tileid="18" duration="150"/>
    <frame tileid="103" duration="150"/>
    <frame tileid="108" duration="150"/>
    <frame tileid="113" duration="150"/>
    <frame tileid="118" duration="150"/>
    <frame tileid="203" duration="150"/>
    <frame tileid="208" duration="150"/>
    <frame tileid="213" duration="150"/>
    <frame tileid="218" duration="150"/>
   </animation>
  </tile>
  <tile id="22">
   <animation>
    <frame tileid="22" duration="150"/>
    <frame tileid="27" duration="150"/>
    <frame tileid="32" duration="150"/>
    <frame tileid="37" duration="150"/>
    <frame tileid="122" duration="150"/>
    <frame tileid="127" duration="150"/>
    <frame tileid="132" duration="150"/>
    <frame tileid="137" duration="150"/>
    <frame tileid="222" duration="150"/>
    <frame tileid="227" duration="150"/>
    <frame tileid="232" duration="150"/>
    <frame tileid="237" duration="150"/>
   </animation>
  </tile>
  <tile id="23">
   <animation>
    <frame tileid="23" duration="150"/>
    <frame tileid="28" duration="150"/>
    <frame tileid="33" duration="150"/>
    <frame tileid="38" duration="150"/>
    <frame tileid="123" duration="150"/>
    <frame tileid="128" duration="150"/>
    <frame tileid="133" duration="150"/>
    <frame tileid="138" duration="150"/>
    <frame tileid="223" duration="150"/>
    <frame tileid="228" duration="150"/>
    <frame tileid="233" duration="150"/>
    <frame tileid="238" duration="150"/>
   </animation>
  </tile>
  <tile id="24">
   <animation>
    <frame tileid="24" duration="150"/>
    <frame tileid="29" duration="150"/>
    <frame tileid="34" duration="150"/>
    <frame tileid="39" duration="150"/>
    <frame tileid="124" duration="150"/>
    <frame tileid="129" duration="150"/>
    <frame tileid="134" duration="150"/>
    <frame tileid="139" duration="150"/>
    <frame tileid="224" duration="150"/>
    <frame tileid="229" duration="150"/>
    <frame tileid="234" duration="150"/>
    <frame tileid="239" duration="150"/>
   </animation>
  </tile>
  <tile id="41">
   <animation>
    <frame tileid="41" duration="150"/>
    <frame tileid="46" duration="150"/>
    <frame tileid="51" duration="150"/>
    <frame tileid="56" duration="150"/>
    <frame tileid="141" duration="150"/>
    <frame tileid="146" duration="150"/>
    <frame tileid="151" duration="150"/>
    <frame tileid="156" duration="150"/>
    <frame tileid="241" duration="150"/>
    <frame tileid="246" duration="150"/>
    <frame tileid="251" duration="150"/>
    <frame tileid="256" duration="150"/>
   </animation>
  </tile>
  <tile id="42">
   <animation>
    <frame tileid="42" duration="150"/>
    <frame tileid="47" duration="150"/>
    <frame tileid="52" duration="150"/>
    <frame tileid="57" duration="150"/>
    <frame tileid="142" duration="150"/>
    <frame tileid="147" duration="150"/>
    <frame tileid="152" duration="150"/>
    <frame tileid="157" duration="150"/>
    <frame tileid="242" duration="150"/>
    <frame tileid="247" duration="150"/>
    <frame tileid="252" duration="150"/>
    <frame tileid="257" duration="150"/>
   </animation>
  </tile>
  <tile id="43">
   <animation>
    <frame tileid="43" duration="150"/>
    <frame tileid="48" duration="150"/>
    <frame tileid="53" duration="150"/>
    <frame tileid="58" duration="150"/>
    <frame tileid="143" duration="150"/>
    <frame tileid="148" duration="150"/>
    <frame tileid="153" duration="150"/>
    <frame tileid="158" duration="150"/>
    <frame tileid="243" duration="150"/>
    <frame tileid="248" duration="150"/>
    <frame tileid="253" duration="150"/>
    <frame tileid="258" duration="150"/>
   </animation>
  </tile>
  <tile id="44">
   <animation>
    <frame tileid="44" duration="150"/>
    <frame tileid="49" duration="150"/>
    <frame tileid="54" duration="150"/>
    <frame tileid="59" duration="150"/>
    <frame tileid="144" duration="150"/>
    <frame tileid="149" duration="150"/>
    <frame tileid="154" duration="150"/>
    <frame tileid="159" duration="150"/>
    <frame tileid="244" duration="150"/>
    <frame tileid="249" duration="150"/>
    <frame tileid="254" duration="150"/>
    <frame tileid="259" duration="150"/>
   </animation>
  </tile>
  <tile id="61">
   <animation>
    <frame tileid="61" duration="150"/>
    <frame tileid="66" duration="150"/>
    <frame tileid="71" duration="150"/>
    <frame tileid="76" duration="150"/>
    <frame tileid="161" duration="150"/>
    <frame tileid="166" duration="150"/>
    <frame tileid="171" duration="150"/>
    <frame tileid="176" duration="150"/>
    <frame tileid="261" duration="150"/>
    <frame tileid="266" duration="150"/>
    <frame tileid="271" duration="150"/>
    <frame tileid="276" duration="150"/>
   </animation>
  </tile>
  <tile id="80">
   <animation>
    <frame tileid="80" duration="150"/>
    <frame tileid="85" duration="150"/>
    <frame tileid="90" duration="150"/>
    <frame tileid="95" duration="150"/>
    <frame tileid="180" duration="150"/>
    <frame tileid="185" duration="150"/>
    <frame tileid="190" duration="150"/>
    <frame tileid="195" duration="150"/>
    <frame tileid="280" duration="150"/>
    <frame tileid="285" duration="150"/>
    <frame tileid="290" duration="150"/>
    <frame tileid="295" duration="150"/>
   </animation>
  </tile>
  <tile id="81">
   <animation>
    <frame tileid="81" duration="150"/>
    <frame tileid="86" duration="150"/>
    <frame tileid="91" duration="150"/>
    <frame tileid="96" duration="150"/>
    <frame tileid="181" duration="150"/>
    <frame tileid="186" duration="150"/>
    <frame tileid="191" duration="150"/>
    <frame tileid="196" duration="150"/>
    <frame tileid="281" duration="150"/>
    <frame tileid="286" duration="150"/>
    <frame tileid="291" duration="150"/>
    <frame tileid="296" duration="150"/>
   </animation>
  </tile>
 </tileset>
 <tileset firstgid="9853" name="Exterior_objetcs" tilewidth="16" tileheight="16" tilecount="540" columns="15">
  <image source="Exterior_objetcs.png" width="240" height="576"/>
 </tileset>
 <tileset firstgid="10393" name="Old_man_idle" tilewidth="16" tileheight="16" tilecount="40" columns="20">
  <image source="Old_man_idle.png" width="320" height="32"/>
  <tile id="0">
   <animation>
    <frame tileid="0" duration="150"/>
    <frame tileid="2" duration="150"/>
    <frame tileid="4" duration="150"/>
    <frame tileid="6" duration="150"/>
    <frame tileid="8" duration="150"/>
    <frame tileid="10" duration="150"/>
    <frame tileid="12" duration="150"/>
    <frame tileid="14" duration="150"/>
    <frame tileid="16" duration="150"/>
    <frame tileid="18" duration="150"/>
   </animation>
  </tile>
  <tile id="1">
   <animation>
    <frame tileid="1" duration="150"/>
    <frame tileid="3" duration="150"/>
    <frame tileid="5" duration="150"/>
    <frame tileid="7" duration="150"/>
    <frame tileid="9" duration="150"/>
    <frame tileid="11" duration="150"/>
    <frame tileid="13" duration="150"/>
    <frame tileid="15" duration="150"/>
    <frame tileid="17" duration="150"/>
    <frame tileid="19" duration="150"/>
   </animation>
  </tile>
  <tile id="20">
   <animation>
    <frame tileid="20" duration="150"/>
    <frame tileid="22" duration="150"/>
    <frame tileid="24" duration="150"/>
    <frame tileid="26" duration="150"/>
    <frame tileid="28" duration="150"/>
    <frame tileid="30" duration="150"/>
    <frame tileid="32" duration="150"/>
    <frame tileid="34" duration="150"/>
    <frame tileid="36" duration="150"/>
    <frame tileid="38" duration="150"/>
   </animation>
  </tile>
  <tile id="21">
   <animation>
    <frame tileid="21" duration="150"/>
    <frame tileid="23" duration="150"/>
    <frame tileid="25" duration="150"/>
    <frame tileid="27" duration="150"/>
    <frame tileid="29" duration="150"/>
    <frame tileid="31" duration="150"/>
    <frame tileid="33" duration="150"/>
    <frame tileid="35" duration="150"/>
    <frame tileid="37" duration="150"/>
    <frame tileid="39" duration="150"/>
   </animation>
  </tile>
 </tileset>
 <tileset firstgid="10433" name="Boy_amazed" tilewidth="16" tileheight="16" tilecount="72" columns="24">
  <image source="Boy_amazed.png" width="384" height="48"/>
  <tile id="0">
   <animation>
    <frame tileid="0" duration="150"/>
    <frame tileid="2" duration="150"/>
    <frame tileid="4" duration="150"/>
    <frame tileid="6" duration="150"/>
    <frame tileid="8" duration="150"/>
    <frame tileid="10" duration="150"/>
    <frame tileid="12" duration="150"/>
    <frame tileid="14" duration="150"/>
    <frame tileid="16" duration="150"/>
    <frame tileid="18" duration="150"/>
    <frame tileid="20" duration="150"/>
    <frame tileid="22" duration="150"/>
   </animation>
  </tile>
  <tile id="1">
   <animation>
    <frame tileid="1" duration="150"/>
    <frame tileid="3" duration="150"/>
    <frame tileid="5" duration="150"/>
    <frame tileid="7" duration="150"/>
    <frame tileid="9" duration="150"/>
    <frame tileid="11" duration="150"/>
    <frame tileid="13" duration="150"/>
    <frame tileid="15" duration="150"/>
    <frame tileid="17" duration="150"/>
    <frame tileid="19" duration="150"/>
    <frame tileid="21" duration="150"/>
    <frame tileid="23" duration="150"/>
   </animation>
  </tile>
  <tile id="24">
   <animation>
    <frame tileid="24" duration="150"/>
    <frame tileid="26" duration="150"/>
    <frame tileid="28" duration="150"/>
    <frame tileid="30" duration="150"/>
    <frame tileid="32" duration="150"/>
    <frame tileid="34" duration="150"/>
    <frame tileid="36" duration="150"/>
    <frame tileid="38" duration="150"/>
    <frame tileid="40" duration="150"/>
    <frame tileid="42" duration="150"/>
    <frame tileid="44" duration="150"/>
    <frame tileid="46" duration="150"/>
   </animation>
  </tile>
  <tile id="25">
   <animation>
    <frame tileid="25" duration="150"/>
    <frame tileid="27" duration="150"/>
    <frame tileid="29" duration="150"/>
    <frame tileid="31" duration="150"/>
    <frame tileid="33" duration="150"/>
    <frame tileid="35" duration="150"/>
    <frame tileid="37" duration="150"/>
    <frame tileid="39" duration="150"/>
    <frame tileid="41" duration="150"/>
    <frame tileid="43" duration="150"/>
    <frame tileid="45" duration="150"/>
    <frame tileid="47" duration="150"/>
   </animation>
  </tile>
  <tile id="48">
   <animation>
    <frame tileid="48" duration="150"/>
    <frame tileid="50" duration="150"/>
    <frame tileid="52" duration="150"/>
    <frame tileid="54" duration="150"/>
    <frame tileid="56" duration="150"/>
    <frame tileid="58" duration="150"/>
    <frame tileid="60" duration="150"/>
    <frame tileid="62" duration="150"/>
    <frame tileid="64" duration="150"/>
    <frame tileid="66" duration="150"/>
    <frame tileid="68" duration="150"/>
    <frame tileid="70" duration="150"/>
   </animation>
  </tile>
  <tile id="49">
   <animation>
    <frame tileid="49" duration="150"/>
    <frame tileid="51" duration="150"/>
    <frame tileid="53" duration="150"/>
    <frame tileid="55" duration="150"/>
    <frame tileid="57" duration="150"/>
    <frame tileid="59" duration="150"/>
    <frame tileid="61" duration="150"/>
    <frame tileid="63" duration="150"/>
    <frame tileid="65" duration="150"/>
    <frame tileid="67" duration="150"/>
    <frame tileid="69" duration="150"/>
    <frame tileid="71" duration="150"/>
   </animation>
  </tile>
 </tileset>
 <tileset firstgid="10505" name="Cobold_on_shark" tilewidth="16" tileheight="16" tilecount="18" columns="6">
  <image source="Cobold_on_shark.png" width="96" height="48"/>
  <tile id="0">
   <animation>
    <frame tileid="0" duration="150"/>
    <frame tileid="0" duration="150"/>
    <frame tileid="0" duration="150"/>
    <frame tileid="2" duration="150"/>
    <frame tileid="4" duration="150"/>
    <frame tileid="2" duration="150"/>
   </animation>
  </tile>
  <tile id="1">
   <animation>
    <frame tileid="1" duration="150"/>
    <frame tileid="1" duration="150"/>
    <frame tileid="1" duration="150"/>
    <frame tileid="3" duration="150"/>
    <frame tileid="5" duration="150"/>
    <frame tileid="3" duration="150"/>
   </animation>
  </tile>
  <tile id="6">
   <animation>
    <frame tileid="6" duration="150"/>
    <frame tileid="6" duration="150"/>
    <frame tileid="6" duration="150"/>
    <frame tileid="8" duration="150"/>
    <frame tileid="10" duration="150"/>
    <frame tileid="8" duration="150"/>
   </animation>
  </tile>
  <tile id="7">
   <animation>
    <frame tileid="7" duration="150"/>
    <frame tileid="7" duration="150"/>
    <frame tileid="7" duration="150"/>
    <frame tileid="9" duration="150"/>
    <frame tileid="11" duration="150"/>
    <frame tileid="9" duration="150"/>
   </animation>
  </tile>
  <tile id="12">
   <animation>
    <frame tileid="12" duration="150"/>
    <frame tileid="12" duration="150"/>
    <frame tileid="12" duration="150"/>
    <frame tileid="14" duration="150"/>
    <frame tileid="16" duration="150"/>
    <frame tileid="14" duration="150"/>
   </animation>
  </tile>
  <tile id="13">
   <animation>
    <frame tileid="13" duration="150"/>
    <frame tileid="13" duration="150"/>
    <frame tileid="13" duration="150"/>
    <frame tileid="15" duration="150"/>
    <frame tileid="17" duration="150"/>
    <frame tileid="15" duration="150"/>
   </animation>
  </tile>
 </tileset>
 <tileset firstgid="10523" name="Windows_doors" tilewidth="16" tileheight="16" tilecount="72" columns="9">
  <image source="Windows_doors.png" width="144" height="128"/>
  <tile id="0">
   <animation>
    <frame tileid="0" duration="150"/>
    <frame tileid="0" duration="150"/>
    <frame tileid="0" duration="150"/>
    <frame tileid="0" duration="150"/>
    <frame tileid="18" duration="150"/>
    <frame tileid="36" duration="150"/>
    <frame tileid="54" duration="150"/>
    <frame tileid="54" duration="150"/>
    <frame tileid="54" duration="150"/>
    <frame tileid="54" duration="150"/>
    <frame tileid="36" duration="150"/>
    <frame tileid="18" duration="150"/>
   </animation>
  </tile>
  <tile id="1">
   <animation>
    <frame tileid="1" duration="150"/>
    <frame tileid="1" duration="150"/>
    <frame tileid="1" duration="150"/>
    <frame tileid="1" duration="150"/>
    <frame tileid="19" duration="150"/>
    <frame tileid="37" duration="150"/>
    <frame tileid="55" duration="150"/>
    <frame tileid="55" duration="150"/>
    <frame tileid="55" duration="150"/>
    <frame tileid="55" duration="150"/>
    <frame tileid="37" duration="150"/>
    <frame tileid="19" duration="150"/>
   </animation>
  </tile>
  <tile id="2">
   <animation>
    <frame tileid="2" duration="150"/>
    <frame tileid="2" duration="150"/>
    <frame tileid="2" duration="150"/>
    <frame tileid="2" duration="150"/>
    <frame tileid="20" duration="150"/>
    <frame tileid="38" duration="150"/>
    <frame tileid="56" duration="150"/>
    <frame tileid="56" duration="150"/>
    <frame tileid="56" duration="150"/>
    <frame tileid="56" duration="150"/>
    <frame tileid="38" duration="150"/>
    <frame tileid="20" duration="150"/>
   </animation>
  </tile>
  <tile id="3">
   <animation>
    <frame tileid="3" duration="150"/>
    <frame tileid="3" duration="150"/>
    <frame tileid="3" duration="150"/>
    <frame tileid="3" duration="150"/>
    <frame tileid="21" duration="150"/>
    <frame tileid="39" duration="150"/>
    <frame tileid="57" duration="150"/>
    <frame tileid="57" duration="150"/>
    <frame tileid="57" duration="150"/>
    <frame tileid="57" duration="150"/>
    <frame tileid="39" duration="150"/>
    <frame tileid="21" duration="150"/>
   </animation>
  </tile>
  <tile id="4">
   <animation>
    <frame tileid="4" duration="150"/>
    <frame tileid="4" duration="150"/>
    <frame tileid="4" duration="150"/>
    <frame tileid="4" duration="150"/>
    <frame tileid="22" duration="150"/>
    <frame tileid="40" duration="150"/>
    <frame tileid="58" duration="150"/>
    <frame tileid="58" duration="150"/>
    <frame tileid="58" duration="150"/>
    <frame tileid="58" duration="150"/>
    <frame tileid="40" duration="150"/>
    <frame tileid="22" duration="150"/>
   </animation>
  </tile>
  <tile id="5">
   <animation>
    <frame tileid="5" duration="150"/>
    <frame tileid="5" duration="150"/>
    <frame tileid="5" duration="150"/>
    <frame tileid="5" duration="150"/>
    <frame tileid="23" duration="150"/>
    <frame tileid="41" duration="150"/>
    <frame tileid="59" duration="150"/>
    <frame tileid="59" duration="150"/>
    <frame tileid="59" duration="150"/>
    <frame tileid="59" duration="150"/>
    <frame tileid="41" duration="150"/>
    <frame tileid="23" duration="150"/>
   </animation>
  </tile>
  <tile id="6">
   <animation>
    <frame tileid="6" duration="150"/>
    <frame tileid="6" duration="150"/>
    <frame tileid="6" duration="150"/>
    <frame tileid="6" duration="150"/>
    <frame tileid="24" duration="150"/>
    <frame tileid="42" duration="150"/>
    <frame tileid="60" duration="150"/>
    <frame tileid="60" duration="150"/>
    <frame tileid="60" duration="150"/>
    <frame tileid="60" duration="150"/>
    <frame tileid="42" duration="150"/>
    <frame tileid="24" duration="150"/>
   </animation>
  </tile>
  <tile id="7">
   <animation>
    <frame tileid="7" duration="150"/>
    <frame tileid="7" duration="150"/>
    <frame tileid="7" duration="150"/>
    <frame tileid="7" duration="150"/>
    <frame tileid="25" duration="150"/>
    <frame tileid="43" duration="150"/>
    <frame tileid="61" duration="150"/>
    <frame tileid="61" duration="150"/>
    <frame tileid="61" duration="150"/>
    <frame tileid="61" duration="150"/>
    <frame tileid="43" duration="150"/>
    <frame tileid="25" duration="150"/>
   </animation>
  </tile>
  <tile id="9">
   <animation>
    <frame tileid="9" duration="150"/>
    <frame tileid="9" duration="150"/>
    <frame tileid="9" duration="150"/>
    <frame tileid="9" duration="150"/>
    <frame tileid="18" duration="150"/>
    <frame tileid="36" duration="150"/>
    <frame tileid="54" duration="150"/>
    <frame tileid="54" duration="150"/>
    <frame tileid="54" duration="150"/>
    <frame tileid="54" duration="150"/>
    <frame tileid="36" duration="150"/>
    <frame tileid="18" duration="150"/>
   </animation>
  </tile>
  <tile id="10">
   <animation>
    <frame tileid="10" duration="150"/>
    <frame tileid="10" duration="150"/>
    <frame tileid="10" duration="150"/>
    <frame tileid="10" duration="150"/>
    <frame tileid="28" duration="150"/>
    <frame tileid="46" duration="150"/>
    <frame tileid="64" duration="150"/>
    <frame tileid="64" duration="150"/>
    <frame tileid="64" duration="150"/>
    <frame tileid="64" duration="150"/>
    <frame tileid="46" duration="150"/>
    <frame tileid="28" duration="150"/>
   </animation>
  </tile>
  <tile id="11">
   <animation>
    <frame tileid="11" duration="150"/>
    <frame tileid="11" duration="150"/>
    <frame tileid="11" duration="150"/>
    <frame tileid="11" duration="150"/>
    <frame tileid="29" duration="150"/>
    <frame tileid="47" duration="150"/>
    <frame tileid="65" duration="150"/>
    <frame tileid="65" duration="150"/>
    <frame tileid="65" duration="150"/>
    <frame tileid="65" duration="150"/>
    <frame tileid="47" duration="150"/>
    <frame tileid="29" duration="150"/>
   </animation>
  </tile>
  <tile id="12">
   <animation>
    <frame tileid="12" duration="150"/>
    <frame tileid="12" duration="150"/>
    <frame tileid="12" duration="150"/>
    <frame tileid="12" duration="150"/>
    <frame tileid="30" duration="150"/>
    <frame tileid="48" duration="150"/>
    <frame tileid="66" duration="150"/>
    <frame tileid="66" duration="150"/>
    <frame tileid="66" duration="150"/>
    <frame tileid="66" duration="150"/>
    <frame tileid="48" duration="150"/>
    <frame tileid="30" duration="150"/>
   </animation>
  </tile>
  <tile id="13">
   <animation>
    <frame tileid="13" duration="150"/>
    <frame tileid="13" duration="150"/>
    <frame tileid="13" duration="150"/>
    <frame tileid="13" duration="150"/>
    <frame tileid="31" duration="150"/>
    <frame tileid="49" duration="150"/>
    <frame tileid="67" duration="150"/>
    <frame tileid="67" duration="150"/>
    <frame tileid="67" duration="150"/>
    <frame tileid="67" duration="150"/>
    <frame tileid="49" duration="150"/>
    <frame tileid="31" duration="150"/>
   </animation>
  </tile>
  <tile id="14">
   <animation>
    <frame tileid="14" duration="150"/>
    <frame tileid="14" duration="150"/>
    <frame tileid="14" duration="150"/>
    <frame tileid="14" duration="150"/>
    <frame tileid="32" duration="150"/>
    <frame tileid="50" duration="150"/>
    <frame tileid="68" duration="150"/>
    <frame tileid="68" duration="150"/>
    <frame tileid="68" duration="150"/>
    <frame tileid="68" duration="150"/>
    <frame tileid="50" duration="150"/>
    <frame tileid="32" duration="150"/>
   </animation>
  </tile>
  <tile id="15">
   <animation>
    <frame tileid="15" duration="150"/>
    <frame tileid="15" duration="150"/>
    <frame tileid="15" duration="150"/>
    <frame tileid="15" duration="150"/>
    <frame tileid="33" duration="150"/>
    <frame tileid="51" duration="150"/>
    <frame tileid="69" duration="150"/>
    <frame tileid="69" duration="150"/>
    <frame tileid="69" duration="150"/>
    <frame tileid="69" duration="150"/>
    <frame tileid="51" duration="150"/>
    <frame tileid="33" duration="150"/>
   </animation>
  </tile>
  <tile id="16">
   <animation>
    <frame tileid="16" duration="150"/>
    <frame tileid="16" duration="150"/>
    <frame tileid="16" duration="150"/>
    <frame tileid="16" duration="150"/>
    <frame tileid="34" duration="150"/>
    <frame tileid="52" duration="150"/>
    <frame tileid="70" duration="150"/>
    <frame tileid="70" duration="150"/>
    <frame tileid="70" duration="150"/>
    <frame tileid="70" duration="150"/>
    <frame tileid="52" duration="150"/>
    <frame tileid="34" duration="150"/>
   </animation>
  </tile>
  <tile id="17">
   <animation>
    <frame tileid="17" duration="150"/>
    <frame tileid="17" duration="150"/>
    <frame tileid="17" duration="150"/>
    <frame tileid="17" duration="150"/>
    <frame tileid="35" duration="150"/>
    <frame tileid="53" duration="150"/>
    <frame tileid="71" duration="150"/>
    <frame tileid="71" duration="150"/>
    <frame tileid="71" duration="150"/>
    <frame tileid="71" duration="150"/>
    <frame tileid="53" duration="150"/>
    <frame tileid="35" duration="150"/>
   </animation>
  </tile>
 </tileset>
 <layer id="7" name="water" width="16" height="24">
  <data encoding="csv">
   <chunk x="-16" y="-16" width="16" height="16">
0,0,0,0,0,0,0,0,0,0,0,0,0,0,0,0,
0,0,0,0,0,0,0,0,0,0,0,0,0,0,0,0,
0,0,0,0,0,0,0,0,0,0,0,0,0,0,0,0,
0,0,0,0,0,0,0,0,0,0,0,0,0,0,0,0,
0,0,0,0,0,0,0,0,0,0,0,0,0,0,0,0,
0,0,0,0,0,0,0,0,0,0,0,0,0,0,0,0,
0,0,0,0,0,0,0,0,0,0,0,0,0,0,0,0,
0,0,0,0,0,0,0,0,0,0,0,0,0,0,0,0,
0,0,0,0,0,0,0,0,0,0,0,0,0,0,0,0,
0,0,0,0,0,0,0,0,0,0,0,0,0,0,0,0,
0,0,0,0,0,0,0,0,0,0,0,0,0,0,0,0,
0,0,0,0,0,0,0,0,0,0,0,0,0,1507,1507,1507,
0,0,0,0,0,0,0,0,0,0,0,0,0,1507,1507,1507,
0,0,0,0,0,0,0,0,0,0,0,0,0,1507,1507,1507,
0,0,0,0,0,0,0,0,0,0,0,0,0,1507,1507,1507,
0,0,0,0,0,0,0,0,0,0,0,0,0,0,0,0
</chunk>
   <chunk x="0" y="-16" width="16" height="16">
0,0,0,0,0,0,0,0,0,0,0,0,0,0,0,0,
0,0,0,0,0,0,0,0,0,0,0,0,0,0,0,0,
0,0,0,0,0,0,0,0,0,0,0,0,0,0,0,0,
0,0,0,0,0,0,0,0,0,0,0,0,0,0,0,0,
0,0,0,0,0,0,0,0,0,0,0,0,0,0,0,0,
0,0,0,0,0,0,0,0,0,0,0,0,0,0,0,0,
0,0,0,0,0,0,0,0,0,0,0,0,0,0,0,0,
0,0,0,0,0,0,0,0,0,0,0,0,0,0,0,0,
0,0,0,0,0,0,0,0,0,0,0,0,0,0,0,0,
0,0,0,0,0,0,0,0,0,0,0,0,0,0,0,0,
0,0,0,0,0,0,0,0,0,0,0,0,0,0,0,0,
1507,1507,1507,1507,1507,1507,1507,1507,1507,1507,1507,1507,1507,1507,1507,1507,
1507,1507,1507,1507,1507,1507,1507,1507,1507,1507,1507,1507,1507,1507,1507,1507,
1507,1507,1507,1507,1507,1507,1507,1507,1507,1507,1507,1507,1507,1507,1507,1507,
1507,1507,1507,1507,1507,1507,1507,1507,1507,1507,1507,1507,1507,1507,1507,1507,
0,1507,1507,1507,1507,1507,1507,1507,1507,1507,1507,1507,1507,1507,1507,1507
</chunk>
   <chunk x="16" y="-16" width="16" height="16">
0,0,0,0,0,0,0,0,0,0,0,0,0,0,0,0,
0,0,0,0,0,0,0,0,0,0,0,0,0,0,0,0,
0,0,0,0,0,0,0,0,0,0,0,0,0,0,0,0,
0,0,0,0,0,0,0,0,0,0,0,0,0,0,0,0,
0,0,0,0,0,0,0,0,0,0,0,0,0,0,0,0,
0,0,0,0,0,0,0,0,0,0,0,0,0,0,0,0,
0,0,0,0,0,0,0,0,0,0,0,0,0,0,0,0,
0,0,0,0,0,0,0,0,0,0,0,0,0,0,0,0,
0,0,0,0,0,0,0,0,0,0,0,0,0,0,0,0,
0,0,0,0,0,0,0,0,0,0,0,0,0,0,0,0,
0,0,0,0,0,0,0,0,0,0,0,0,0,0,0,0,
1507,1507,1507,1507,1507,1507,1507,1507,1507,1507,1507,0,0,0,0,0,
1507,1507,1507,1507,1507,1507,1507,1507,1507,1507,1507,0,0,0,0,0,
1507,1507,1507,1507,1507,1507,1507,1507,1507,1507,1507,0,0,0,0,0,
1507,1507,1507,1507,1507,1507,1507,1507,1507,1507,1507,0,0,0,0,0,
1507,1507,1507,1507,1507,1507,1507,1507,1507,1507,1507,0,0,0,0,0
</chunk>
   <chunk x="-16" y="0" width="16" height="16">
0,0,0,0,0,0,0,0,0,0,0,0,0,0,0,0,
0,0,0,0,0,0,0,0,0,0,0,0,0,0,0,0,
0,0,0,0,0,0,0,0,0,0,0,0,0,1507,1507,1507,
0,0,0,0,0,0,0,0,0,0,0,0,0,1507,1507,1507,
0,0,0,0,0,0,0,0,0,0,0,0,0,1507,1507,1507,
0,0,0,0,0,0,0,0,0,0,0,0,0,1507,1507,1507,
0,0,0,0,0,0,0,0,0,0,0,0,0,1507,1507,1507,
0,0,0,0,0,0,0,0,0,0,0,0,0,1507,1507,1507,
0,0,0,0,0,0,0,0,0,0,0,0,0,1507,1507,1507,
0,0,0,0,0,0,0,0,0,0,0,0,0,1507,1507,1507,
0,0,0,0,0,0,0,0,0,0,0,0,0,1507,1507,1507,
0,0,0,0,0,0,0,0,0,0,0,0,0,1507,1507,1507,
0,0,0,0,0,0,0,0,0,0,0,0,0,1507,1507,1507,
0,0,0,0,0,0,0,0,0,0,0,0,0,1507,1507,1507,
0,0,0,0,0,0,0,0,0,0,0,0,0,0,0,0,
0,0,0,0,0,0,0,0,0,0,0,0,0,0,0,0
</chunk>
   <chunk x="0" y="0" width="16" height="16">
0,1507,1507,1507,1507,1507,1507,1507,1507,1507,1507,1507,1507,1507,1507,1507,
0,1507,1507,1507,1507,1507,1507,1507,1507,1507,1507,1507,1507,1507,1507,1507,
1507,1507,1507,1507,1507,1507,1507,1507,1507,1507,1507,1507,1507,1507,1507,1507,
1507,1507,1507,1507,1507,1507,1507,1507,1507,1507,1507,1507,1507,1507,1507,1507,
1507,1507,1507,1507,1507,1507,1507,1507,1507,1507,1507,1507,1507,1507,1507,1507,
1507,1507,1507,1507,1507,1507,1507,1507,1507,1507,1507,1507,1507,1507,1507,1507,
1507,1507,1507,1507,1507,1507,1507,1507,1507,1507,1507,1507,1507,1507,1507,1507,
1507,1507,1507,1507,1507,1507,1507,1507,1507,1507,1507,1507,1507,1507,1507,1507,
1507,1507,1507,1507,1507,1507,1507,1507,1507,1507,1507,1507,1507,1507,1507,1507,
1507,1507,1507,1507,1507,1507,1507,1507,1507,1507,1507,1507,1507,1507,1507,1507,
1507,1507,1507,1507,1507,1507,1507,1507,1507,1507,1507,1507,1507,1507,1507,1507,
1507,1507,1507,1507,1507,1507,1507,1507,1507,1507,1507,1507,1507,1507,1507,1507,
1507,1507,1507,1507,1507,1507,1507,1507,1507,1507,1507,1507,1507,1507,1507,1507,
1507,1507,1507,1507,1507,1507,1507,1507,1507,1507,1507,1507,1507,1507,1507,1507,
0,0,0,0,0,0,0,0,0,0,0,0,0,0,0,0,
0,0,0,0,0,0,0,0,0,0,0,0,0,0,0,0
</chunk>
   <chunk x="16" y="0" width="16" height="16">
1507,1507,1507,1507,1507,1507,1507,1507,1507,1507,1507,0,0,0,0,0,
1507,1507,1507,1507,1507,1507,1507,1507,1507,1507,1507,0,0,0,0,0,
1507,1507,1507,1507,1507,1507,1507,1507,1507,1507,1507,0,0,0,0,0,
1507,1507,1507,1507,1507,1507,1507,1507,1507,1507,1507,0,0,0,0,0,
1507,1507,1507,1507,1507,1507,1507,1507,1507,1507,1507,0,0,0,0,0,
1507,1507,1507,1507,1507,1507,1507,1507,1507,1507,1507,0,0,0,0,0,
1507,1507,1507,1507,1507,1507,1507,1507,1507,1507,1507,0,0,0,0,0,
1507,1507,1507,1507,1507,1507,1507,1507,1507,1507,1507,0,0,0,0,0,
1507,1507,1507,1507,1507,1507,1507,1507,1507,1507,1507,0,0,0,0,0,
1507,1507,1507,1507,1507,1507,1507,1507,1507,1507,1507,0,0,0,0,0,
1507,1507,1507,1507,1507,1507,1507,1507,1507,1507,1507,0,0,0,0,0,
1507,1507,1507,1507,1507,1507,1507,1507,1507,1507,1507,0,0,0,0,0,
1507,1507,1507,1507,1507,1507,1507,1507,1507,1507,1507,0,0,0,0,0,
1507,1507,1507,1507,1507,1507,1507,1507,1507,1507,1507,0,0,0,0,0,
0,0,0,0,0,0,0,0,0,0,0,0,0,0,0,0,
0,0,0,0,0,0,0,0,0,0,0,0,0,0,0,0
</chunk>
  </data>
 </layer>
 <layer id="15" name="water_detailsation1" width="16" height="24">
  <data encoding="csv">
   <chunk x="16" y="-16" width="16" height="16">
0,0,0,0,0,0,0,0,0,0,0,0,0,0,0,0,
0,0,0,0,0,0,0,0,0,0,0,0,0,0,0,0,
0,0,0,0,0,0,0,0,0,0,0,0,0,0,0,0,
0,0,0,0,0,0,0,0,0,0,0,0,0,0,0,0,
0,0,0,0,0,0,0,0,0,0,0,0,0,0,0,0,
0,0,0,0,0,0,0,0,0,0,0,0,0,0,0,0,
0,0,0,0,0,0,0,0,0,0,0,0,0,0,0,0,
0,0,0,0,0,0,0,0,0,0,0,0,0,0,0,0,
0,0,0,0,0,0,0,0,0,0,0,0,0,0,0,0,
0,0,0,0,0,0,0,0,0,0,0,0,0,0,0,0,
0,0,0,0,0,0,0,0,0,0,0,0,0,0,0,0,
0,0,0,0,0,0,0,0,0,0,0,0,0,0,0,0,
1647,1648,1649,1650,1651,0,0,0,0,0,0,0,0,0,0,0,
0,0,0,0,0,0,0,0,0,0,0,0,0,0,0,0,
0,1794,1795,1796,1797,1798,1799,1800,0,0,0,0,0,0,0,0,
0,1831,1832,1833,1834,1835,1836,1837,0,0,0,0,0,0,0,0
</chunk>
   <chunk x="0" y="0" width="16" height="16">
0,0,0,0,0,0,0,0,0,0,0,0,0,0,0,0,
0,0,0,0,0,0,0,0,0,0,0,0,0,1767,1768,1769,
0,0,0,0,0,0,0,0,0,0,0,0,0,1804,1805,1806,
0,0,0,0,0,0,0,0,0,0,0,0,0,1841,1842,1843,
0,0,0,0,0,0,0,0,0,0,0,0,0,0,0,0,
0,0,0,0,0,0,0,0,0,0,0,0,0,0,0,0,
0,0,0,0,0,0,0,0,0,0,1672,1673,1674,1675,1676,1677,
0,0,0,0,0,0,0,0,0,0,1709,1710,1711,1712,1713,1714,
0,0,0,0,0,0,0,0,0,0,1746,1747,1748,1749,1750,1751,
0,0,1672,1673,1674,1675,1676,1677,1678,1679,0,0,0,0,0,0,
0,0,1709,1710,1711,1712,1713,1714,1715,1716,0,0,0,0,0,0,
0,0,1746,1747,1748,1749,1750,1751,1752,1753,0,0,0,0,0,0,
0,0,0,1680,1681,1682,1683,1684,1685,0,0,0,0,0,0,0,
0,0,0,1717,1718,1719,1720,1721,1722,0,0,0,0,0,0,0,
0,0,0,0,0,0,0,0,0,0,0,0,0,0,0,0,
0,0,0,0,0,0,0,0,0,0,0,0,0,0,0,0
</chunk>
   <chunk x="16" y="0" width="16" height="16">
0,1868,1869,1870,1794,1795,1796,1797,1798,0,0,0,0,0,0,0,
1770,1771,1772,1773,1831,1832,1833,1834,1835,1779,1780,1781,0,0,0,0,
1807,1808,1809,1810,1811,1812,1813,1814,1815,1816,1817,1818,0,0,0,0,
1844,1845,1846,1847,1848,1849,1850,1851,1852,1853,1854,1855,0,0,0,0,
0,0,0,0,0,0,0,0,0,0,0,0,0,0,0,0,
1726,1727,1728,1729,0,0,0,0,0,0,0,0,0,0,0,0,
1678,1679,0,0,0,0,0,0,0,0,0,0,0,0,0,0,
1715,1716,0,0,0,0,0,0,0,0,0,0,0,0,0,0,
1752,1753,0,0,0,0,0,0,0,0,0,0,0,0,0,0,
0,0,0,0,0,0,0,0,0,0,0,0,0,0,0,0,
0,0,0,0,0,0,0,0,0,0,0,0,0,0,0,0,
0,0,0,0,0,0,0,0,0,0,0,0,0,0,0,0,
0,0,0,0,0,0,0,0,0,0,0,0,0,0,0,0,
0,0,0,0,0,0,0,0,0,0,0,0,0,0,0,0,
0,0,0,0,0,0,0,0,0,0,0,0,0,0,0,0,
0,0,0,0,0,0,0,0,0,0,0,0,0,0,0,0
</chunk>
  </data>
 </layer>
 <layer id="16" name="water_detailsation2" width="16" height="24">
  <data encoding="csv">
   <chunk x="0" y="-16" width="16" height="16">
0,0,0,0,0,0,0,0,0,0,0,0,0,0,0,0,
0,0,0,0,0,0,0,0,0,0,0,0,0,0,0,0,
0,0,0,0,0,0,0,0,0,0,0,0,0,0,0,0,
0,0,0,0,0,0,0,0,0,0,0,0,0,0,0,0,
0,0,0,0,0,0,0,0,0,0,0,0,0,0,0,0,
0,0,0,0,0,0,0,0,0,0,0,0,0,0,0,0,
0,0,0,0,0,0,0,0,0,0,0,0,0,0,0,0,
0,0,0,0,0,0,0,0,0,0,0,0,0,0,0,0,
0,0,0,0,0,0,0,0,0,0,0,0,0,0,0,0,
0,0,0,0,0,0,0,0,0,0,0,0,0,0,0,0,
0,0,0,0,0,0,0,0,0,0,0,0,0,0,0,0,
0,0,0,0,0,0,0,0,0,0,0,0,0,1841,1842,1843,
0,0,0,0,0,0,0,0,0,0,0,0,0,1878,1879,1880,
0,0,0,0,0,0,0,0,1527,1528,1529,1530,1531,1532,1533,1534,
0,0,0,0,0,0,0,0,1564,1565,1566,1567,1568,1569,1570,1571,
0,0,0,0,0,0,0,0,1601,1602,1603,1604,1605,1606,1607,1608
</chunk>
   <chunk x="16" y="-16" width="16" height="16">
0,0,0,0,0,0,0,0,0,0,0,0,0,0,0,0,
0,0,0,0,0,0,0,0,0,0,0,0,0,0,0,0,
0,0,0,0,0,0,0,0,0,0,0,0,0,0,0,0,
0,0,0,0,0,0,0,0,0,0,0,0,0,0,0,0,
0,0,0,0,0,0,0,0,0,0,0,0,0,0,0,0,
0,0,0,0,0,0,0,0,0,0,0,0,0,0,0,0,
0,0,0,0,0,0,0,0,0,0,0,0,0,0,0,0,
0,0,0,0,0,0,0,0,0,0,0,0,0,0,0,0,
0,0,0,0,0,0,0,0,0,0,0,0,0,0,0,0,
0,0,0,0,0,0,0,0,0,0,0,0,0,0,0,0,
0,0,0,0,0,0,0,0,0,0,0,0,0,0,0,0,
1844,1845,1846,1847,1848,1849,1850,1851,1852,1853,1854,1855,0,0,0,0,
1881,1882,1883,1884,1885,1886,1887,1888,1889,1890,1891,1892,0,0,0,0,
1535,1536,1784,1785,1786,1787,1788,1789,1790,1791,1792,0,0,0,0,0,
1572,1573,1821,1822,1823,1824,1825,1826,1827,1828,1829,0,0,0,0,0,
1609,1610,1858,1859,1860,1861,1862,1863,1864,1865,1866,0,0,0,0,0
</chunk>
   <chunk x="-16" y="0" width="16" height="16">
0,0,0,0,0,0,0,0,0,0,0,0,0,0,0,0,
0,0,0,0,0,0,0,0,0,0,0,0,0,0,0,0,
0,0,0,0,0,0,0,0,0,0,0,0,0,0,0,0,
0,0,0,0,0,0,0,0,0,0,0,0,0,0,0,0,
0,0,0,0,0,0,0,0,0,0,0,0,0,0,0,0,
0,0,0,0,0,0,0,0,0,0,0,0,0,0,0,0,
0,0,0,0,0,0,0,0,0,0,0,0,0,1477,1478,1479,
0,0,0,0,0,0,0,0,0,0,0,0,0,1514,1515,1516,
0,0,0,0,0,0,0,0,0,0,0,0,0,1551,1552,1553,
0,0,0,0,0,0,0,0,0,0,0,0,0,1588,1589,1590,
0,0,0,0,0,0,0,0,0,0,0,0,0,1672,1673,1674,
0,0,0,0,0,0,0,0,0,0,0,0,0,1709,1710,1711,
0,0,0,0,0,0,0,0,0,0,0,0,0,1746,1747,1748,
0,0,0,0,0,0,0,0,0,0,0,0,0,0,0,0,
0,0,0,0,0,0,0,0,0,0,0,0,0,0,0,0,
0,0,0,0,0,0,0,0,0,0,0,0,0,0,0,0
</chunk>
   <chunk x="0" y="0" width="16" height="16">
0,0,0,0,0,0,0,0,1638,1639,1640,1641,1642,1643,1644,1645,
0,0,0,0,0,0,0,0,0,0,0,0,0,0,0,0,
0,0,0,0,0,0,0,0,0,0,0,0,0,0,0,0,
0,0,0,0,0,0,0,0,0,0,0,0,0,0,0,0,
0,0,0,0,0,0,0,0,0,0,0,0,0,0,0,0,
0,0,0,0,0,0,0,0,0,0,0,0,0,0,0,0,
1480,1481,1482,1483,1484,1485,1486,1487,1488,0,0,0,0,0,0,0,
1517,1518,1519,1520,1521,1522,1523,1524,1525,0,0,0,0,0,0,0,
1554,1555,1556,1557,1558,1559,1560,1577,1578,1579,1580,1581,0,0,0,0,
1591,1592,1593,1594,1595,1596,1597,1614,1615,1616,1617,1618,0,0,0,0,
1675,1676,1677,1678,1679,1633,1634,1635,1636,0,1804,1805,1806,1807,1808,1809,
1712,1713,1714,1715,1716,0,0,0,0,0,1841,1842,1843,1844,1845,1846,
1749,1750,1751,1752,1753,0,0,0,0,0,1878,1879,1880,1881,1882,1883,
0,0,0,0,0,0,0,0,0,0,0,0,0,0,0,0,
0,0,0,0,0,0,0,0,0,0,0,0,0,0,0,0,
0,0,0,0,0,0,0,0,0,0,0,0,0,0,0,0
</chunk>
   <chunk x="16" y="0" width="16" height="16">
1646,1648,1649,1650,0,0,0,0,0,0,0,0,0,0,0,0,
0,0,0,0,0,0,0,0,0,0,0,0,0,0,0,0,
0,0,0,0,0,0,0,0,0,0,0,0,0,0,0,0,
0,0,0,0,0,0,0,0,0,0,0,0,0,0,0,0,
0,0,0,0,0,0,0,0,0,0,0,0,0,0,0,0,
0,0,0,0,0,0,0,0,0,0,0,0,0,0,0,0,
0,0,1784,1785,1786,1787,1788,1789,1790,1791,1792,0,0,0,0,0,
0,0,1821,1822,1823,1824,1825,1826,1827,1828,1829,0,0,0,0,0,
0,0,1858,1859,1860,1861,1862,1863,1864,1865,1866,0,0,0,0,0,
0,0,0,0,0,0,0,0,0,0,0,0,0,0,0,0,
1810,1811,1812,1813,1814,1815,1816,1817,1818,0,0,0,0,0,0,0,
1847,1848,1849,1850,1851,1852,1853,1854,1855,0,0,0,0,0,0,0,
1884,1885,1886,1887,1888,1889,1890,1891,1892,0,0,0,0,0,0,0,
0,0,0,0,0,0,0,0,0,0,0,0,0,0,0,0,
0,0,0,0,0,0,0,0,0,0,0,0,0,0,0,0,
0,0,0,0,0,0,0,0,0,0,0,0,0,0,0,0
</chunk>
  </data>
 </layer>
 <layer id="8" name="water_detailsation3" width="16" height="24">
  <data encoding="csv">
   <chunk x="-16" y="0" width="16" height="16">
0,0,0,0,0,0,0,0,0,0,0,0,0,0,0,0,
0,0,0,0,0,0,0,0,0,0,0,0,0,0,0,0,
0,0,0,0,0,0,0,0,0,0,0,0,0,0,0,0,
0,0,0,0,0,0,0,0,0,0,0,0,0,0,0,0,
0,0,0,0,0,0,0,0,0,0,0,0,0,0,0,0,
0,0,0,0,0,0,0,0,0,0,0,0,0,0,0,0,
0,0,0,0,0,0,0,0,0,0,0,0,0,0,4979,4980,
0,0,0,0,0,0,0,0,0,0,0,0,0,0,5001,5002,
0,0,0,0,0,0,0,0,0,0,0,0,0,0,5023,5024,
0,0,0,0,0,0,0,0,0,0,0,0,0,0,0,0,
0,0,0,0,0,0,0,0,0,0,0,0,0,0,0,0,
0,0,0,0,0,0,0,0,0,0,0,0,0,0,0,0,
0,0,0,0,0,0,0,0,0,0,0,0,0,0,0,0,
0,0,0,0,0,0,0,0,0,0,0,0,0,0,0,0,
0,0,0,0,0,0,0,0,0,0,0,0,0,0,0,0,
0,0,0,0,0,0,0,0,0,0,0,0,0,0,0,0
</chunk>
   <chunk x="0" y="0" width="16" height="16">
0,0,0,0,0,0,0,0,0,0,0,0,0,0,0,0,
0,0,0,0,0,0,0,0,0,0,0,0,0,0,0,0,
0,0,0,0,0,0,0,0,0,0,0,0,0,0,0,0,
0,0,0,0,0,0,0,0,0,0,0,0,0,0,4909,4910,
0,0,0,0,0,0,0,0,0,0,0,0,0,0,4931,4932,
0,0,0,0,4897,4898,4899,4900,4901,4902,4903,4904,4905,4906,4907,4908,
4981,4982,4983,4984,4919,4920,4921,4922,4923,4924,4925,4926,4927,4928,4929,4930,
5003,5004,5005,5006,4941,4942,4943,4944,4945,4946,4947,4948,4949,4950,4951,4952,
5025,5026,5027,5028,0,0,0,0,0,0,0,0,0,0,0,0,
0,0,0,0,0,0,0,0,0,0,0,0,0,0,0,0,
0,0,0,0,0,0,0,0,0,0,0,0,0,0,0,0,
0,0,4974,4975,4976,4977,4978,0,0,0,0,0,0,0,0,0,
0,0,4996,4997,4998,4999,5000,0,0,0,0,0,0,0,0,0,
0,0,0,0,0,0,0,0,0,0,0,0,0,0,0,0,
0,0,0,0,0,0,0,0,0,0,0,0,0,0,0,0,
0,0,0,0,0,0,0,0,0,0,0,0,0,0,0,0
</chunk>
   <chunk x="16" y="0" width="16" height="16">
0,0,0,0,0,0,0,0,0,0,0,0,0,0,0,0,
0,0,0,0,0,0,0,0,0,0,0,0,0,0,0,0,
0,0,0,0,0,0,0,0,0,0,0,0,0,0,0,0,
4911,4912,4913,4914,4915,4916,4917,4918,0,0,0,0,0,0,0,0,
4933,4934,4935,4936,4937,4938,4939,4940,0,0,0,0,0,0,0,0,
4955,4956,4957,4958,4959,4960,4961,4962,0,0,0,0,0,0,0,0,
0,0,0,0,0,0,0,0,0,0,0,0,0,0,0,0,
0,0,0,0,0,0,0,0,0,0,0,0,0,0,0,0,
0,0,0,0,0,0,0,0,0,0,0,0,0,0,0,0,
0,0,0,0,0,0,0,0,0,0,0,0,0,0,0,0,
0,0,0,0,0,0,0,0,0,0,0,0,0,0,0,0,
0,0,0,0,0,0,0,0,0,0,0,0,0,0,0,0,
0,0,0,0,0,0,0,0,0,0,0,0,0,0,0,0,
0,0,0,0,0,0,0,0,0,0,0,0,0,0,0,0,
0,0,0,0,0,0,0,0,0,0,0,0,0,0,0,0,
0,0,0,0,0,0,0,0,0,0,0,0,0,0,0,0
</chunk>
  </data>
 </layer>
 <layer id="13" name="water_detailsation4" width="16" height="24">
  <data encoding="csv">
   <chunk x="0" y="0" width="16" height="16">
0,0,0,0,0,0,0,0,0,0,0,0,0,0,0,0,
0,0,0,0,0,0,0,0,0,0,0,0,0,0,0,0,
0,0,0,0,0,0,0,0,0,0,0,0,0,0,0,0,
0,0,0,0,0,0,0,0,0,0,0,0,0,0,0,0,
0,0,0,0,0,0,0,0,0,0,0,0,0,0,0,0,
0,0,0,0,0,0,0,0,0,0,0,0,0,0,0,0,
0,0,0,0,0,0,0,5015,5016,5017,5018,0,0,0,0,0,
0,0,0,0,0,0,0,5037,5038,5039,5040,0,0,0,0,0,
0,0,0,0,0,0,0,0,0,0,0,0,0,0,0,0,
0,0,0,0,0,0,0,0,0,0,0,0,0,0,0,0,
0,0,0,0,0,0,0,0,0,0,0,0,0,0,0,0,
0,0,0,0,0,0,0,0,0,0,0,0,0,0,0,0,
0,0,0,0,0,0,0,0,0,0,0,0,0,0,0,0,
0,0,0,0,0,0,0,0,0,0,0,0,0,0,0,0,
0,0,0,0,0,0,0,0,0,0,0,0,0,0,0,0,
0,0,0,0,0,0,0,0,0,0,0,0,0,0,0,0
</chunk>
  </data>
 </layer>
 <layer id="14" name="water_detailsation5" width="16" height="24">
  <data encoding="csv">
   <chunk x="0" y="0" width="16" height="16">
0,0,0,0,0,0,0,0,0,0,0,0,0,0,0,0,
0,0,0,0,0,0,0,0,0,0,0,0,0,0,0,0,
0,0,0,0,0,0,0,0,0,0,0,0,0,0,0,0,
0,0,0,0,0,0,0,0,0,0,0,0,0,0,0,0,
0,0,0,0,0,0,0,0,0,0,0,0,0,0,0,0,
0,0,0,0,0,0,0,0,0,0,0,0,0,0,5019,5020,
0,0,0,0,0,0,0,0,0,0,5019,5020,5021,0,5041,5042,
0,0,0,0,0,0,0,0,0,0,5041,5042,5043,0,0,0,
0,0,0,0,0,0,0,0,0,0,0,0,0,0,0,0,
0,0,0,0,0,0,0,0,0,0,0,0,0,0,0,0,
0,0,0,0,0,2147488669,2147488668,2147488667,0,0,0,0,0,0,0,0,
0,0,0,0,0,2147488691,2147488690,2147488689,0,0,0,0,0,0,0,0,
0,0,0,0,0,0,0,0,0,0,0,0,0,0,0,0,
0,0,0,0,0,0,0,0,0,0,0,0,0,0,0,0,
0,0,0,0,0,0,0,0,0,0,0,0,0,0,0,0,
0,0,0,0,0,0,0,0,0,0,0,0,0,0,0,0
</chunk>
   <chunk x="16" y="0" width="16" height="16">
0,0,0,0,0,0,0,0,0,0,0,0,0,0,0,0,
0,0,0,0,0,0,0,0,0,0,0,0,0,0,0,0,
0,0,0,0,0,0,0,0,0,0,0,0,0,0,0,0,
0,0,0,0,0,0,0,0,0,0,0,0,0,0,0,0,
0,0,0,0,0,0,0,0,0,0,0,0,0,0,0,0,
5021,0,0,0,0,0,0,0,0,0,0,0,0,0,0,0,
5043,0,0,0,0,0,0,0,0,0,0,0,0,0,0,0,
0,0,0,0,0,0,0,0,0,0,0,0,0,0,0,0,
0,0,0,0,0,0,0,0,0,0,0,0,0,0,0,0,
0,0,0,0,0,0,0,0,0,0,0,0,0,0,0,0,
0,0,0,0,0,0,0,0,0,0,0,0,0,0,0,0,
0,0,0,0,0,0,0,0,0,0,0,0,0,0,0,0,
0,0,0,0,0,0,0,0,0,0,0,0,0,0,0,0,
0,0,0,0,0,0,0,0,0,0,0,0,0,0,0,0,
0,0,0,0,0,0,0,0,0,0,0,0,0,0,0,0,
0,0,0,0,0,0,0,0,0,0,0,0,0,0,0,0
</chunk>
  </data>
 </layer>
 <layer id="3" name="Ground" width="16" height="24">
  <data encoding="csv">
   <chunk x="-16" y="-16" width="16" height="16">
0,0,0,0,0,0,0,0,0,0,0,0,0,0,0,0,
0,0,0,0,0,0,0,0,0,0,0,0,0,0,0,0,
0,0,0,0,0,0,0,0,0,0,0,0,0,0,0,0,
0,0,0,0,0,0,0,0,0,0,0,0,0,0,0,0,
0,0,0,0,0,0,0,0,0,0,0,0,0,0,0,0,
0,0,0,0,0,0,0,0,0,0,0,0,0,0,0,0,
0,0,0,0,0,0,0,0,0,0,0,0,0,0,0,0,
0,0,0,0,0,0,0,0,0,0,0,0,0,0,0,0,
0,0,0,0,0,0,0,0,0,0,0,0,0,0,0,0,
0,0,0,0,0,0,0,0,0,0,0,0,0,0,0,0,
0,0,0,0,0,0,0,0,0,0,0,0,0,0,0,0,
0,0,0,0,0,0,0,0,0,0,0,0,0,62,62,62,
0,0,0,0,0,0,0,0,0,0,0,0,0,62,62,62,
0,0,0,0,0,0,0,0,0,0,0,0,0,62,62,62,
0,0,0,0,0,0,0,0,0,0,0,0,0,62,62,62,
0,0,0,0,0,0,0,0,0,0,0,0,0,62,62,62
</chunk>
   <chunk x="0" y="-16" width="16" height="16">
0,0,0,0,0,0,0,0,0,0,0,0,0,0,0,0,
0,0,0,0,0,0,0,0,0,0,0,0,0,0,0,0,
0,0,0,0,0,0,0,0,0,0,0,0,0,0,0,0,
0,0,0,0,0,0,0,0,0,0,0,0,0,0,0,0,
0,0,0,0,0,0,0,0,0,0,0,0,0,0,0,0,
0,0,0,0,0,0,0,0,0,0,0,0,0,0,0,0,
0,0,0,0,0,0,0,0,0,0,0,0,0,0,0,0,
0,0,0,0,0,0,0,0,0,0,0,0,0,0,0,0,
0,0,0,0,0,0,0,0,0,0,0,0,0,0,0,0,
0,0,0,0,0,0,0,0,0,0,0,0,0,0,0,0,
0,0,0,0,0,0,0,0,0,0,0,0,0,0,0,0,
62,62,62,62,62,62,62,62,62,62,62,4425,4425,4425,4425,4425,
62,62,62,62,62,62,62,62,62,62,62,62,62,154,194,212,
62,62,62,62,62,62,62,62,62,62,62,34,50,213,224,242,
62,62,62,62,62,62,62,62,62,62,40,67,80,243,0,133,
62,62,62,62,62,62,62,62,62,62,70,123,0,0,0,0
</chunk>
   <chunk x="16" y="-16" width="16" height="16">
0,0,0,0,0,0,0,0,0,0,0,0,0,0,0,0,
0,0,0,0,0,0,0,0,0,0,0,0,0,0,0,0,
0,0,0,0,0,0,0,0,0,0,0,0,0,0,0,0,
0,0,0,0,0,0,0,0,0,0,0,0,0,0,0,0,
0,0,0,0,0,0,0,0,0,0,0,0,0,0,0,0,
0,0,0,0,0,0,0,0,0,0,0,0,0,0,0,0,
0,0,0,0,0,0,0,0,0,0,0,0,0,0,0,0,
0,0,0,0,0,0,0,0,0,0,0,0,0,0,0,0,
0,0,0,0,0,0,0,0,0,0,0,0,0,0,0,0,
0,0,0,0,0,0,0,0,0,0,0,0,0,0,0,0,
0,0,0,0,0,0,0,0,0,0,0,0,0,0,0,0,
4425,154,213,0,0,0,0,0,0,0,0,0,0,0,0,0,
193,187,243,0,0,0,0,0,0,0,0,0,0,0,0,0,
223,217,0,0,0,0,0,0,0,0,0,0,0,0,0,0,
134,0,0,0,0,0,0,0,0,0,0,0,0,0,0,0,
0,0,0,0,0,0,0,0,0,0,0,0,0,0,0,0
</chunk>
   <chunk x="-16" y="0" width="16" height="16">
0,0,0,0,0,0,0,0,0,0,0,0,0,62,62,62,
0,0,0,0,0,0,0,0,0,0,0,0,0,62,62,62,
0,0,0,0,0,0,0,0,0,0,0,0,0,62,62,62,
0,0,0,0,0,0,0,0,0,0,0,0,0,62,62,62,
0,0,0,0,0,0,0,0,0,0,0,0,0,62,62,62,
0,0,0,0,0,0,0,0,0,0,0,0,0,62,154,92,
0,0,0,0,0,0,0,0,0,0,0,0,0,194,213,122,
0,0,0,0,0,0,0,0,0,0,0,0,0,224,123,0,
0,0,0,0,0,0,0,0,0,0,0,0,0,254,0,0,
0,0,0,0,0,0,0,0,0,0,0,0,0,123,0,0,
0,0,0,0,0,0,0,0,0,0,0,0,0,0,0,0,
0,0,0,0,0,0,0,0,0,0,0,0,0,0,0,0,
0,0,0,0,0,0,0,0,0,0,0,0,0,0,0,0,
0,0,0,0,0,0,0,0,0,0,0,0,0,0,0,0,
0,0,0,0,0,0,0,0,0,0,0,0,0,0,0,0,
0,0,0,0,0,0,0,0,0,0,0,0,0,0,0,0
</chunk>
   <chunk x="0" y="0" width="16" height="16">
62,62,62,62,62,62,62,62,62,2147483710,2147483709,0,0,0,0,0,
62,62,62,62,62,62,62,62,62,62,2147483742,0,0,0,0,0,
62,62,62,62,62,62,62,62,62,62,63,0,0,0,0,0,
40,92,73,74,73,73,73,74,73,74,93,0,0,0,0,0,
70,122,103,104,103,103,103,104,103,104,123,0,0,0,0,0,
93,0,133,134,133,133,133,134,133,134,0,0,0,0,0,0,
0,0,0,0,0,0,0,0,0,0,0,0,0,0,0,0,
0,0,0,0,0,0,0,0,0,0,0,0,0,0,0,0,
0,0,0,0,0,0,0,0,0,0,0,0,0,0,0,0,
0,0,0,0,0,0,0,0,0,0,0,0,0,0,0,0,
0,0,0,0,0,0,0,0,0,0,0,0,0,0,0,0,
0,0,0,0,0,0,0,0,0,0,0,0,0,0,0,0,
0,0,0,0,0,0,0,0,0,0,0,0,0,0,0,0,
0,0,0,0,0,0,0,0,0,0,0,0,0,0,0,0,
0,0,0,0,0,0,0,0,0,0,0,0,0,0,0,0,
0,0,0,0,0,0,0,0,0,0,0,0,0,0,0,0
</chunk>
  </data>
 </layer>
 <layer id="6" name="spots" width="16" height="24">
  <data encoding="csv">
   <chunk x="-16" y="-16" width="16" height="16">
0,0,0,0,0,0,0,0,0,0,0,0,0,0,0,0,
0,0,0,0,0,0,0,0,0,0,0,0,0,0,0,0,
0,0,0,0,0,0,0,0,0,0,0,0,0,0,0,0,
0,0,0,0,0,0,0,0,0,0,0,0,0,0,0,0,
0,0,0,0,0,0,0,0,0,0,0,0,0,0,0,0,
0,0,0,0,0,0,0,0,0,0,0,0,0,0,0,0,
0,0,0,0,0,0,0,0,0,0,0,0,0,0,0,0,
0,0,0,0,0,0,0,0,0,0,0,0,0,0,0,0,
0,0,0,0,0,0,0,0,0,0,0,0,0,0,0,0,
0,0,0,0,0,0,0,0,0,0,0,0,0,0,0,0,
0,0,0,0,0,0,0,0,0,0,0,0,0,0,0,0,
0,0,0,0,0,0,0,0,0,0,0,0,0,0,0,0,
0,0,0,0,0,0,0,0,0,0,0,0,0,0,0,0,
0,0,0,0,0,0,0,0,0,0,0,0,0,0,0,0,
0,0,0,0,0,0,0,0,0,0,0,0,0,0,0,4789,
0,0,0,0,0,0,0,0,0,0,0,0,0,0,0,0
</chunk>
   <chunk x="0" y="-16" width="16" height="16">
0,0,0,0,0,0,0,0,0,0,0,0,0,0,0,0,
0,0,0,0,0,0,0,0,0,0,0,0,0,0,0,0,
0,0,0,0,0,0,0,0,0,0,0,0,0,0,0,0,
0,0,0,0,0,0,0,0,0,0,0,0,0,0,0,0,
0,0,0,0,0,0,0,0,0,0,0,0,0,0,0,0,
0,0,0,0,0,0,0,0,0,0,0,0,0,0,0,0,
0,0,0,0,0,0,0,0,0,0,0,0,0,0,0,0,
0,0,0,0,0,0,0,0,0,0,0,0,0,0,0,0,
0,0,0,0,0,0,0,0,0,0,0,0,0,0,0,0,
0,0,0,0,0,0,0,0,0,0,0,0,0,0,0,0,
0,0,0,0,0,0,0,0,0,0,0,0,0,0,0,0,
0,0,4781,0,4781,0,0,4840,4841,0,0,0,0,0,0,0,
0,0,0,4788,4804,4805,4779,4699,4700,4800,4801,0,0,0,0,0,
4730,4731,0,0,4825,4826,0,4720,4721,4821,4822,0,0,0,0,0,
0,0,0,0,0,0,4827,4828,0,0,0,0,0,0,0,0,
0,0,0,0,0,0,4848,4849,0,4790,0,0,0,0,0,0
</chunk>
   <chunk x="-16" y="0" width="16" height="16">
0,0,0,0,0,0,0,0,0,0,0,0,0,4830,4802,4803,
0,0,0,0,0,0,0,0,0,0,0,0,0,4851,4823,4824,
0,0,0,0,0,0,0,0,0,0,0,0,0,0,4827,4828,
0,0,0,0,0,0,0,0,0,0,0,0,0,0,4848,4849,
0,0,0,0,0,0,0,0,0,0,0,0,0,0,0,0,
0,0,0,0,0,0,0,0,0,0,0,0,0,0,0,0,
0,0,0,0,0,0,0,0,0,0,0,0,0,0,0,0,
0,0,0,0,0,0,0,0,0,0,0,0,0,0,0,0,
0,0,0,0,0,0,0,0,0,0,0,0,0,0,0,0,
0,0,0,0,0,0,0,0,0,0,0,0,0,0,0,0,
0,0,0,0,0,0,0,0,0,0,0,0,0,0,0,0,
0,0,0,0,0,0,0,0,0,0,0,0,0,0,0,0,
0,0,0,0,0,0,0,0,0,0,0,0,0,0,0,0,
0,0,0,0,0,0,0,0,0,0,0,0,0,0,0,0,
0,0,0,0,0,0,0,0,0,0,0,0,0,0,0,0,
0,0,0,0,0,0,0,0,0,0,0,0,0,0,0,0
</chunk>
  </data>
 </layer>
 <layer id="5" name="Grass" width="16" height="24">
  <data encoding="csv">
   <chunk x="0" y="-16" width="16" height="16">
0,0,0,0,0,0,0,0,0,0,0,0,0,0,0,0,
0,0,0,0,0,0,0,0,0,0,0,0,0,0,0,0,
0,0,0,0,0,0,0,0,0,0,0,0,0,0,0,0,
0,0,0,0,0,0,0,0,0,0,0,0,0,0,0,0,
0,0,0,0,0,0,0,0,0,0,0,0,0,0,0,0,
0,0,0,0,0,0,0,0,0,0,0,0,0,0,0,0,
0,0,0,0,0,0,0,0,0,0,0,0,0,0,0,0,
0,0,0,0,0,0,0,0,0,0,0,0,0,0,0,0,
0,0,0,0,0,0,0,0,0,0,0,0,0,0,0,0,
0,0,0,0,0,0,0,0,0,0,0,0,0,0,0,0,
0,0,0,0,0,0,0,0,0,0,0,0,0,0,0,0,
0,0,0,0,4483,4478,4484,4479,4459,4428,4428,4470,4470,4470,4470,4470,
0,0,0,0,0,0,0,0,4483,4484,4484,4479,4459,0,0,0,
0,0,0,0,0,0,0,0,0,0,0,0,0,0,0,0,
0,0,0,0,0,0,0,0,0,0,0,0,0,0,0,0,
0,0,0,0,0,0,0,0,0,0,0,0,0,0,0,0
</chunk>
   <chunk x="16" y="-16" width="16" height="16">
0,0,0,0,0,0,0,0,0,0,0,0,0,0,0,0,
0,0,0,0,0,0,0,0,0,0,0,0,0,0,0,0,
0,0,0,0,0,0,0,0,0,0,0,0,0,0,0,0,
0,0,0,0,0,0,0,0,0,0,0,0,0,0,0,0,
0,0,0,0,0,0,0,0,0,0,0,0,0,0,0,0,
0,0,0,0,0,0,0,0,0,0,0,0,0,0,0,0,
0,0,0,0,0,0,0,0,0,0,0,0,0,0,0,0,
0,0,0,0,0,0,0,0,0,0,0,0,0,0,0,0,
0,0,0,0,0,0,0,0,0,0,0,0,0,0,0,0,
0,0,0,0,0,0,0,0,0,0,0,0,0,0,0,0,
0,0,0,0,0,0,0,0,0,0,0,0,0,0,0,0,
4470,0,0,0,0,0,0,0,0,0,0,0,0,0,0,0,
0,0,0,0,0,0,0,0,0,0,0,0,0,0,0,0,
0,0,0,0,0,0,0,0,0,0,0,0,0,0,0,0,
0,0,0,0,0,0,0,0,0,0,0,0,0,0,0,0,
0,0,0,0,0,0,0,0,0,0,0,0,0,0,0,0
</chunk>
   <chunk x="-16" y="0" width="16" height="16">
0,0,0,0,0,0,0,0,0,0,0,0,0,0,0,0,
0,0,0,0,0,0,0,0,0,0,0,0,0,4456,4457,0,
0,0,0,0,0,0,0,0,0,0,0,0,0,4428,4471,0,
0,0,0,0,0,0,0,0,0,0,0,0,0,4428,4472,4457,
0,0,0,0,0,0,0,0,0,0,0,0,0,4428,4428,4471,
0,0,0,0,0,0,0,0,0,0,0,0,0,4428,0,4485,
0,0,0,0,0,0,0,0,0,0,0,0,0,0,0,0,
0,0,0,0,0,0,0,0,0,0,0,0,0,0,0,0,
0,0,0,0,0,0,0,0,0,0,0,0,0,0,0,0,
0,0,0,0,0,0,0,0,0,0,0,0,0,0,0,0,
0,0,0,0,0,0,0,0,0,0,0,0,0,0,0,0,
0,0,0,0,0,0,0,0,0,0,0,0,0,0,0,0,
0,0,0,0,0,0,0,0,0,0,0,0,0,0,0,0,
0,0,0,0,0,0,0,0,0,0,0,0,0,0,0,0,
0,0,0,0,0,0,0,0,0,0,0,0,0,0,0,0,
0,0,0,0,0,0,0,0,0,0,0,0,0,0,0,0
</chunk>
  </data>
 </layer>
 <layer id="9" name="grass_details" width="16" height="24">
  <data encoding="csv">
   <chunk x="0" y="-16" width="16" height="16">
0,0,0,0,0,0,0,0,0,0,0,0,0,0,0,0,
0,0,0,0,0,0,0,0,0,0,0,0,0,0,0,0,
0,0,0,0,0,0,0,0,0,0,0,0,0,0,0,0,
0,0,0,0,0,0,0,0,0,0,0,0,0,0,0,0,
0,0,0,0,0,0,0,0,0,0,0,0,0,0,0,0,
0,0,0,0,0,0,0,0,0,0,0,0,0,0,0,0,
0,0,0,0,0,0,0,0,0,0,0,0,0,0,0,0,
0,0,0,0,0,0,0,0,0,0,0,0,0,0,0,0,
0,0,0,0,0,0,0,0,0,0,0,0,0,0,0,0,
0,0,0,0,0,0,0,0,0,0,0,0,0,0,0,0,
0,0,0,0,0,0,0,0,0,0,0,0,0,0,0,0,
0,0,0,0,0,0,0,0,4577,4578,4629,4594,0,4627,4622,4606,
0,0,0,0,0,0,0,0,0,0,0,0,4634,4635,4636,0,
0,0,0,0,0,0,0,0,0,0,0,0,0,0,0,0,
0,0,0,0,0,0,0,0,0,0,0,0,0,0,0,0,
0,0,0,0,0,0,0,0,0,0,0,0,0,0,0,0
</chunk>
   <chunk x="16" y="-16" width="16" height="16">
0,0,0,0,0,0,0,0,0,0,0,0,0,0,0,0,
0,0,0,0,0,0,0,0,0,0,0,0,0,0,0,0,
0,0,0,0,0,0,0,0,0,0,0,0,0,0,0,0,
0,0,0,0,0,0,0,0,0,0,0,0,0,0,0,0,
0,0,0,0,0,0,0,0,0,0,0,0,0,0,0,0,
0,0,0,0,0,0,0,0,0,0,0,0,0,0,0,0,
0,0,0,0,0,0,0,0,0,0,0,0,0,0,0,0,
0,0,0,0,0,0,0,0,0,0,0,0,0,0,0,0,
0,0,0,0,0,0,0,0,0,0,0,0,0,0,0,0,
0,0,0,0,0,0,0,0,0,0,0,0,0,0,0,0,
0,0,0,0,0,0,0,0,0,0,0,0,0,0,0,0,
4607,4608,0,0,0,0,0,0,0,0,0,0,0,0,0,0,
0,0,0,0,0,0,0,0,0,0,0,0,0,0,0,0,
0,0,0,0,0,0,0,0,0,0,0,0,0,0,0,0,
0,0,0,0,0,0,0,0,0,0,0,0,0,0,0,0,
0,0,0,0,0,0,0,0,0,0,0,0,0,0,0,0
</chunk>
   <chunk x="-16" y="0" width="16" height="16">
0,0,0,0,0,0,0,0,0,0,0,0,0,0,0,0,
0,0,0,0,0,0,0,0,0,0,0,0,0,0,0,0,
0,0,0,0,0,0,0,0,0,0,0,0,0,4619,4620,0,
0,0,0,0,0,0,0,0,0,0,0,0,0,4627,0,0,
0,0,0,0,0,0,0,0,0,0,0,0,0,0,536875506,0,
0,0,0,0,0,0,0,0,0,0,0,0,0,4607,4608,0,
0,0,0,0,0,0,0,0,0,0,0,0,0,0,0,0,
0,0,0,0,0,0,0,0,0,0,0,0,0,0,0,0,
0,0,0,0,0,0,0,0,0,0,0,0,0,0,0,0,
0,0,0,0,0,0,0,0,0,0,0,0,0,0,0,0,
0,0,0,0,0,0,0,0,0,0,0,0,0,0,0,0,
0,0,0,0,0,0,0,0,0,0,0,0,0,0,0,0,
0,0,0,0,0,0,0,0,0,0,0,0,0,0,0,0,
0,0,0,0,0,0,0,0,0,0,0,0,0,0,0,0,
0,0,0,0,0,0,0,0,0,0,0,0,0,0,0,0,
0,0,0,0,0,0,0,0,0,0,0,0,0,0,0,0
</chunk>
  </data>
 </layer>
 <layer id="4" name="part_of_city_floor" width="16" height="24">
  <data encoding="csv">
   <chunk x="-16" y="-16" width="16" height="16">
0,0,0,0,0,0,0,0,0,0,0,0,0,0,0,0,
0,0,0,0,0,0,0,0,0,0,0,0,0,0,0,0,
0,0,0,0,0,0,0,0,0,0,0,0,0,0,0,0,
0,0,0,0,0,0,0,0,0,0,0,0,0,0,0,0,
0,0,0,0,0,0,0,0,0,0,0,0,0,0,0,0,
0,0,0,0,0,0,0,0,0,0,0,0,0,0,0,0,
0,0,0,0,0,0,0,0,0,0,0,0,0,0,0,0,
0,0,0,0,0,0,0,0,0,0,0,0,0,0,0,0,
0,0,0,0,0,0,0,0,0,0,0,0,0,0,0,0,
0,0,0,0,0,0,0,0,0,0,0,0,0,0,0,0,
0,0,0,0,0,0,0,0,0,0,0,0,0,0,0,0,
0,0,0,0,0,0,0,0,0,0,0,0,0,4526,4526,4526,
0,0,0,0,0,0,0,0,0,0,0,0,0,4526,4572,4573,
0,0,0,0,0,0,0,0,0,0,0,0,0,4526,4586,4587,
0,0,0,0,0,0,0,0,0,0,0,0,0,4611,4612,0,
0,0,0,0,0,0,0,0,0,0,0,0,0,4564,4565,0
</chunk>
   <chunk x="0" y="-16" width="16" height="16">
0,0,0,0,0,0,0,0,0,0,0,0,0,0,0,0,
0,0,0,0,0,0,0,0,0,0,0,0,0,0,0,0,
0,0,0,0,0,0,0,0,0,0,0,0,0,0,0,0,
0,0,0,0,0,0,0,0,0,0,0,0,0,0,0,0,
0,0,0,0,0,0,0,0,0,0,0,0,0,0,0,0,
0,0,0,0,0,0,0,0,0,0,0,0,0,0,0,0,
0,0,0,0,0,0,0,0,0,0,0,0,0,0,0,0,
0,0,0,0,0,0,0,0,0,0,0,0,0,0,0,0,
0,0,0,0,0,0,0,0,0,0,0,0,0,0,0,0,
0,0,0,0,0,0,0,0,0,0,0,0,0,0,0,0,
0,0,0,0,0,0,0,0,0,0,0,0,0,0,0,0,
4586,4587,0,0,0,0,0,0,0,0,0,0,0,0,0,0,
4612,0,0,0,0,0,0,0,0,0,0,0,0,0,0,0,
0,0,0,0,0,0,0,0,0,0,0,0,0,0,0,0,
0,0,0,0,0,0,0,0,0,0,0,0,0,0,0,0,
0,0,0,0,0,0,0,0,0,0,0,0,0,0,0,0
</chunk>
  </data>
 </layer>
 <layer id="12" name="piles_bottom" width="16" height="24">
  <data encoding="csv">
   <chunk x="-16" y="0" width="16" height="16">
0,0,0,0,0,0,0,0,0,0,0,0,0,0,0,0,
0,0,0,0,0,0,0,0,0,0,0,0,0,0,0,0,
0,0,0,0,0,0,0,0,0,0,0,0,0,0,0,0,
0,0,0,0,0,0,0,0,0,0,0,0,0,0,0,0,
0,0,0,0,0,0,0,0,0,0,0,0,0,0,0,0,
0,0,0,0,0,0,0,0,0,0,0,0,0,0,0,0,
0,0,0,0,0,0,0,0,0,0,0,0,0,0,0,4862,
0,0,0,0,0,0,0,0,0,0,0,0,0,0,0,4865,
0,0,0,0,0,0,0,0,0,0,0,0,0,0,0,0,
0,0,0,0,0,0,0,0,0,0,0,0,0,0,0,0,
0,0,0,0,0,0,0,0,0,0,0,0,0,0,0,0,
0,0,0,0,0,0,0,0,0,0,0,0,0,0,0,0,
0,0,0,0,0,0,0,0,0,0,0,0,0,0,0,0,
0,0,0,0,0,0,0,0,0,0,0,0,0,0,0,0,
0,0,0,0,0,0,0,0,0,0,0,0,0,0,0,0,
0,0,0,0,0,0,0,0,0,0,0,0,0,0,0,0
</chunk>
   <chunk x="0" y="0" width="16" height="16">
0,0,0,0,0,0,0,0,0,0,0,0,0,0,0,0,
0,0,0,0,0,0,0,0,0,0,0,0,0,0,0,0,
0,0,0,0,0,0,0,0,0,0,0,0,0,0,0,0,
0,0,0,0,0,0,0,0,0,0,0,0,0,0,0,0,
0,0,0,0,0,0,0,0,0,0,0,0,0,0,0,0,
0,0,0,0,0,0,0,0,0,0,0,0,0,0,0,0,
0,4862,0,0,0,0,0,0,4861,0,4861,0,4861,0,4861,0,
0,4865,0,0,0,0,0,0,4864,0,4864,0,4864,0,4864,0,
0,0,0,0,0,0,0,0,0,0,0,0,0,0,0,0,
0,0,0,0,0,0,0,0,0,0,0,0,0,0,0,0,
0,0,0,0,0,0,0,0,0,0,0,0,0,0,0,0,
0,0,0,0,0,0,0,0,0,0,0,0,0,0,0,0,
0,0,0,0,0,0,0,0,0,0,0,0,0,0,0,0,
0,0,0,0,0,0,0,0,0,0,0,0,0,0,0,0,
0,0,0,0,0,0,0,0,0,0,0,0,0,0,0,0,
0,0,0,0,0,0,0,0,0,0,0,0,0,0,0,0
</chunk>
   <chunk x="16" y="0" width="16" height="16">
0,0,0,0,0,0,0,0,0,0,0,0,0,0,0,0,
0,0,0,0,0,0,0,0,0,0,0,0,0,0,0,0,
0,0,0,0,0,0,0,0,0,0,0,0,0,0,0,0,
0,0,0,0,0,0,0,0,0,0,0,0,0,0,0,0,
4861,0,4861,0,4861,0,4861,0,0,0,0,0,0,0,0,0,
4864,0,4864,0,4864,0,4864,0,0,0,0,0,0,0,0,0,
0,0,0,0,0,0,0,0,0,0,0,0,0,0,0,0,
0,0,0,0,0,0,0,0,0,0,0,0,0,0,0,0,
0,0,0,0,0,0,0,0,0,0,0,0,0,0,0,0,
0,0,0,0,0,0,0,0,0,0,0,0,0,0,0,0,
0,0,0,0,0,0,0,0,0,0,0,0,0,0,0,0,
0,0,0,0,0,0,0,0,0,0,0,0,0,0,0,0,
0,0,0,0,0,0,0,0,0,0,0,0,0,0,0,0,
0,0,0,0,0,0,0,0,0,0,0,0,0,0,0,0,
0,0,0,0,0,0,0,0,0,0,0,0,0,0,0,0,
0,0,0,0,0,0,0,0,0,0,0,0,0,0,0,0
</chunk>
  </data>
 </layer>
 <layer id="22" name="Big_boat1" width="16" height="24">
  <data encoding="csv">
   <chunk x="0" y="-16" width="16" height="16">
0,0,0,0,0,0,0,0,0,0,0,0,0,0,0,0,
0,0,0,0,0,0,0,0,0,0,0,0,0,0,0,0,
0,0,0,0,0,0,0,0,0,0,0,0,0,0,0,0,
0,0,0,0,0,0,0,0,0,0,0,0,0,0,0,0,
0,0,0,0,0,0,0,0,0,0,0,0,0,0,0,0,
0,0,0,0,0,0,0,0,0,0,0,0,0,0,0,0,
0,0,0,0,0,0,0,0,0,0,0,0,0,0,0,0,
0,0,0,0,0,0,0,0,0,0,0,0,0,0,0,0,
0,0,0,0,0,0,0,0,0,0,0,0,0,0,0,0,
0,0,0,0,0,0,0,0,0,0,0,0,0,0,0,0,
0,0,0,0,0,0,0,0,0,0,0,0,0,0,0,0,
0,0,0,0,0,0,0,0,0,0,0,0,0,0,0,0,
0,0,0,0,0,0,0,0,0,0,0,0,0,0,0,8469,
0,0,0,0,0,0,0,0,0,0,0,0,0,0,0,8513,
0,0,0,0,0,0,0,0,0,0,0,0,0,0,0,8557,
0,0,0,0,0,0,0,0,0,0,0,0,0,0,0,8601
</chunk>
   <chunk x="16" y="-16" width="16" height="16">
0,0,0,0,0,0,0,0,0,0,0,0,0,0,0,0,
0,0,0,0,0,0,0,0,0,0,0,0,0,0,0,0,
0,0,0,0,0,0,0,0,0,0,0,0,0,0,0,0,
0,0,0,0,0,0,0,0,0,0,0,0,0,0,0,0,
0,0,0,0,0,0,0,0,0,0,0,0,0,0,0,0,
0,0,0,0,0,0,0,0,0,0,0,0,0,0,0,0,
0,0,0,0,0,0,0,0,0,0,0,0,0,0,0,0,
0,0,0,0,0,0,0,0,0,0,0,0,0,0,0,0,
0,0,0,0,0,0,0,0,0,0,0,0,0,0,0,0,
0,0,0,0,0,0,0,0,0,0,0,0,0,0,0,0,
0,0,0,0,0,0,0,0,0,0,0,0,0,0,0,0,
0,0,0,0,0,0,0,8433,0,0,0,0,0,0,0,0,
8470,8471,8472,8473,8474,8475,8476,8477,8478,8479,0,0,0,0,0,0,
8514,8515,8516,8517,8518,8519,8520,8521,8522,8523,0,0,0,0,0,0,
8558,8559,8560,8561,8562,8563,8564,8565,8566,8567,0,0,0,0,0,0,
8602,8603,8604,8605,8606,8607,8608,8609,8610,8611,0,0,0,0,0,0
</chunk>
   <chunk x="0" y="0" width="16" height="16">
0,0,0,0,0,0,0,0,0,0,0,0,0,0,0,8645,
0,0,0,0,0,0,0,0,0,0,0,0,0,0,0,8689,
0,0,0,0,0,0,0,0,0,0,0,0,0,0,0,8733,
0,0,0,0,0,0,0,0,0,0,0,0,0,0,0,0,
0,0,0,0,0,0,0,0,0,0,0,0,0,0,0,0,
0,0,0,0,0,0,0,0,0,0,0,0,0,0,0,0,
0,0,0,0,0,0,0,0,0,0,0,0,0,0,0,0,
0,0,0,0,0,0,0,0,0,0,0,0,0,0,0,0,
0,0,0,0,0,0,0,0,0,0,0,0,0,0,0,0,
0,0,0,0,0,0,0,0,0,0,0,0,0,0,0,0,
0,0,0,0,0,0,0,0,0,0,0,0,0,0,0,0,
0,0,0,0,0,0,0,0,0,0,0,0,0,0,0,0,
0,0,0,0,0,0,0,0,0,0,0,0,0,0,0,0,
0,0,0,0,0,0,0,0,0,0,0,0,0,0,0,0,
0,0,0,0,0,0,0,0,0,0,0,0,0,0,0,0,
0,0,0,0,0,0,0,0,0,0,0,0,0,0,0,0
</chunk>
   <chunk x="16" y="0" width="16" height="16">
8646,8647,8648,8649,8650,8651,8652,8653,8654,8655,0,0,0,0,0,0,
8690,8691,8692,8693,8694,8695,8696,8697,8698,8699,0,0,0,0,0,0,
8734,8735,8736,8737,8738,8739,8740,8741,8742,8743,0,0,0,0,0,0,
0,0,0,0,0,0,0,0,0,0,0,0,0,0,0,0,
0,0,0,0,0,0,0,0,0,0,0,0,0,0,0,0,
0,0,0,0,0,0,0,0,0,0,0,0,0,0,0,0,
0,0,0,0,0,0,0,0,0,0,0,0,0,0,0,0,
0,0,0,0,0,0,0,0,0,0,0,0,0,0,0,0,
0,0,0,0,0,0,0,0,0,0,0,0,0,0,0,0,
0,0,0,0,0,0,0,0,0,0,0,0,0,0,0,0,
0,0,0,0,0,0,0,0,0,0,0,0,0,0,0,0,
0,0,0,0,0,0,0,0,0,0,0,0,0,0,0,0,
0,0,0,0,0,0,0,0,0,0,0,0,0,0,0,0,
0,0,0,0,0,0,0,0,0,0,0,0,0,0,0,0,
0,0,0,0,0,0,0,0,0,0,0,0,0,0,0,0,
0,0,0,0,0,0,0,0,0,0,0,0,0,0,0,0
</chunk>
  </data>
 </layer>
 <layer id="10" name="floor" width="16" height="24">
  <data encoding="csv">
   <chunk x="-16" y="-16" width="16" height="16">
0,0,0,0,0,0,0,0,0,0,0,0,0,0,0,0,
0,0,0,0,0,0,0,0,0,0,0,0,0,0,0,0,
0,0,0,0,0,0,0,0,0,0,0,0,0,0,0,0,
0,0,0,0,0,0,0,0,0,0,0,0,0,0,0,0,
0,0,0,0,0,0,0,0,0,0,0,0,0,0,0,0,
0,0,0,0,0,0,0,0,0,0,0,0,0,0,0,0,
0,0,0,0,0,0,0,0,0,0,0,0,0,0,0,0,
0,0,0,0,0,0,0,0,0,0,0,0,0,0,0,0,
0,0,0,0,0,0,0,0,0,0,0,0,0,0,0,0,
0,0,0,0,0,0,0,0,0,0,0,0,0,0,0,0,
0,0,0,0,0,0,0,0,0,0,0,0,0,0,0,0,
0,0,0,0,0,0,0,0,0,0,0,0,0,0,0,0,
0,0,0,0,0,0,0,0,0,0,0,0,0,0,0,0,
0,0,0,0,0,0,0,0,0,0,0,0,0,0,0,0,
0,0,0,0,0,0,0,0,0,0,0,0,0,0,0,0,
0,0,0,0,0,0,0,0,0,0,0,0,0,0,0,4676
</chunk>
   <chunk x="0" y="-16" width="16" height="16">
0,0,0,0,0,0,0,0,0,0,0,0,0,0,0,0,
0,0,0,0,0,0,0,0,0,0,0,0,0,0,0,0,
0,0,0,0,0,0,0,0,0,0,0,0,0,0,0,0,
0,0,0,0,0,0,0,0,0,0,0,0,0,0,0,0,
0,0,0,0,0,0,0,0,0,0,0,0,0,0,0,0,
0,0,0,0,0,0,0,0,0,0,0,0,0,0,0,0,
0,0,0,0,0,0,0,0,0,0,0,0,0,0,0,0,
0,0,0,0,0,0,0,0,0,0,0,0,0,0,0,0,
0,0,0,0,0,0,0,0,0,0,0,0,0,0,0,0,
0,0,0,0,0,0,0,0,0,0,0,0,0,0,0,0,
0,0,0,0,0,0,0,0,0,0,0,0,0,0,0,0,
0,0,0,0,0,0,0,0,0,0,0,0,0,0,0,0,
0,0,0,0,0,0,0,0,0,0,0,0,0,0,0,0,
0,0,0,0,0,0,0,0,0,0,0,0,0,0,0,0,
0,0,0,0,0,0,0,0,0,0,0,0,0,0,0,0,
4677,4677,4677,4677,4677,4677,4677,4665,4677,4649,4359,4369,4363,4360,4370,0
</chunk>
   <chunk x="-16" y="0" width="16" height="16">
0,0,0,0,0,0,0,0,0,0,0,0,0,0,0,4690,
0,0,0,0,0,0,0,0,0,0,0,0,0,0,0,4679,
0,0,0,0,0,0,0,0,0,0,0,0,0,0,0,4683,
0,0,0,0,0,0,0,0,0,0,0,0,0,0,0,4690,
0,0,0,0,0,0,0,0,0,0,0,0,0,0,0,4690,
0,0,0,0,0,0,0,0,0,0,0,0,0,0,0,4663,
0,0,0,0,0,0,0,0,0,0,0,0,0,0,0,4396,
0,0,0,0,0,0,0,0,0,0,0,0,0,0,0,0,
0,0,0,0,0,0,0,0,0,0,0,0,0,0,0,0,
0,0,0,0,0,0,0,0,0,0,0,0,0,0,0,0,
0,0,0,0,0,0,0,0,0,0,0,0,0,0,0,0,
0,0,0,0,0,0,0,0,0,0,0,0,0,0,0,0,
0,0,0,0,0,0,0,0,0,0,0,0,0,0,0,0,
0,0,0,0,0,0,0,0,0,0,0,0,0,0,0,0,
0,0,0,0,0,0,0,0,0,0,0,0,0,0,0,0,
0,0,0,0,0,0,0,0,0,0,0,0,0,0,0,0
</chunk>
   <chunk x="0" y="0" width="16" height="16">
4371,4372,4373,4374,4375,4376,4377,4371,4372,4373,4374,4375,4376,4377,4410,4411,
4385,4386,4387,4388,4389,4390,4391,4385,4386,4387,4388,4389,4390,4391,4424,4425,
4377,4373,4374,4375,4371,4372,4373,4374,4375,4376,4377,4377,4372,4373,4438,4439,
4391,4387,4388,4389,4385,4386,4387,4388,4389,4390,4391,4391,4386,4387,4452,4453,
4371,4372,4371,4372,4373,4374,4375,4376,4377,4376,4377,4372,4373,4374,4466,4467,
4385,4386,4385,4386,4387,4388,4389,4390,4391,4390,4391,4386,4387,4388,4395,0,
4399,4397,4400,4493,4494,4495,4496,4401,4402,4397,4403,4397,4400,4401,4398,0,
0,0,0,4507,4508,4509,4510,0,0,0,0,0,0,0,0,0,
0,0,0,4382,4371,4372,4384,0,0,0,0,0,0,0,0,0,
0,0,0,4382,4385,4386,4379,0,0,0,0,0,0,0,0,0,
0,0,0,4378,4373,4374,4384,0,0,0,0,0,0,0,0,0,
0,0,0,4396,4397,4401,4398,0,0,0,0,0,0,0,0,0,
0,0,0,0,0,0,0,0,0,0,0,0,0,0,0,0,
0,0,0,0,0,0,0,0,0,0,0,0,0,0,0,0,
0,0,0,0,0,0,0,0,0,0,0,0,0,0,0,0,
0,0,0,0,0,0,0,0,0,0,0,0,0,0,0,0
</chunk>
   <chunk x="16" y="0" width="16" height="16">
0,0,0,0,0,0,0,0,0,0,0,0,0,0,0,0,
4369,4369,4361,4369,4361,4369,4370,0,0,0,0,0,0,0,0,0,
4371,4372,4373,4374,4375,4376,4409,0,0,0,0,0,0,0,0,0,
4386,4386,4387,4388,4389,4390,4384,0,0,0,0,0,0,0,0,0,
4397,4397,4405,4397,4404,4397,4398,0,0,0,0,0,0,0,0,0,
0,0,0,0,0,0,0,0,0,0,0,0,0,0,0,0,
0,0,0,0,0,0,0,0,0,0,0,0,0,0,0,0,
0,0,0,0,0,0,0,0,0,0,0,0,0,0,0,0,
0,0,0,0,0,0,0,0,0,0,0,0,0,0,0,0,
0,0,0,0,0,0,0,0,0,0,0,0,0,0,0,0,
0,0,0,0,0,0,0,0,0,0,0,0,0,0,0,0,
0,0,0,0,0,0,0,0,0,0,0,0,0,0,0,0,
0,0,0,0,0,0,0,0,0,0,0,0,0,0,0,0,
0,0,0,0,0,0,0,0,0,0,0,0,0,0,0,0,
0,0,0,0,0,0,0,0,0,0,0,0,0,0,0,0,
0,0,0,0,0,0,0,0,0,0,0,0,0,0,0,0
</chunk>
  </data>
 </layer>
 <layer id="31" name="Piles_top_back" width="16" height="24">
  <data encoding="csv">
   <chunk x="0" y="-16" width="16" height="16">
0,0,0,0,0,0,0,0,0,0,0,0,0,0,0,0,
0,0,0,0,0,0,0,0,0,0,0,0,0,0,0,0,
0,0,0,0,0,0,0,0,0,0,0,0,0,0,0,0,
0,0,0,0,0,0,0,0,0,0,0,0,0,0,0,0,
0,0,0,0,0,0,0,0,0,0,0,0,0,0,0,0,
0,0,0,0,0,0,0,0,0,0,0,0,0,0,0,0,
0,0,0,0,0,0,0,0,0,0,0,0,0,0,0,0,
0,0,0,0,0,0,0,0,0,0,0,0,0,0,0,0,
0,0,0,0,0,0,0,0,0,0,0,0,0,0,0,0,
0,0,0,0,0,0,0,0,0,0,0,0,0,0,0,0,
0,0,0,0,0,0,0,0,0,0,0,0,0,0,0,0,
0,0,0,0,0,0,0,0,0,0,0,0,0,0,0,0,
0,0,0,0,0,0,0,0,0,0,0,0,0,0,0,0,
0,0,0,0,0,0,0,0,0,0,0,0,0,0,0,0,
0,0,0,0,0,0,0,0,0,0,4492,0,4492,0,4492,0,
0,0,0,0,0,0,0,0,0,0,4506,0,4506,0,4506,0
</chunk>
   <chunk x="0" y="0" width="16" height="16">
0,0,0,0,0,0,0,0,0,0,0,0,0,0,0,0,
0,0,0,0,0,0,0,0,0,0,0,0,0,0,0,0,
0,0,0,0,0,0,0,0,0,0,0,0,0,0,0,0,
0,0,0,0,0,0,0,0,0,0,0,0,0,0,0,0,
0,0,0,0,0,0,0,0,0,0,0,0,0,0,0,0,
0,0,0,0,0,0,0,0,0,0,0,0,0,0,0,0,
0,0,0,4486,0,0,0,0,0,0,0,0,0,0,0,0,
0,0,0,4500,0,0,0,0,0,0,0,0,0,0,0,0,
0,0,0,0,0,0,0,0,0,0,0,0,0,0,0,0,
0,0,0,0,0,0,0,0,0,0,0,0,0,0,0,0,
0,0,0,0,0,0,0,0,0,0,0,0,0,0,0,0,
0,0,0,0,0,0,0,0,0,0,0,0,0,0,0,0,
0,0,0,0,0,0,0,0,0,0,0,0,0,0,0,0,
0,0,0,0,0,0,0,0,0,0,0,0,0,0,0,0,
0,0,0,0,0,0,0,0,0,0,0,0,0,0,0,0,
0,0,0,0,0,0,0,0,0,0,0,0,0,0,0,0
</chunk>
   <chunk x="16" y="0" width="16" height="16">
4492,0,4492,0,4492,0,4492,0,0,0,0,0,0,0,0,0,
4506,0,4506,0,4506,0,4506,0,0,0,0,0,0,0,0,0,
0,0,0,0,0,0,0,0,0,0,0,0,0,0,0,0,
0,0,0,0,0,0,0,0,0,0,0,0,0,0,0,0,
0,0,0,0,0,0,0,0,0,0,0,0,0,0,0,0,
0,0,0,0,0,0,0,0,0,0,0,0,0,0,0,0,
0,0,0,0,0,0,0,0,0,0,0,0,0,0,0,0,
0,0,0,0,0,0,0,0,0,0,0,0,0,0,0,0,
0,0,0,0,0,0,0,0,0,0,0,0,0,0,0,0,
0,0,0,0,0,0,0,0,0,0,0,0,0,0,0,0,
0,0,0,0,0,0,0,0,0,0,0,0,0,0,0,0,
0,0,0,0,0,0,0,0,0,0,0,0,0,0,0,0,
0,0,0,0,0,0,0,0,0,0,0,0,0,0,0,0,
0,0,0,0,0,0,0,0,0,0,0,0,0,0,0,0,
0,0,0,0,0,0,0,0,0,0,0,0,0,0,0,0,
0,0,0,0,0,0,0,0,0,0,0,0,0,0,0,0
</chunk>
  </data>
 </layer>
 <layer id="21" name="Big_boat2" width="16" height="24">
  <data encoding="csv">
   <chunk x="0" y="0" width="16" height="16">
0,0,0,0,0,0,0,0,0,0,0,0,0,0,0,0,
0,0,0,0,0,0,0,0,0,0,0,0,0,0,0,0,
0,0,0,0,0,0,0,0,0,0,0,0,0,0,0,0,
0,0,0,0,0,0,0,0,0,0,0,0,0,0,0,0,
0,0,0,0,0,0,0,0,0,0,0,0,0,0,0,0,
0,0,0,0,0,0,0,0,0,0,0,0,0,0,0,0,
0,0,0,0,0,0,0,0,0,0,0,0,0,0,0,0,
0,0,0,0,0,7585,7586,7587,7588,7589,7590,7591,7592,7593,7594,0,
0,0,0,0,0,7625,7626,7627,7628,7629,7630,7631,7632,7633,7634,0,
0,0,0,0,0,7665,7666,7667,7668,7669,7670,7671,7672,7673,7674,0,
0,0,0,0,0,7705,7706,7707,7708,7709,7710,7711,7712,7713,7714,0,
0,0,0,0,0,7745,7746,7747,7748,7749,7750,7751,7752,7753,7754,0,
0,0,0,0,0,7785,7786,7787,7788,7789,7790,7791,7792,7793,7794,0,
0,0,0,0,0,7825,7826,7827,7828,7829,7830,7831,7832,7833,7834,0,
0,0,0,0,0,0,0,0,0,0,0,0,0,0,0,0,
0,0,0,0,0,0,0,0,0,0,0,0,0,0,0,0
</chunk>
  </data>
 </layer>
 <layer id="20" name="Fish" width="16" height="24">
  <data encoding="csv">
   <chunk x="16" y="-16" width="16" height="16">
0,0,0,0,0,0,0,0,0,0,0,0,0,0,0,0,
0,0,0,0,0,0,0,0,0,0,0,0,0,0,0,0,
0,0,0,0,0,0,0,0,0,0,0,0,0,0,0,0,
0,0,0,0,0,0,0,0,0,0,0,0,0,0,0,0,
0,0,0,0,0,0,0,0,0,0,0,0,0,0,0,0,
0,0,0,0,0,0,0,0,0,0,0,0,0,0,0,0,
0,0,0,0,0,0,0,0,0,0,0,0,0,0,0,0,
0,0,0,0,0,0,0,0,0,0,0,0,0,0,0,0,
0,0,0,0,0,0,0,0,0,0,0,0,0,0,0,0,
0,0,0,0,0,0,0,0,0,0,0,0,0,0,0,0,
0,0,0,0,0,0,0,0,0,0,0,0,0,0,0,0,
0,0,0,0,0,0,0,0,0,0,0,0,0,0,0,0,
0,0,7045,7046,0,0,0,0,0,0,0,0,0,0,0,0,
0,0,7063,7064,0,0,0,0,0,0,0,0,0,0,0,0,
0,0,0,0,0,0,0,0,0,0,0,0,0,0,0,0,
0,0,0,0,0,0,0,0,0,0,0,0,0,0,0,0
</chunk>
   <chunk x="-16" y="0" width="16" height="16">
0,0,0,0,0,0,0,0,0,0,0,0,0,0,0,0,
0,0,0,0,0,0,0,0,0,0,0,0,0,0,0,0,
0,0,0,0,0,0,0,0,0,0,0,0,0,0,0,0,
0,0,0,0,0,0,0,0,0,0,0,0,0,0,0,0,
0,0,0,0,0,0,0,0,0,0,0,0,0,0,0,0,
0,0,0,0,0,0,0,0,0,0,0,0,0,0,0,0,
0,0,0,0,0,0,0,0,0,0,0,0,0,0,0,0,
0,0,0,0,0,0,0,0,0,0,0,0,0,0,0,0,
0,0,0,0,0,0,0,0,0,0,0,0,0,0,0,0,
0,0,0,0,0,0,0,0,0,0,0,0,0,0,0,0,
0,0,0,0,0,0,0,0,0,0,0,0,0,0,0,0,
0,0,0,0,0,0,0,0,0,0,0,0,0,0,2147490605,2147490604,
0,0,0,0,0,0,0,0,0,0,0,0,0,0,2147490632,2147490631,
0,0,0,0,0,0,0,0,0,0,0,0,0,0,0,0,
0,0,0,0,0,0,0,0,0,0,0,0,0,0,0,0,
0,0,0,0,0,0,0,0,0,0,0,0,0,0,0,0
</chunk>
   <chunk x="0" y="0" width="16" height="16">
0,0,0,0,0,0,0,0,0,0,0,0,0,0,0,0,
0,0,0,0,0,0,0,0,0,0,0,0,0,0,0,0,
0,0,0,0,0,0,0,0,0,0,0,0,0,0,0,0,
0,0,0,0,0,0,0,0,0,0,0,0,0,0,0,0,
0,0,0,0,0,0,0,0,0,0,0,0,0,0,0,0,
0,0,0,0,0,0,0,0,0,0,0,0,0,0,0,0,
0,0,0,0,0,0,0,0,0,0,0,0,0,0,0,0,
0,0,0,0,0,0,0,0,0,0,0,0,0,0,0,0,
0,0,0,0,0,0,0,0,0,0,0,0,0,0,0,0,
0,0,0,0,0,0,0,0,0,0,0,0,0,0,0,0,
0,0,0,0,0,0,0,0,0,0,0,0,0,0,0,0,
2147490603,0,0,0,0,0,0,0,0,0,0,0,0,0,0,0,
2147490630,0,0,0,0,0,0,0,0,0,0,0,0,0,0,0,
0,0,0,0,0,0,0,0,0,0,0,0,0,0,0,0,
0,0,0,0,0,0,0,0,0,0,0,0,0,0,0,0,
0,0,0,0,0,0,0,0,0,0,0,0,0,0,0,0
</chunk>
   <chunk x="16" y="0" width="16" height="16">
0,0,0,0,0,0,0,0,0,0,0,0,0,0,0,0,
0,0,0,0,0,0,0,0,0,0,0,0,0,0,0,0,
0,0,0,0,0,0,0,0,0,0,0,0,0,0,0,0,
0,0,0,0,0,0,0,0,7009,7010,0,0,0,0,0,0,
0,0,0,0,0,0,0,0,7027,7028,0,0,0,0,0,0,
0,0,0,0,0,0,0,0,0,0,0,0,0,0,0,0,
0,0,0,0,0,0,0,0,0,0,0,0,0,0,0,0,
0,0,0,0,0,0,0,0,0,0,0,0,0,0,0,0,
0,0,0,0,0,0,0,0,0,0,0,0,0,0,0,0,
2147490694,2147490693,0,0,0,0,0,0,0,0,0,0,0,0,0,0,
2147490712,2147490711,0,0,0,0,0,0,0,0,0,0,0,0,0,0,
0,0,0,0,6901,6902,6903,0,0,0,0,0,0,0,0,0,
0,0,0,0,6928,6929,6930,0,0,0,0,0,0,0,0,0,
0,0,0,0,0,0,0,0,0,0,0,0,0,0,0,0,
0,0,0,0,0,0,0,0,0,0,0,0,0,0,0,0,
0,0,0,0,0,0,0,0,0,0,0,0,0,0,0,0
</chunk>
  </data>
 </layer>
 <layer id="27" name="Objects1" width="16" height="24">
  <data encoding="csv">
   <chunk x="-16" y="-16" width="16" height="16">
0,0,0,0,0,0,0,0,0,0,0,0,0,0,0,0,
0,0,0,0,0,0,0,0,0,0,0,0,0,0,0,0,
0,0,0,0,0,0,0,0,0,0,0,0,0,0,0,0,
0,0,0,0,0,0,0,0,0,0,0,0,0,0,0,0,
0,0,0,0,0,0,0,0,0,0,0,0,0,0,0,0,
0,0,0,0,0,0,0,0,0,0,0,0,0,0,0,0,
0,0,0,0,0,0,0,0,0,0,0,0,0,0,0,0,
0,0,0,0,0,0,0,0,0,0,0,0,0,0,0,0,
0,0,0,0,0,0,0,0,0,0,0,0,0,0,0,0,
0,0,0,0,0,0,0,0,0,0,0,0,0,0,0,0,
0,0,0,0,0,0,0,0,0,0,0,0,0,0,0,0,
0,0,0,0,0,0,0,0,0,0,0,0,0,0,0,0,
0,0,0,0,0,0,0,0,0,0,0,0,0,0,0,9853,
0,0,0,0,0,0,0,0,0,0,0,0,0,0,0,9868,
0,0,0,0,0,0,0,0,0,0,0,0,0,0,0,9883,
0,0,0,0,0,0,0,0,0,0,0,0,0,0,0,9898
</chunk>
   <chunk x="0" y="-16" width="16" height="16">
0,0,0,0,0,0,0,0,0,0,0,0,0,0,0,0,
0,0,0,0,0,0,0,0,0,0,0,0,0,0,0,0,
0,0,0,0,0,0,0,0,0,0,0,0,0,0,0,0,
0,0,0,0,0,0,0,0,0,0,0,0,0,0,0,0,
0,0,0,0,0,0,0,0,0,0,0,0,0,0,0,0,
0,0,0,0,0,0,0,0,0,0,0,0,0,0,0,0,
0,0,0,0,0,0,0,0,0,0,0,0,0,0,0,0,
0,0,0,0,0,0,0,0,0,0,0,0,0,0,0,0,
0,0,0,0,0,0,0,0,0,0,0,0,0,0,0,0,
0,0,0,0,0,0,0,0,0,0,0,0,0,0,0,0,
0,0,0,0,0,0,0,0,0,0,0,0,0,0,0,0,
0,0,0,0,0,0,0,0,0,0,0,0,0,0,0,0,
9854,9855,9856,9857,9858,9859,9860,0,0,0,0,0,0,0,0,0,
9869,9870,9871,9872,9873,9874,9875,0,0,0,0,0,0,0,0,0,
9884,9885,9886,9887,9888,9889,9890,0,0,0,0,10183,10184,10185,10186,0,
9899,9900,9901,9902,9903,9904,9905,0,0,0,0,10198,10199,10200,10201,0
</chunk>
   <chunk x="-16" y="0" width="16" height="16">
0,0,0,0,0,0,0,0,0,0,0,0,0,0,0,9913,
0,0,0,0,0,0,0,0,0,0,0,0,0,0,0,9928,
0,0,0,0,0,0,0,0,0,0,0,0,0,0,0,9943,
0,0,0,0,0,0,0,0,0,0,0,0,0,0,0,10117,
0,0,0,0,0,0,0,0,0,0,0,0,0,0,0,10132,
0,0,0,0,0,0,0,0,0,0,0,0,0,0,0,10147,
0,0,0,0,0,0,0,0,0,0,0,0,0,0,0,0,
0,0,0,0,0,0,0,0,0,0,0,0,0,0,0,0,
0,0,0,0,0,0,0,0,0,0,0,0,0,0,0,0,
0,0,0,0,0,0,0,0,0,0,0,0,0,0,0,0,
0,0,0,0,0,0,0,0,0,0,0,0,0,0,0,0,
0,0,0,0,0,0,0,0,0,0,0,0,0,0,0,0,
0,0,0,0,0,0,0,0,0,0,0,0,0,0,0,0,
0,0,0,0,0,0,0,0,0,0,0,0,0,0,0,0,
0,0,0,0,0,0,0,0,0,0,0,0,0,0,0,0,
0,0,0,0,0,0,0,0,0,0,0,0,0,0,0,0
</chunk>
   <chunk x="0" y="0" width="16" height="16">
9914,9915,9916,9917,9918,9919,9920,0,0,0,0,10213,10214,10215,10216,0,
9929,10523,10528,10529,10532,9934,9935,0,0,0,0,0,0,0,0,0,
9944,9945,10537,10538,9948,9949,9950,0,0,0,0,0,0,0,0,0,
10118,10119,10120,10121,0,0,0,0,10187,10188,10189,10228,10229,10230,0,0,
10133,10134,10135,10136,0,0,0,0,10202,10203,10204,10243,10244,10245,0,0,
10148,10149,10150,10151,0,0,0,0,10217,10218,10219,10258,10259,10260,0,0,
0,0,0,10328,10329,10330,0,0,0,0,0,0,0,0,0,0,
0,0,0,10343,10344,10345,0,0,0,0,0,0,0,0,0,0,
0,0,0,10358,10359,10360,0,0,0,0,0,0,0,0,0,0,
0,0,0,0,0,0,0,0,0,0,0,0,0,0,0,0,
0,0,0,0,0,0,0,0,0,0,0,0,0,0,0,0,
0,0,0,0,0,0,0,0,0,0,0,0,0,0,0,0,
0,0,0,0,0,0,0,0,0,0,0,0,0,0,0,0,
0,0,0,0,0,0,0,0,0,0,0,0,0,0,0,0,
0,0,0,0,0,0,0,0,0,0,0,0,0,0,0,0,
0,0,0,0,0,0,0,0,0,0,0,0,0,0,0,0
</chunk>
   <chunk x="16" y="0" width="16" height="16">
10239,10240,10241,10242,0,0,0,0,0,0,0,0,0,0,0,0,
10254,10255,10256,10257,0,0,0,0,0,0,0,0,0,0,0,0,
10269,10270,10271,10272,0,0,0,0,0,0,0,0,0,0,0,0,
0,0,0,0,0,0,0,0,0,0,0,0,0,0,0,0,
0,0,0,0,0,0,0,0,0,0,0,0,0,0,0,0,
0,0,0,0,0,0,0,0,0,0,0,0,0,0,0,0,
0,0,0,0,0,0,0,0,0,0,0,0,0,0,0,0,
0,0,0,0,0,0,0,0,0,0,0,0,0,0,0,0,
0,0,0,0,0,0,0,0,0,0,0,0,0,0,0,0,
0,0,0,0,0,0,0,0,0,0,0,0,0,0,0,0,
0,0,0,0,0,0,0,0,0,0,0,0,0,0,0,0,
0,0,0,0,0,0,0,0,0,0,0,0,0,0,0,0,
0,0,0,0,0,0,0,0,0,0,0,0,0,0,0,0,
0,0,0,0,0,0,0,0,0,0,0,0,0,0,0,0,
0,0,0,0,0,0,0,0,0,0,0,0,0,0,0,0,
0,0,0,0,0,0,0,0,0,0,0,0,0,0,0,0
</chunk>
  </data>
 </layer>
 <layer id="28" name="Objects2" width="16" height="24">
  <data encoding="csv">
   <chunk x="0" y="-16" width="16" height="16">
0,0,0,0,0,0,0,0,0,0,0,0,0,0,0,0,
0,0,0,0,0,0,0,0,0,0,0,0,0,0,0,0,
0,0,0,0,0,0,0,0,0,0,0,0,0,0,0,0,
0,0,0,0,0,0,0,0,0,0,0,0,0,0,0,0,
0,0,0,0,0,0,0,0,0,0,0,0,0,0,0,0,
0,0,0,0,0,0,0,0,0,0,0,0,0,0,0,0,
0,0,0,0,0,0,0,0,0,0,0,0,0,0,0,0,
0,0,0,0,0,0,0,0,0,0,0,0,0,0,0,0,
0,0,0,0,0,0,0,0,0,0,0,0,0,0,0,0,
0,0,0,0,0,0,0,0,0,0,0,0,0,0,0,0,
0,0,0,0,0,0,0,0,0,0,0,0,0,0,0,0,
0,0,0,0,0,0,0,0,0,0,0,0,0,0,0,0,
0,0,0,0,0,0,0,0,0,0,0,0,0,0,0,0,
0,0,0,0,0,0,10277,10278,10279,10280,0,0,0,0,0,0,
0,0,0,0,0,0,10292,10293,10294,10295,0,0,0,0,0,0,
0,0,9971,9972,0,0,10307,10308,10309,10310,0,0,0,0,0,0
</chunk>
   <chunk x="0" y="0" width="16" height="16">
0,0,9986,9987,0,0,10322,10323,10324,10325,0,0,0,0,0,0,
0,0,0,0,0,0,0,0,0,0,0,0,0,0,0,0,
0,0,0,0,0,0,0,0,0,0,0,0,0,0,0,0,
0,0,0,0,0,0,0,0,0,0,0,0,0,0,0,0,
0,0,0,0,0,0,0,0,0,0,0,0,0,0,0,0,
0,0,0,0,0,0,0,0,0,0,0,0,0,0,0,0,
0,0,0,0,0,0,0,0,0,0,0,0,0,0,0,0,
0,0,0,0,0,0,0,0,0,0,0,0,0,0,0,0,
0,0,0,0,0,0,0,0,0,0,0,0,0,0,0,0,
0,0,0,0,0,0,0,0,0,0,0,0,0,0,0,0,
0,0,0,0,0,0,0,0,0,0,0,0,0,0,0,0,
0,0,0,0,0,0,0,0,0,0,0,0,0,0,0,0,
0,0,0,0,0,0,0,0,0,0,0,0,0,0,0,0,
0,0,0,0,0,0,0,0,0,0,0,0,0,0,0,0,
0,0,0,0,0,0,0,0,0,0,0,0,0,0,0,0,
0,0,0,0,0,0,0,0,0,0,0,0,0,0,0,0
</chunk>
   <chunk x="16" y="0" width="16" height="16">
0,0,0,0,0,0,0,0,0,0,0,0,0,0,0,0,
0,0,0,0,0,0,0,0,0,0,0,0,0,0,0,0,
10284,10285,0,0,0,0,0,0,0,0,0,0,0,0,0,0,
10299,10300,0,0,0,0,0,0,0,0,0,0,0,0,0,0,
10314,10315,0,0,0,0,0,0,0,0,0,0,0,0,0,0,
0,0,0,0,0,0,0,0,0,0,0,0,0,0,0,0,
0,0,0,0,0,0,0,0,0,0,0,0,0,0,0,0,
0,0,0,0,0,0,0,0,0,0,0,0,0,0,0,0,
0,0,0,0,0,0,0,0,0,0,0,0,0,0,0,0,
0,0,0,0,0,0,0,0,0,0,0,0,0,0,0,0,
0,0,0,0,0,0,0,0,0,0,0,0,0,0,0,0,
0,0,0,0,0,0,0,0,0,0,0,0,0,0,0,0,
0,0,0,0,0,0,0,0,0,0,0,0,0,0,0,0,
0,0,0,0,0,0,0,0,0,0,0,0,0,0,0,0,
0,0,0,0,0,0,0,0,0,0,0,0,0,0,0,0,
0,0,0,0,0,0,0,0,0,0,0,0,0,0,0,0
</chunk>
  </data>
 </layer>
 <layer id="29" name="Objects3" width="16" height="24">
  <data encoding="csv">
   <chunk x="0" y="0" width="16" height="16">
0,0,0,0,10108,10109,10110,10111,0,10190,10191,10192,10193,10194,0,0,
10231,10232,10233,0,10123,10124,10125,10126,0,10205,10206,10207,10208,10209,0,0,
10246,10247,10248,0,10138,10139,10140,10141,0,10220,10221,10222,10223,10224,0,0,
10261,10262,10263,0,10153,10154,10155,10156,0,0,0,0,0,0,0,0,
0,0,0,0,10168,10169,10170,10171,0,0,0,0,0,0,0,0,
0,0,0,0,0,0,0,0,0,0,0,0,0,0,0,0,
0,0,0,0,0,0,0,0,0,0,0,0,0,0,0,0,
0,0,0,0,0,0,0,0,0,0,0,0,0,0,0,0,
0,0,0,0,0,0,0,0,0,0,0,0,0,0,0,0,
0,0,0,0,0,0,0,0,0,0,0,0,0,0,0,0,
0,0,0,0,0,0,0,0,0,0,0,0,0,0,0,0,
0,0,0,0,0,0,0,0,0,0,0,0,0,0,0,0,
0,0,0,0,0,0,0,0,0,0,0,0,0,0,0,0,
0,0,0,0,0,0,0,0,0,0,0,0,0,0,0,0,
0,0,0,0,0,0,0,0,0,0,0,0,0,0,0,0,
0,0,0,0,0,0,0,0,0,0,0,0,0,0,0,0
</chunk>
   <chunk x="16" y="0" width="16" height="16">
0,0,0,0,0,0,0,0,0,0,0,0,0,0,0,0,
0,0,0,0,0,0,0,0,0,0,0,0,0,0,0,0,
0,0,0,0,10195,10196,10197,0,0,0,0,0,0,0,0,0,
0,0,0,0,10210,10211,10212,0,0,0,0,0,0,0,0,0,
0,0,0,0,10225,10226,10227,0,0,0,0,0,0,0,0,0,
0,0,0,0,0,0,0,0,0,0,0,0,0,0,0,0,
0,0,0,0,0,0,0,0,0,0,0,0,0,0,0,0,
0,0,0,0,0,0,0,0,0,0,0,0,0,0,0,0,
0,0,0,0,0,0,0,0,0,0,0,0,0,0,0,0,
0,0,0,0,0,0,0,0,0,0,0,0,0,0,0,0,
0,0,0,0,0,0,0,0,0,0,0,0,0,0,0,0,
0,0,0,0,0,0,0,0,0,0,0,0,0,0,0,0,
0,0,0,0,0,0,0,0,0,0,0,0,0,0,0,0,
0,0,0,0,0,0,0,0,0,0,0,0,0,0,0,0,
0,0,0,0,0,0,0,0,0,0,0,0,0,0,0,0,
0,0,0,0,0,0,0,0,0,0,0,0,0,0,0,0
</chunk>
  </data>
 </layer>
 <layer id="11" name="piles_top_front" width="16" height="24">
  <data encoding="csv">
   <chunk x="-16" y="0" width="16" height="16">
0,0,0,0,0,0,0,0,0,0,0,0,0,0,0,0,
0,0,0,0,0,0,0,0,0,0,0,0,0,0,0,0,
0,0,0,0,0,0,0,0,0,0,0,0,0,0,0,0,
0,0,0,0,0,0,0,0,0,0,0,0,0,0,0,0,
0,0,0,0,0,0,0,0,0,0,0,0,0,0,0,0,
0,0,0,0,0,0,0,0,0,0,0,0,0,0,0,4486,
0,0,0,0,0,0,0,0,0,0,0,0,0,0,0,4500,
0,0,0,0,0,0,0,0,0,0,0,0,0,0,0,0,
0,0,0,0,0,0,0,0,0,0,0,0,0,0,0,0,
0,0,0,0,0,0,0,0,0,0,0,0,0,0,0,0,
0,0,0,0,0,0,0,0,0,0,0,0,0,0,0,0,
0,0,0,0,0,0,0,0,0,0,0,0,0,0,0,0,
0,0,0,0,0,0,0,0,0,0,0,0,0,0,0,0,
0,0,0,0,0,0,0,0,0,0,0,0,0,0,0,0,
0,0,0,0,0,0,0,0,0,0,0,0,0,0,0,0,
0,0,0,0,0,0,0,0,0,0,0,0,0,0,0,0
</chunk>
   <chunk x="0" y="0" width="16" height="16">
0,0,0,0,0,0,0,0,0,0,0,0,0,0,0,0,
0,0,0,0,0,0,0,0,0,0,0,0,0,0,0,0,
0,0,0,0,0,0,0,0,0,0,0,0,0,0,0,0,
0,0,0,0,0,0,0,0,0,0,0,0,0,0,0,0,
0,0,0,0,0,0,0,0,0,0,0,0,0,0,0,0,
0,4486,0,0,0,0,0,0,4487,0,4487,0,4487,0,4487,0,
0,4500,0,0,0,0,4487,0,4501,0,4501,0,4501,0,4501,0,
0,0,0,0,0,0,4501,0,0,0,0,0,0,0,0,0,
0,0,0,4486,0,0,4487,0,0,0,0,0,0,0,0,0,
0,0,0,4500,0,0,4501,0,0,0,0,0,0,0,0,0,
0,0,0,4486,0,0,4487,0,0,0,0,0,0,0,0,0,
0,0,0,4500,0,0,4501,0,0,0,0,0,0,0,0,0,
0,0,0,0,0,0,0,0,0,0,0,0,0,0,0,0,
0,0,0,0,0,0,0,0,0,0,0,0,0,0,0,0,
0,0,0,0,0,0,0,0,0,0,0,0,0,0,0,0,
0,0,0,0,0,0,0,0,0,0,0,0,0,0,0,0
</chunk>
   <chunk x="16" y="0" width="16" height="16">
0,0,0,0,0,0,0,0,0,0,0,0,0,0,0,0,
0,0,0,0,0,0,0,0,0,0,0,0,0,0,0,0,
0,0,0,0,0,0,0,0,0,0,0,0,0,0,0,0,
4487,0,4487,0,4487,0,4487,0,0,0,0,0,0,0,0,0,
4501,0,4501,0,4501,0,4501,0,0,0,0,0,0,0,0,0,
0,0,0,0,0,0,0,0,0,0,0,0,0,0,0,0,
0,0,0,0,0,0,0,0,0,0,0,0,0,0,0,0,
0,0,0,0,0,0,0,0,0,0,0,0,0,0,0,0,
0,0,0,0,0,0,0,0,0,0,0,0,0,0,0,0,
0,0,0,0,0,0,0,0,0,0,0,0,0,0,0,0,
0,0,0,0,0,0,0,0,0,0,0,0,0,0,0,0,
0,0,0,0,0,0,0,0,0,0,0,0,0,0,0,0,
0,0,0,0,0,0,0,0,0,0,0,0,0,0,0,0,
0,0,0,0,0,0,0,0,0,0,0,0,0,0,0,0,
0,0,0,0,0,0,0,0,0,0,0,0,0,0,0,0,
0,0,0,0,0,0,0,0,0,0,0,0,0,0,0,0
</chunk>
  </data>
 </layer>
 <layer id="23" name="Characters" width="16" height="24">
  <data encoding="csv">
   <chunk x="0" y="-16" width="16" height="16">
0,0,0,0,0,0,0,0,0,0,0,0,0,0,0,0,
0,0,0,0,0,0,0,0,0,0,0,0,0,0,0,0,
0,0,0,0,0,0,0,0,0,0,0,0,0,0,0,0,
0,0,0,0,0,0,0,0,0,0,0,0,0,0,0,0,
0,0,0,0,0,0,0,0,0,0,0,0,0,0,0,0,
0,0,0,0,0,0,0,0,0,0,0,0,0,0,0,0,
0,0,0,0,0,0,0,0,0,0,0,0,0,0,0,0,
0,0,0,0,0,0,0,0,0,0,0,0,0,0,0,0,
0,0,0,0,0,0,0,0,0,0,0,0,0,0,0,0,
0,0,0,0,0,0,0,0,0,0,0,0,0,0,0,0,
0,0,0,0,0,0,0,0,0,0,0,0,0,0,0,0,
0,0,0,0,0,0,0,0,0,0,0,0,0,0,0,0,
0,0,0,0,0,0,0,0,0,0,0,0,0,0,0,0,
0,0,0,0,0,0,0,0,0,0,0,0,0,0,0,0,
0,0,0,0,0,0,0,0,0,0,0,0,0,0,0,0,
0,0,0,0,0,0,0,0,0,0,10505,10506,0,0,0,0
</chunk>
   <chunk x="16" y="-16" width="16" height="16">
0,0,0,0,0,0,0,0,0,0,0,0,0,0,0,0,
0,0,0,0,0,0,0,0,0,0,0,0,0,0,0,0,
0,0,0,0,0,0,0,0,0,0,0,0,0,0,0,0,
0,0,0,0,0,0,0,0,0,0,0,0,0,0,0,0,
0,0,0,0,0,0,0,0,0,0,0,0,0,0,0,0,
0,0,0,0,0,0,0,0,0,0,0,0,0,0,0,0,
0,0,0,0,0,0,0,0,0,0,0,0,0,0,0,0,
0,0,0,0,0,0,0,0,0,0,0,0,0,0,0,0,
0,0,0,0,0,0,0,0,0,0,0,0,0,0,0,0,
0,0,0,0,0,0,0,0,0,0,0,0,0,0,0,0,
0,0,0,0,0,0,0,0,0,0,0,0,0,0,0,0,
0,0,0,0,0,0,0,0,0,0,0,0,0,0,0,0,
0,0,0,0,0,0,0,0,0,0,0,0,0,0,0,0,
0,0,0,0,0,0,0,0,0,0,0,0,0,0,0,0,
0,0,9553,9554,9555,9556,9557,0,0,0,0,0,0,0,0,0,
0,0,9573,9574,9575,9576,9577,0,0,0,0,0,0,0,0,0
</chunk>
   <chunk x="0" y="0" width="16" height="16">
0,0,0,0,0,0,0,10433,10434,0,10511,10512,0,0,0,0,
0,0,0,0,0,0,0,10457,10458,0,10517,10518,0,0,0,0,
0,0,0,0,0,0,0,10481,10482,0,0,0,0,0,0,0,
0,0,0,0,0,0,0,0,0,0,0,0,0,0,0,0,
0,0,0,0,0,0,0,0,0,0,0,0,0,0,0,0,
0,0,0,0,0,0,0,0,0,0,0,0,0,0,0,0,
0,0,0,0,0,0,0,0,0,0,0,0,0,0,0,0,
0,0,0,0,0,0,0,0,0,9481,9482,0,0,0,0,0,
0,0,0,0,0,0,0,0,0,9505,9506,0,0,0,0,0,
0,0,0,0,10393,10394,0,0,0,9529,9530,0,0,0,0,0,
0,0,0,0,10413,10414,0,0,0,0,0,0,0,0,0,0,
0,0,0,0,0,0,0,0,0,0,0,0,0,0,0,0,
0,0,0,0,0,0,0,0,0,0,0,0,0,0,0,0,
0,0,0,0,0,0,0,0,0,0,0,0,0,0,0,0,
0,0,0,0,0,0,0,0,0,0,0,0,0,0,0,0,
0,0,0,0,0,0,0,0,0,0,0,0,0,0,0,0
</chunk>
   <chunk x="16" y="0" width="16" height="16">
0,0,9593,9594,9595,9596,9597,0,0,0,0,0,0,0,0,0,
0,0,9613,9614,9615,9616,9617,0,0,0,0,0,0,0,0,0,
0,0,9633,9634,9635,9636,9637,0,0,0,0,0,0,0,0,0,
0,0,0,0,0,0,0,0,0,0,0,0,0,0,0,0,
0,0,0,0,0,0,0,0,0,0,0,0,0,0,0,0,
0,0,0,0,0,0,0,0,0,0,0,0,0,0,0,0,
0,0,0,0,0,0,0,0,0,0,0,0,0,0,0,0,
0,0,0,0,0,0,0,0,0,0,0,0,0,0,0,0,
0,0,0,0,0,0,0,0,0,0,0,0,0,0,0,0,
0,0,0,0,0,0,0,0,0,0,0,0,0,0,0,0,
0,0,0,0,0,0,0,0,0,0,0,0,0,0,0,0,
0,0,0,0,0,0,0,0,0,0,0,0,0,0,0,0,
0,0,0,0,0,0,0,0,0,0,0,0,0,0,0,0,
0,0,0,0,0,0,0,0,0,0,0,0,0,0,0,0,
0,0,0,0,0,0,0,0,0,0,0,0,0,0,0,0,
0,0,0,0,0,0,0,0,0,0,0,0,0,0,0,0
</chunk>
  </data>
 </layer>
 <layer id="30" name="ropes" width="16" height="24">
  <data encoding="csv">
   <chunk x="0" y="0" width="16" height="16">
0,0,0,0,0,0,0,0,0,0,0,0,0,0,0,10374,
0,0,0,0,0,0,0,0,0,0,0,0,0,0,0,10389,
0,0,0,0,0,0,0,0,0,0,0,0,0,0,0,0,
0,0,0,0,0,0,0,0,0,0,0,0,0,0,0,0,
0,0,0,0,0,0,0,0,0,0,0,0,0,0,0,0,
0,0,0,0,0,0,0,0,0,0,0,0,0,0,0,0,
0,0,0,0,0,0,0,0,0,0,0,0,0,0,0,0,
0,0,0,0,0,0,0,0,0,0,0,0,0,0,0,0,
0,0,0,0,0,0,0,0,0,0,0,0,0,0,0,0,
0,0,0,0,0,0,0,0,0,0,0,0,0,0,0,0,
0,0,0,0,0,0,0,0,0,0,0,0,0,0,0,0,
0,0,0,0,0,10376,10377,0,0,0,0,0,0,0,0,0,
0,0,0,0,0,10391,10392,0,0,0,0,0,0,0,0,0,
0,0,0,0,0,0,0,0,0,0,0,0,0,0,0,0,
0,0,0,0,0,0,0,0,0,0,0,0,0,0,0,0,
0,0,0,0,0,0,0,0,0,0,0,0,0,0,0,0
</chunk>
   <chunk x="16" y="0" width="16" height="16">
10375,0,0,0,0,0,0,0,0,0,0,0,0,0,0,0,
10390,0,0,0,0,0,0,0,0,0,0,0,0,0,0,0,
0,0,0,0,0,0,0,0,0,0,0,0,0,0,0,0,
0,0,0,0,0,0,0,0,0,0,0,0,0,0,0,0,
0,0,0,0,0,0,0,0,0,0,0,0,0,0,0,0,
0,0,0,0,0,0,0,0,0,0,0,0,0,0,0,0,
0,0,0,0,0,0,0,0,0,0,0,0,0,0,0,0,
0,0,0,0,0,0,0,0,0,0,0,0,0,0,0,0,
0,0,0,0,0,0,0,0,0,0,0,0,0,0,0,0,
0,0,0,0,0,0,0,0,0,0,0,0,0,0,0,0,
0,0,0,0,0,0,0,0,0,0,0,0,0,0,0,0,
0,0,0,0,0,0,0,0,0,0,0,0,0,0,0,0,
0,0,0,0,0,0,0,0,0,0,0,0,0,0,0,0,
0,0,0,0,0,0,0,0,0,0,0,0,0,0,0,0,
0,0,0,0,0,0,0,0,0,0,0,0,0,0,0,0,
0,0,0,0,0,0,0,0,0,0,0,0,0,0,0,0
</chunk>
  </data>
 </layer>
 <layer id="18" name="Small_boats" width="16" height="24">
  <data encoding="csv">
   <chunk x="-16" y="0" width="16" height="16">
0,0,0,0,0,0,0,0,0,0,0,0,0,0,0,0,
0,0,0,0,0,0,0,0,0,0,0,0,0,0,0,0,
0,0,0,0,0,0,0,0,0,0,0,0,0,0,0,0,
0,0,0,0,0,0,0,0,0,0,0,0,0,0,0,0,
0,0,0,0,0,0,0,0,0,0,0,0,0,0,0,0,
0,0,0,0,0,0,0,0,0,0,0,0,0,0,6037,6038,
0,0,0,0,0,0,0,0,0,0,0,0,0,0,6073,6074,
0,0,0,0,0,0,0,0,0,0,0,0,0,0,6109,6110,
0,0,0,0,0,0,0,0,0,0,0,0,0,0,6145,6146,
0,0,0,0,0,0,0,0,0,0,0,0,0,0,6181,6182,
0,0,0,0,0,0,0,0,0,0,0,0,0,0,6217,6218,
0,0,0,0,0,0,0,0,0,0,0,0,0,0,0,0,
0,0,0,0,0,0,0,0,0,0,0,0,0,0,0,0,
0,0,0,0,0,0,0,0,0,0,0,0,0,0,0,0,
0,0,0,0,0,0,0,0,0,0,0,0,0,0,0,0,
0,0,0,0,0,0,0,0,0,0,0,0,0,0,0,0
</chunk>
   <chunk x="0" y="0" width="16" height="16">
0,0,0,0,0,0,0,0,0,0,0,0,0,0,0,0,
0,0,0,0,0,0,0,0,0,0,0,0,0,0,0,0,
0,0,0,0,0,0,0,0,0,0,0,0,0,0,0,0,
0,0,0,0,0,0,0,0,0,0,0,0,0,0,0,6469,
0,0,0,0,0,0,0,0,0,0,0,0,0,0,0,6505,
6039,0,0,0,0,0,0,0,0,0,0,5821,5822,5823,0,6541,
6075,0,0,0,0,0,0,0,0,0,0,5857,5858,5859,0,6577,
6111,0,0,0,0,0,0,0,0,0,0,5893,5894,5895,0,6613,
6147,0,0,0,0,0,0,0,0,0,0,5929,5930,5931,0,6649,
6183,0,0,0,0,0,0,0,0,0,0,5965,5966,5967,0,0,
6219,0,0,0,0,0,0,0,0,0,0,6001,6002,6003,0,0,
0,0,0,0,0,0,0,0,0,0,0,0,0,0,0,0,
0,0,0,0,0,0,0,0,0,0,0,0,0,0,0,0,
0,0,0,0,0,0,0,0,0,0,0,0,0,0,0,0,
0,0,0,0,0,0,0,0,0,0,0,0,0,0,0,0,
0,0,0,0,0,0,0,0,0,0,0,0,0,0,0,0
</chunk>
   <chunk x="16" y="0" width="16" height="16">
0,0,0,0,0,0,0,0,0,0,0,0,0,0,0,0,
0,0,0,0,0,0,0,0,0,0,0,0,0,0,0,0,
0,0,0,0,0,0,0,0,0,0,0,0,0,0,0,0,
6470,6471,0,0,0,6253,6254,6255,0,0,0,0,0,0,0,0,
6506,6507,0,0,0,6289,6290,6291,0,0,0,0,0,0,0,0,
6542,6543,0,0,0,6325,6326,6327,0,0,0,0,0,0,0,0,
6578,6579,0,0,0,6361,6362,6363,0,0,0,0,0,0,0,0,
6614,6615,0,0,0,6397,6398,6399,0,0,0,0,0,0,0,0,
6650,6651,0,0,0,6433,6434,6435,0,0,0,0,0,0,0,0,
0,0,0,0,0,0,0,0,0,0,0,0,0,0,0,0,
0,0,0,0,0,0,0,0,0,0,0,0,0,0,0,0,
0,0,0,0,0,0,0,0,0,0,0,0,0,0,0,0,
0,0,0,0,0,0,0,0,0,0,0,0,0,0,0,0,
0,0,0,0,0,0,0,0,0,0,0,0,0,0,0,0,
0,0,0,0,0,0,0,0,0,0,0,0,0,0,0,0,
0,0,0,0,0,0,0,0,0,0,0,0,0,0,0,0
</chunk>
  </data>
 </layer>
 <layer id="19" name="Small_boats2" width="16" height="24">
  <data encoding="csv">
   <chunk x="0" y="0" width="16" height="16">
0,0,0,0,0,0,0,0,0,0,0,0,0,0,0,0,
0,0,0,0,0,0,0,0,0,0,0,0,0,0,0,0,
0,0,0,0,0,0,0,0,0,0,0,0,0,0,0,0,
0,0,0,0,0,0,0,0,0,0,0,0,0,0,0,0,
0,0,0,0,0,0,0,0,0,0,0,0,0,0,0,0,
7081,7082,7083,0,0,0,0,0,0,0,0,0,0,6685,6686,6687,
7117,7118,7119,0,0,0,0,0,0,0,0,0,0,6721,6722,6723,
7153,7154,7155,0,0,0,0,0,0,0,0,0,0,6757,6758,6759,
7189,7190,7191,0,0,0,0,0,0,0,0,0,0,6793,6794,6795,
7225,7226,7227,0,0,0,0,0,0,0,0,0,0,6829,6830,6831,
7261,7262,7263,0,0,0,0,0,0,0,0,0,0,6865,6866,6867,
7297,7298,7299,0,0,0,0,0,0,0,0,0,0,0,0,0,
0,0,0,0,0,0,0,0,0,0,0,0,0,0,0,0,
0,0,0,0,0,0,0,0,0,0,0,0,0,0,0,0,
0,0,0,0,0,0,0,0,0,0,0,0,0,0,0,0,
0,0,0,0,0,0,0,0,0,0,0,0,0,0,0,0
</chunk>
   <chunk x="16" y="0" width="16" height="16">
0,0,0,0,0,0,0,0,0,0,0,0,0,0,0,0,
0,0,0,0,0,0,0,0,0,0,0,0,0,0,0,0,
0,0,0,0,0,0,0,0,0,0,0,0,0,0,0,0,
0,7333,7334,7335,0,0,0,0,0,0,0,0,0,0,0,0,
0,7369,7370,7371,0,0,0,0,0,0,0,0,0,0,0,0,
0,7405,7406,7407,0,0,0,0,0,0,0,0,0,0,0,0,
0,7441,7442,7443,0,0,0,0,0,0,0,0,0,0,0,0,
0,7477,7478,7479,0,0,0,0,0,0,0,0,0,0,0,0,
0,7513,7514,7515,0,0,0,0,0,0,0,0,0,0,0,0,
0,7549,7550,7551,0,0,0,0,0,0,0,0,0,0,0,0,
0,0,0,0,0,0,0,0,0,0,0,0,0,0,0,0,
0,0,0,0,0,0,0,0,0,0,0,0,0,0,0,0,
0,0,0,0,0,0,0,0,0,0,0,0,0,0,0,0,
0,0,0,0,0,0,0,0,0,0,0,0,0,0,0,0,
0,0,0,0,0,0,0,0,0,0,0,0,0,0,0,0,
0,0,0,0,0,0,0,0,0,0,0,0,0,0,0,0
</chunk>
  </data>
 </layer>
</map>
