<?xml version="1.0" encoding="UTF-8"?>
<map version="1.10" tiledversion="1.10.2" orientation="orthogonal" renderorder="right-down" width="16" height="24" tilewidth="16" tileheight="16" infinite="1" nextlayerid="2" nextobjectid="1">
 <tileset firstgid="1" name="Boilers" tilewidth="16" tileheight="16" tilecount="480" columns="10">
  <image source="../sheets/Boilers.png" width="160" height="768"/>
  <tile id="0">
   <animation>
    <frame tileid="0" duration="150"/>
    <frame tileid="40" duration="150"/>
    <frame tileid="80" duration="150"/>
    <frame tileid="120" duration="150"/>
    <frame tileid="160" duration="150"/>
    <frame tileid="200" duration="150"/>
    <frame tileid="240" duration="150"/>
    <frame tileid="280" duration="150"/>
    <frame tileid="320" duration="150"/>
    <frame tileid="360" duration="150"/>
    <frame tileid="400" duration="150"/>
    <frame tileid="440" duration="150"/>
   </animation>
  </tile>
  <tile id="1">
   <animation>
    <frame tileid="1" duration="150"/>
    <frame tileid="41" duration="150"/>
    <frame tileid="81" duration="150"/>
    <frame tileid="121" duration="150"/>
    <frame tileid="161" duration="150"/>
    <frame tileid="201" duration="150"/>
    <frame tileid="241" duration="150"/>
    <frame tileid="281" duration="150"/>
    <frame tileid="321" duration="150"/>
    <frame tileid="361" duration="150"/>
    <frame tileid="401" duration="150"/>
    <frame tileid="441" duration="150"/>
   </animation>
  </tile>
  <tile id="2">
   <animation>
    <frame tileid="2" duration="150"/>
    <frame tileid="42" duration="150"/>
    <frame tileid="82" duration="150"/>
    <frame tileid="122" duration="150"/>
    <frame tileid="162" duration="150"/>
    <frame tileid="202" duration="150"/>
    <frame tileid="242" duration="150"/>
    <frame tileid="282" duration="150"/>
    <frame tileid="322" duration="150"/>
    <frame tileid="362" duration="150"/>
    <frame tileid="402" duration="150"/>
    <frame tileid="442" duration="150"/>
   </animation>
  </tile>
  <tile id="3">
   <animation>
    <frame tileid="3" duration="150"/>
    <frame tileid="43" duration="150"/>
    <frame tileid="83" duration="150"/>
    <frame tileid="123" duration="150"/>
    <frame tileid="163" duration="150"/>
    <frame tileid="203" duration="150"/>
    <frame tileid="243" duration="150"/>
    <frame tileid="283" duration="150"/>
    <frame tileid="323" duration="150"/>
    <frame tileid="363" duration="150"/>
    <frame tileid="403" duration="150"/>
    <frame tileid="443" duration="150"/>
   </animation>
  </tile>
  <tile id="4">
   <animation>
    <frame tileid="4" duration="150"/>
    <frame tileid="44" duration="150"/>
    <frame tileid="84" duration="150"/>
    <frame tileid="124" duration="150"/>
    <frame tileid="164" duration="150"/>
    <frame tileid="204" duration="150"/>
    <frame tileid="244" duration="150"/>
    <frame tileid="284" duration="150"/>
    <frame tileid="324" duration="150"/>
    <frame tileid="364" duration="150"/>
    <frame tileid="404" duration="150"/>
    <frame tileid="444" duration="150"/>
   </animation>
  </tile>
  <tile id="5">
   <animation>
    <frame tileid="5" duration="150"/>
    <frame tileid="45" duration="150"/>
    <frame tileid="85" duration="150"/>
    <frame tileid="125" duration="150"/>
    <frame tileid="165" duration="150"/>
    <frame tileid="205" duration="150"/>
    <frame tileid="245" duration="150"/>
    <frame tileid="285" duration="150"/>
    <frame tileid="325" duration="150"/>
    <frame tileid="365" duration="150"/>
    <frame tileid="405" duration="150"/>
    <frame tileid="445" duration="150"/>
   </animation>
  </tile>
  <tile id="6">
   <animation>
    <frame tileid="6" duration="150"/>
    <frame tileid="46" duration="150"/>
    <frame tileid="86" duration="150"/>
    <frame tileid="126" duration="150"/>
    <frame tileid="166" duration="150"/>
    <frame tileid="206" duration="150"/>
    <frame tileid="246" duration="150"/>
    <frame tileid="286" duration="150"/>
    <frame tileid="326" duration="150"/>
    <frame tileid="366" duration="150"/>
    <frame tileid="406" duration="150"/>
    <frame tileid="446" duration="150"/>
   </animation>
  </tile>
  <tile id="7">
   <animation>
    <frame tileid="7" duration="150"/>
    <frame tileid="47" duration="150"/>
    <frame tileid="87" duration="150"/>
    <frame tileid="127" duration="150"/>
    <frame tileid="167" duration="150"/>
    <frame tileid="207" duration="150"/>
    <frame tileid="247" duration="150"/>
    <frame tileid="287" duration="150"/>
    <frame tileid="327" duration="150"/>
    <frame tileid="367" duration="150"/>
    <frame tileid="407" duration="150"/>
    <frame tileid="447" duration="150"/>
   </animation>
  </tile>
  <tile id="8">
   <animation>
    <frame tileid="8" duration="150"/>
    <frame tileid="48" duration="150"/>
    <frame tileid="88" duration="150"/>
    <frame tileid="128" duration="150"/>
    <frame tileid="168" duration="150"/>
    <frame tileid="208" duration="150"/>
    <frame tileid="248" duration="150"/>
    <frame tileid="288" duration="150"/>
    <frame tileid="328" duration="150"/>
    <frame tileid="368" duration="150"/>
    <frame tileid="408" duration="150"/>
    <frame tileid="448" duration="150"/>
   </animation>
  </tile>
  <tile id="9">
   <animation>
    <frame tileid="9" duration="150"/>
    <frame tileid="49" duration="150"/>
    <frame tileid="89" duration="150"/>
    <frame tileid="129" duration="150"/>
    <frame tileid="169" duration="150"/>
    <frame tileid="209" duration="150"/>
    <frame tileid="249" duration="150"/>
    <frame tileid="289" duration="150"/>
    <frame tileid="329" duration="150"/>
    <frame tileid="369" duration="150"/>
    <frame tileid="409" duration="150"/>
    <frame tileid="449" duration="150"/>
   </animation>
  </tile>
  <tile id="10">
   <animation>
    <frame tileid="10" duration="150"/>
    <frame tileid="50" duration="150"/>
    <frame tileid="90" duration="150"/>
    <frame tileid="130" duration="150"/>
    <frame tileid="170" duration="150"/>
    <frame tileid="210" duration="150"/>
    <frame tileid="250" duration="150"/>
    <frame tileid="290" duration="150"/>
    <frame tileid="330" duration="150"/>
    <frame tileid="370" duration="150"/>
    <frame tileid="410" duration="150"/>
    <frame tileid="450" duration="150"/>
   </animation>
  </tile>
  <tile id="11">
   <animation>
    <frame tileid="11" duration="150"/>
    <frame tileid="51" duration="150"/>
    <frame tileid="91" duration="150"/>
    <frame tileid="131" duration="150"/>
    <frame tileid="171" duration="150"/>
    <frame tileid="211" duration="150"/>
    <frame tileid="251" duration="150"/>
    <frame tileid="291" duration="150"/>
    <frame tileid="331" duration="150"/>
    <frame tileid="371" duration="150"/>
    <frame tileid="411" duration="150"/>
    <frame tileid="451" duration="150"/>
   </animation>
  </tile>
  <tile id="12">
   <animation>
    <frame tileid="12" duration="150"/>
    <frame tileid="52" duration="150"/>
    <frame tileid="92" duration="150"/>
    <frame tileid="132" duration="150"/>
    <frame tileid="172" duration="150"/>
    <frame tileid="212" duration="150"/>
    <frame tileid="252" duration="150"/>
    <frame tileid="292" duration="150"/>
    <frame tileid="332" duration="150"/>
    <frame tileid="372" duration="150"/>
    <frame tileid="412" duration="150"/>
    <frame tileid="452" duration="150"/>
   </animation>
  </tile>
  <tile id="13">
   <animation>
    <frame tileid="13" duration="150"/>
    <frame tileid="53" duration="150"/>
    <frame tileid="93" duration="150"/>
    <frame tileid="133" duration="150"/>
    <frame tileid="173" duration="150"/>
    <frame tileid="213" duration="150"/>
    <frame tileid="253" duration="150"/>
    <frame tileid="293" duration="150"/>
    <frame tileid="333" duration="150"/>
    <frame tileid="373" duration="150"/>
    <frame tileid="413" duration="150"/>
    <frame tileid="453" duration="150"/>
   </animation>
  </tile>
  <tile id="14">
   <animation>
    <frame tileid="14" duration="150"/>
    <frame tileid="54" duration="150"/>
    <frame tileid="94" duration="150"/>
    <frame tileid="134" duration="150"/>
    <frame tileid="174" duration="150"/>
    <frame tileid="214" duration="150"/>
    <frame tileid="254" duration="150"/>
    <frame tileid="294" duration="150"/>
    <frame tileid="334" duration="150"/>
    <frame tileid="374" duration="150"/>
    <frame tileid="414" duration="150"/>
    <frame tileid="454" duration="150"/>
   </animation>
  </tile>
  <tile id="15">
   <animation>
    <frame tileid="15" duration="150"/>
    <frame tileid="55" duration="150"/>
    <frame tileid="95" duration="150"/>
    <frame tileid="135" duration="150"/>
    <frame tileid="175" duration="150"/>
    <frame tileid="215" duration="150"/>
    <frame tileid="255" duration="150"/>
    <frame tileid="295" duration="150"/>
    <frame tileid="335" duration="150"/>
    <frame tileid="375" duration="150"/>
    <frame tileid="415" duration="150"/>
    <frame tileid="455" duration="150"/>
   </animation>
  </tile>
  <tile id="16">
   <animation>
    <frame tileid="16" duration="150"/>
    <frame tileid="56" duration="150"/>
    <frame tileid="96" duration="150"/>
    <frame tileid="136" duration="150"/>
    <frame tileid="176" duration="150"/>
    <frame tileid="216" duration="150"/>
    <frame tileid="256" duration="150"/>
    <frame tileid="296" duration="150"/>
    <frame tileid="336" duration="150"/>
    <frame tileid="376" duration="150"/>
    <frame tileid="416" duration="150"/>
    <frame tileid="456" duration="150"/>
   </animation>
  </tile>
  <tile id="17">
   <animation>
    <frame tileid="17" duration="150"/>
    <frame tileid="57" duration="150"/>
    <frame tileid="97" duration="150"/>
    <frame tileid="137" duration="150"/>
    <frame tileid="177" duration="150"/>
    <frame tileid="217" duration="150"/>
    <frame tileid="257" duration="150"/>
    <frame tileid="297" duration="150"/>
    <frame tileid="337" duration="150"/>
    <frame tileid="377" duration="150"/>
    <frame tileid="417" duration="150"/>
    <frame tileid="457" duration="150"/>
   </animation>
  </tile>
  <tile id="18">
   <animation>
    <frame tileid="18" duration="150"/>
    <frame tileid="58" duration="150"/>
    <frame tileid="98" duration="150"/>
    <frame tileid="138" duration="150"/>
    <frame tileid="178" duration="150"/>
    <frame tileid="218" duration="150"/>
    <frame tileid="258" duration="150"/>
    <frame tileid="298" duration="150"/>
    <frame tileid="338" duration="150"/>
    <frame tileid="378" duration="150"/>
    <frame tileid="418" duration="150"/>
    <frame tileid="458" duration="150"/>
   </animation>
  </tile>
  <tile id="19">
   <animation>
    <frame tileid="19" duration="150"/>
    <frame tileid="59" duration="150"/>
    <frame tileid="99" duration="150"/>
    <frame tileid="139" duration="150"/>
    <frame tileid="179" duration="150"/>
    <frame tileid="219" duration="150"/>
    <frame tileid="259" duration="150"/>
    <frame tileid="299" duration="150"/>
    <frame tileid="339" duration="150"/>
    <frame tileid="379" duration="150"/>
    <frame tileid="419" duration="150"/>
    <frame tileid="459" duration="150"/>
   </animation>
  </tile>
  <tile id="20">
   <animation>
    <frame tileid="20" duration="150"/>
    <frame tileid="60" duration="150"/>
    <frame tileid="100" duration="150"/>
    <frame tileid="140" duration="150"/>
    <frame tileid="180" duration="150"/>
    <frame tileid="220" duration="150"/>
    <frame tileid="260" duration="150"/>
    <frame tileid="300" duration="150"/>
    <frame tileid="340" duration="150"/>
    <frame tileid="380" duration="150"/>
    <frame tileid="420" duration="150"/>
    <frame tileid="460" duration="150"/>
   </animation>
  </tile>
  <tile id="21">
   <animation>
    <frame tileid="21" duration="150"/>
    <frame tileid="61" duration="150"/>
    <frame tileid="101" duration="150"/>
    <frame tileid="141" duration="150"/>
    <frame tileid="181" duration="150"/>
    <frame tileid="221" duration="150"/>
    <frame tileid="261" duration="150"/>
    <frame tileid="301" duration="150"/>
    <frame tileid="341" duration="150"/>
    <frame tileid="381" duration="150"/>
    <frame tileid="421" duration="150"/>
    <frame tileid="461" duration="150"/>
   </animation>
  </tile>
  <tile id="22">
   <animation>
    <frame tileid="22" duration="150"/>
    <frame tileid="62" duration="150"/>
    <frame tileid="102" duration="150"/>
    <frame tileid="142" duration="150"/>
    <frame tileid="182" duration="150"/>
    <frame tileid="222" duration="150"/>
    <frame tileid="262" duration="150"/>
    <frame tileid="302" duration="150"/>
    <frame tileid="342" duration="150"/>
    <frame tileid="382" duration="150"/>
    <frame tileid="422" duration="150"/>
    <frame tileid="462" duration="150"/>
   </animation>
  </tile>
  <tile id="23">
   <animation>
    <frame tileid="23" duration="150"/>
    <frame tileid="63" duration="150"/>
    <frame tileid="103" duration="150"/>
    <frame tileid="143" duration="150"/>
    <frame tileid="183" duration="150"/>
    <frame tileid="223" duration="150"/>
    <frame tileid="263" duration="150"/>
    <frame tileid="303" duration="150"/>
    <frame tileid="343" duration="150"/>
    <frame tileid="383" duration="150"/>
    <frame tileid="423" duration="150"/>
    <frame tileid="463" duration="150"/>
   </animation>
  </tile>
  <tile id="24">
   <animation>
    <frame tileid="24" duration="150"/>
    <frame tileid="64" duration="150"/>
    <frame tileid="104" duration="150"/>
    <frame tileid="144" duration="150"/>
    <frame tileid="184" duration="150"/>
    <frame tileid="224" duration="150"/>
    <frame tileid="264" duration="150"/>
    <frame tileid="304" duration="150"/>
    <frame tileid="344" duration="150"/>
    <frame tileid="384" duration="150"/>
    <frame tileid="424" duration="150"/>
    <frame tileid="464" duration="150"/>
   </animation>
  </tile>
  <tile id="25">
   <animation>
    <frame tileid="25" duration="150"/>
    <frame tileid="65" duration="150"/>
    <frame tileid="105" duration="150"/>
    <frame tileid="145" duration="150"/>
    <frame tileid="185" duration="150"/>
    <frame tileid="225" duration="150"/>
    <frame tileid="265" duration="150"/>
    <frame tileid="305" duration="150"/>
    <frame tileid="345" duration="150"/>
    <frame tileid="385" duration="150"/>
    <frame tileid="425" duration="150"/>
    <frame tileid="465" duration="150"/>
   </animation>
  </tile>
  <tile id="26">
   <animation>
    <frame tileid="26" duration="150"/>
    <frame tileid="66" duration="150"/>
    <frame tileid="106" duration="150"/>
    <frame tileid="146" duration="150"/>
    <frame tileid="186" duration="150"/>
    <frame tileid="226" duration="150"/>
    <frame tileid="266" duration="150"/>
    <frame tileid="306" duration="150"/>
    <frame tileid="346" duration="150"/>
    <frame tileid="386" duration="150"/>
    <frame tileid="426" duration="150"/>
    <frame tileid="466" duration="150"/>
   </animation>
  </tile>
  <tile id="27">
   <animation>
    <frame tileid="27" duration="150"/>
    <frame tileid="67" duration="150"/>
    <frame tileid="107" duration="150"/>
    <frame tileid="147" duration="150"/>
    <frame tileid="187" duration="150"/>
    <frame tileid="227" duration="150"/>
    <frame tileid="267" duration="150"/>
    <frame tileid="307" duration="150"/>
    <frame tileid="347" duration="150"/>
    <frame tileid="387" duration="150"/>
    <frame tileid="427" duration="150"/>
    <frame tileid="467" duration="150"/>
   </animation>
  </tile>
  <tile id="28">
   <animation>
    <frame tileid="28" duration="150"/>
    <frame tileid="68" duration="150"/>
    <frame tileid="108" duration="150"/>
    <frame tileid="148" duration="150"/>
    <frame tileid="188" duration="150"/>
    <frame tileid="228" duration="150"/>
    <frame tileid="268" duration="150"/>
    <frame tileid="308" duration="150"/>
    <frame tileid="348" duration="150"/>
    <frame tileid="388" duration="150"/>
    <frame tileid="428" duration="150"/>
    <frame tileid="468" duration="150"/>
   </animation>
  </tile>
  <tile id="29">
   <animation>
    <frame tileid="29" duration="150"/>
    <frame tileid="69" duration="150"/>
    <frame tileid="109" duration="150"/>
    <frame tileid="149" duration="150"/>
    <frame tileid="189" duration="150"/>
    <frame tileid="229" duration="150"/>
    <frame tileid="269" duration="150"/>
    <frame tileid="309" duration="150"/>
    <frame tileid="349" duration="150"/>
    <frame tileid="389" duration="150"/>
    <frame tileid="429" duration="150"/>
    <frame tileid="469" duration="150"/>
   </animation>
  </tile>
  <tile id="30">
   <animation>
    <frame tileid="30" duration="150"/>
    <frame tileid="70" duration="150"/>
    <frame tileid="110" duration="150"/>
    <frame tileid="150" duration="150"/>
    <frame tileid="190" duration="150"/>
    <frame tileid="230" duration="150"/>
    <frame tileid="270" duration="150"/>
    <frame tileid="310" duration="150"/>
    <frame tileid="350" duration="150"/>
    <frame tileid="390" duration="150"/>
    <frame tileid="430" duration="150"/>
    <frame tileid="470" duration="150"/>
   </animation>
  </tile>
  <tile id="31">
   <animation>
    <frame tileid="31" duration="150"/>
    <frame tileid="71" duration="150"/>
    <frame tileid="111" duration="150"/>
    <frame tileid="151" duration="150"/>
    <frame tileid="191" duration="150"/>
    <frame tileid="231" duration="150"/>
    <frame tileid="271" duration="150"/>
    <frame tileid="311" duration="150"/>
    <frame tileid="351" duration="150"/>
    <frame tileid="391" duration="150"/>
    <frame tileid="431" duration="150"/>
    <frame tileid="471" duration="150"/>
   </animation>
  </tile>
  <tile id="32">
   <animation>
    <frame tileid="32" duration="150"/>
    <frame tileid="72" duration="150"/>
    <frame tileid="112" duration="150"/>
    <frame tileid="152" duration="150"/>
    <frame tileid="192" duration="150"/>
    <frame tileid="232" duration="150"/>
    <frame tileid="272" duration="150"/>
    <frame tileid="312" duration="150"/>
    <frame tileid="352" duration="150"/>
    <frame tileid="392" duration="150"/>
    <frame tileid="432" duration="150"/>
    <frame tileid="472" duration="150"/>
   </animation>
  </tile>
  <tile id="33">
   <animation>
    <frame tileid="33" duration="150"/>
    <frame tileid="73" duration="150"/>
    <frame tileid="113" duration="150"/>
    <frame tileid="153" duration="150"/>
    <frame tileid="193" duration="150"/>
    <frame tileid="233" duration="150"/>
    <frame tileid="273" duration="150"/>
    <frame tileid="313" duration="150"/>
    <frame tileid="353" duration="150"/>
    <frame tileid="393" duration="150"/>
    <frame tileid="433" duration="150"/>
    <frame tileid="473" duration="150"/>
   </animation>
  </tile>
  <tile id="34">
   <animation>
    <frame tileid="34" duration="150"/>
    <frame tileid="74" duration="150"/>
    <frame tileid="114" duration="150"/>
    <frame tileid="154" duration="150"/>
    <frame tileid="194" duration="150"/>
    <frame tileid="234" duration="150"/>
    <frame tileid="274" duration="150"/>
    <frame tileid="314" duration="150"/>
    <frame tileid="354" duration="150"/>
    <frame tileid="394" duration="150"/>
    <frame tileid="434" duration="150"/>
    <frame tileid="474" duration="150"/>
   </animation>
  </tile>
  <tile id="35">
   <animation>
    <frame tileid="35" duration="150"/>
    <frame tileid="75" duration="150"/>
    <frame tileid="115" duration="150"/>
    <frame tileid="155" duration="150"/>
    <frame tileid="195" duration="150"/>
    <frame tileid="235" duration="150"/>
    <frame tileid="275" duration="150"/>
    <frame tileid="315" duration="150"/>
    <frame tileid="355" duration="150"/>
    <frame tileid="395" duration="150"/>
    <frame tileid="435" duration="150"/>
    <frame tileid="475" duration="150"/>
   </animation>
  </tile>
  <tile id="36">
   <animation>
    <frame tileid="36" duration="150"/>
    <frame tileid="76" duration="150"/>
    <frame tileid="116" duration="150"/>
    <frame tileid="156" duration="150"/>
    <frame tileid="196" duration="150"/>
    <frame tileid="236" duration="150"/>
    <frame tileid="276" duration="150"/>
    <frame tileid="316" duration="150"/>
    <frame tileid="356" duration="150"/>
    <frame tileid="396" duration="150"/>
    <frame tileid="436" duration="150"/>
    <frame tileid="476" duration="150"/>
   </animation>
  </tile>
  <tile id="37">
   <animation>
    <frame tileid="37" duration="150"/>
    <frame tileid="77" duration="150"/>
    <frame tileid="117" duration="150"/>
    <frame tileid="157" duration="150"/>
    <frame tileid="197" duration="150"/>
    <frame tileid="237" duration="150"/>
    <frame tileid="277" duration="150"/>
    <frame tileid="317" duration="150"/>
    <frame tileid="357" duration="150"/>
    <frame tileid="397" duration="150"/>
    <frame tileid="437" duration="150"/>
    <frame tileid="477" duration="150"/>
   </animation>
  </tile>
  <tile id="38">
   <animation>
    <frame tileid="38" duration="150"/>
    <frame tileid="78" duration="150"/>
    <frame tileid="118" duration="150"/>
    <frame tileid="158" duration="150"/>
    <frame tileid="198" duration="150"/>
    <frame tileid="238" duration="150"/>
    <frame tileid="278" duration="150"/>
    <frame tileid="318" duration="150"/>
    <frame tileid="358" duration="150"/>
    <frame tileid="398" duration="150"/>
    <frame tileid="438" duration="150"/>
    <frame tileid="478" duration="150"/>
   </animation>
  </tile>
  <tile id="39">
   <animation>
    <frame tileid="39" duration="150"/>
    <frame tileid="79" duration="150"/>
    <frame tileid="119" duration="150"/>
    <frame tileid="159" duration="150"/>
    <frame tileid="199" duration="150"/>
    <frame tileid="239" duration="150"/>
    <frame tileid="279" duration="150"/>
    <frame tileid="319" duration="150"/>
    <frame tileid="359" duration="150"/>
    <frame tileid="399" duration="150"/>
    <frame tileid="439" duration="150"/>
    <frame tileid="479" duration="150"/>
   </animation>
  </tile>
 </tileset>
 <tileset firstgid="481" name="Ball" tilewidth="16" tileheight="16" tilecount="48" columns="2">
  <image source="../sheets/Ball.png" width="32" height="384"/>
  <tile id="0">
   <animation>
    <frame tileid="0" duration="150"/>
    <frame tileid="4" duration="150"/>
    <frame tileid="8" duration="150"/>
    <frame tileid="12" duration="150"/>
    <frame tileid="16" duration="150"/>
    <frame tileid="20" duration="150"/>
    <frame tileid="24" duration="150"/>
    <frame tileid="28" duration="150"/>
    <frame tileid="32" duration="150"/>
    <frame tileid="36" duration="150"/>
    <frame tileid="40" duration="150"/>
    <frame tileid="44" duration="150"/>
   </animation>
  </tile>
  <tile id="1">
   <animation>
    <frame tileid="1" duration="150"/>
    <frame tileid="5" duration="150"/>
    <frame tileid="9" duration="150"/>
    <frame tileid="13" duration="150"/>
    <frame tileid="17" duration="150"/>
    <frame tileid="21" duration="150"/>
    <frame tileid="25" duration="150"/>
    <frame tileid="29" duration="150"/>
    <frame tileid="33" duration="150"/>
    <frame tileid="37" duration="150"/>
    <frame tileid="41" duration="150"/>
    <frame tileid="45" duration="150"/>
   </animation>
  </tile>
  <tile id="2">
   <animation>
    <frame tileid="2" duration="150"/>
    <frame tileid="6" duration="150"/>
    <frame tileid="10" duration="150"/>
    <frame tileid="14" duration="150"/>
    <frame tileid="18" duration="150"/>
    <frame tileid="22" duration="150"/>
    <frame tileid="26" duration="150"/>
    <frame tileid="30" duration="150"/>
    <frame tileid="34" duration="150"/>
    <frame tileid="38" duration="150"/>
    <frame tileid="42" duration="150"/>
    <frame tileid="46" duration="150"/>
   </animation>
  </tile>
  <tile id="3">
   <animation>
    <frame tileid="3" duration="150"/>
    <frame tileid="7" duration="150"/>
    <frame tileid="11" duration="150"/>
    <frame tileid="15" duration="150"/>
    <frame tileid="19" duration="150"/>
    <frame tileid="23" duration="150"/>
    <frame tileid="27" duration="150"/>
    <frame tileid="31" duration="150"/>
    <frame tileid="35" duration="150"/>
    <frame tileid="39" duration="150"/>
    <frame tileid="43" duration="150"/>
    <frame tileid="47" duration="150"/>
   </animation>
  </tile>
 </tileset>
 <tileset firstgid="529" name="Runes" tilewidth="16" tileheight="16" tilecount="1920" columns="20">
  <image source="../sheets/Runes.png" width="320" height="1536"/>
  <tile id="1">
   <animation>
    <frame tileid="1" duration="150"/>
    <frame tileid="161" duration="150"/>
    <frame tileid="321" duration="150"/>
    <frame tileid="481" duration="150"/>
    <frame tileid="641" duration="150"/>
    <frame tileid="801" duration="150"/>
    <frame tileid="961" duration="150"/>
    <frame tileid="1121" duration="150"/>
    <frame tileid="1281" duration="150"/>
    <frame tileid="1441" duration="150"/>
    <frame tileid="1601" duration="150"/>
    <frame tileid="1761" duration="150"/>
   </animation>
  </tile>
  <tile id="2">
   <animation>
    <frame tileid="2" duration="150"/>
    <frame tileid="162" duration="150"/>
    <frame tileid="322" duration="150"/>
    <frame tileid="482" duration="150"/>
    <frame tileid="642" duration="150"/>
    <frame tileid="802" duration="150"/>
    <frame tileid="962" duration="150"/>
    <frame tileid="1122" duration="150"/>
    <frame tileid="1282" duration="150"/>
    <frame tileid="1442" duration="150"/>
    <frame tileid="1602" duration="150"/>
    <frame tileid="1762" duration="150"/>
   </animation>
  </tile>
  <tile id="4">
   <animation>
    <frame tileid="4" duration="150"/>
    <frame tileid="164" duration="150"/>
    <frame tileid="324" duration="150"/>
    <frame tileid="484" duration="150"/>
    <frame tileid="644" duration="150"/>
    <frame tileid="804" duration="150"/>
    <frame tileid="964" duration="150"/>
    <frame tileid="1124" duration="150"/>
    <frame tileid="1284" duration="150"/>
    <frame tileid="1444" duration="150"/>
    <frame tileid="1604" duration="150"/>
    <frame tileid="1764" duration="150"/>
   </animation>
  </tile>
  <tile id="5">
   <animation>
    <frame tileid="5" duration="150"/>
    <frame tileid="165" duration="150"/>
    <frame tileid="325" duration="150"/>
    <frame tileid="485" duration="150"/>
    <frame tileid="645" duration="150"/>
    <frame tileid="805" duration="150"/>
    <frame tileid="965" duration="150"/>
    <frame tileid="1125" duration="150"/>
    <frame tileid="1285" duration="150"/>
    <frame tileid="1445" duration="150"/>
    <frame tileid="1605" duration="150"/>
    <frame tileid="1765" duration="150"/>
   </animation>
  </tile>
  <tile id="6">
   <animation>
    <frame tileid="6" duration="150"/>
    <frame tileid="166" duration="150"/>
    <frame tileid="326" duration="150"/>
    <frame tileid="486" duration="150"/>
    <frame tileid="646" duration="150"/>
    <frame tileid="806" duration="150"/>
    <frame tileid="966" duration="150"/>
    <frame tileid="1126" duration="150"/>
    <frame tileid="1286" duration="150"/>
    <frame tileid="1446" duration="150"/>
    <frame tileid="1606" duration="150"/>
    <frame tileid="1766" duration="150"/>
   </animation>
  </tile>
  <tile id="13">
   <animation>
    <frame tileid="13" duration="150"/>
    <frame tileid="173" duration="150"/>
    <frame tileid="333" duration="150"/>
    <frame tileid="493" duration="150"/>
    <frame tileid="653" duration="150"/>
    <frame tileid="813" duration="150"/>
    <frame tileid="973" duration="150"/>
    <frame tileid="1133" duration="150"/>
    <frame tileid="1293" duration="150"/>
    <frame tileid="1453" duration="150"/>
    <frame tileid="1613" duration="150"/>
    <frame tileid="1773" duration="150"/>
   </animation>
  </tile>
  <tile id="14">
   <animation>
    <frame tileid="14" duration="150"/>
    <frame tileid="174" duration="150"/>
    <frame tileid="334" duration="150"/>
    <frame tileid="494" duration="150"/>
    <frame tileid="654" duration="150"/>
    <frame tileid="814" duration="150"/>
    <frame tileid="974" duration="150"/>
    <frame tileid="1134" duration="150"/>
    <frame tileid="1294" duration="150"/>
    <frame tileid="1454" duration="150"/>
    <frame tileid="1614" duration="150"/>
    <frame tileid="1774" duration="150"/>
   </animation>
  </tile>
  <tile id="16">
   <animation>
    <frame tileid="16" duration="150"/>
    <frame tileid="176" duration="150"/>
    <frame tileid="336" duration="150"/>
    <frame tileid="496" duration="150"/>
    <frame tileid="656" duration="150"/>
    <frame tileid="816" duration="150"/>
    <frame tileid="976" duration="150"/>
    <frame tileid="1136" duration="150"/>
    <frame tileid="1296" duration="150"/>
    <frame tileid="1456" duration="150"/>
    <frame tileid="1616" duration="150"/>
    <frame tileid="1776" duration="150"/>
   </animation>
  </tile>
  <tile id="17">
   <animation>
    <frame tileid="17" duration="150"/>
    <frame tileid="177" duration="150"/>
    <frame tileid="337" duration="150"/>
    <frame tileid="497" duration="150"/>
    <frame tileid="657" duration="150"/>
    <frame tileid="817" duration="150"/>
    <frame tileid="977" duration="150"/>
    <frame tileid="1137" duration="150"/>
    <frame tileid="1297" duration="150"/>
    <frame tileid="1457" duration="150"/>
    <frame tileid="1617" duration="150"/>
    <frame tileid="1777" duration="150"/>
   </animation>
  </tile>
  <tile id="18">
   <animation>
    <frame tileid="18" duration="150"/>
    <frame tileid="178" duration="150"/>
    <frame tileid="338" duration="150"/>
    <frame tileid="498" duration="150"/>
    <frame tileid="658" duration="150"/>
    <frame tileid="818" duration="150"/>
    <frame tileid="978" duration="150"/>
    <frame tileid="1138" duration="150"/>
    <frame tileid="1298" duration="150"/>
    <frame tileid="1458" duration="150"/>
    <frame tileid="1618" duration="150"/>
    <frame tileid="1778" duration="150"/>
   </animation>
  </tile>
  <tile id="19">
   <animation>
    <frame tileid="19" duration="150"/>
    <frame tileid="179" duration="150"/>
    <frame tileid="339" duration="150"/>
    <frame tileid="499" duration="150"/>
    <frame tileid="659" duration="150"/>
    <frame tileid="819" duration="150"/>
    <frame tileid="979" duration="150"/>
    <frame tileid="1139" duration="150"/>
    <frame tileid="1299" duration="150"/>
    <frame tileid="1459" duration="150"/>
    <frame tileid="1619" duration="150"/>
    <frame tileid="1779" duration="150"/>
   </animation>
  </tile>
  <tile id="20">
   <animation>
    <frame tileid="20" duration="150"/>
    <frame tileid="180" duration="150"/>
    <frame tileid="340" duration="150"/>
    <frame tileid="500" duration="150"/>
    <frame tileid="660" duration="150"/>
    <frame tileid="820" duration="150"/>
    <frame tileid="980" duration="150"/>
    <frame tileid="1140" duration="150"/>
    <frame tileid="1300" duration="150"/>
    <frame tileid="1460" duration="150"/>
    <frame tileid="1620" duration="150"/>
    <frame tileid="1780" duration="150"/>
   </animation>
  </tile>
  <tile id="21">
   <animation>
    <frame tileid="21" duration="150"/>
    <frame tileid="181" duration="150"/>
    <frame tileid="341" duration="150"/>
    <frame tileid="501" duration="150"/>
    <frame tileid="661" duration="150"/>
    <frame tileid="821" duration="150"/>
    <frame tileid="981" duration="150"/>
    <frame tileid="1141" duration="150"/>
    <frame tileid="1301" duration="150"/>
    <frame tileid="1461" duration="150"/>
    <frame tileid="1621" duration="150"/>
    <frame tileid="1781" duration="150"/>
   </animation>
  </tile>
  <tile id="22">
   <animation>
    <frame tileid="22" duration="150"/>
    <frame tileid="182" duration="150"/>
    <frame tileid="342" duration="150"/>
    <frame tileid="502" duration="150"/>
    <frame tileid="662" duration="150"/>
    <frame tileid="822" duration="150"/>
    <frame tileid="982" duration="150"/>
    <frame tileid="1142" duration="150"/>
    <frame tileid="1302" duration="150"/>
    <frame tileid="1462" duration="150"/>
    <frame tileid="1622" duration="150"/>
    <frame tileid="1782" duration="150"/>
   </animation>
  </tile>
  <tile id="23">
   <animation>
    <frame tileid="23" duration="150"/>
    <frame tileid="183" duration="150"/>
    <frame tileid="343" duration="150"/>
    <frame tileid="503" duration="150"/>
    <frame tileid="663" duration="150"/>
    <frame tileid="823" duration="150"/>
    <frame tileid="983" duration="150"/>
    <frame tileid="1143" duration="150"/>
    <frame tileid="1303" duration="150"/>
    <frame tileid="1463" duration="150"/>
    <frame tileid="1623" duration="150"/>
    <frame tileid="1783" duration="150"/>
   </animation>
  </tile>
  <tile id="24">
   <animation>
    <frame tileid="24" duration="150"/>
    <frame tileid="184" duration="150"/>
    <frame tileid="344" duration="150"/>
    <frame tileid="504" duration="150"/>
    <frame tileid="664" duration="150"/>
    <frame tileid="824" duration="150"/>
    <frame tileid="984" duration="150"/>
    <frame tileid="1144" duration="150"/>
    <frame tileid="1304" duration="150"/>
    <frame tileid="1464" duration="150"/>
    <frame tileid="1624" duration="150"/>
    <frame tileid="1784" duration="150"/>
   </animation>
  </tile>
  <tile id="25">
   <animation>
    <frame tileid="25" duration="150"/>
    <frame tileid="185" duration="150"/>
    <frame tileid="345" duration="150"/>
    <frame tileid="505" duration="150"/>
    <frame tileid="665" duration="150"/>
    <frame tileid="825" duration="150"/>
    <frame tileid="985" duration="150"/>
    <frame tileid="1145" duration="150"/>
    <frame tileid="1305" duration="150"/>
    <frame tileid="1465" duration="150"/>
    <frame tileid="1625" duration="150"/>
    <frame tileid="1785" duration="150"/>
   </animation>
  </tile>
  <tile id="26">
   <animation>
    <frame tileid="26" duration="150"/>
    <frame tileid="186" duration="150"/>
    <frame tileid="346" duration="150"/>
    <frame tileid="506" duration="150"/>
    <frame tileid="666" duration="150"/>
    <frame tileid="826" duration="150"/>
    <frame tileid="986" duration="150"/>
    <frame tileid="1146" duration="150"/>
    <frame tileid="1306" duration="150"/>
    <frame tileid="1466" duration="150"/>
    <frame tileid="1626" duration="150"/>
    <frame tileid="1786" duration="150"/>
   </animation>
  </tile>
  <tile id="27">
   <animation>
    <frame tileid="27" duration="150"/>
    <frame tileid="187" duration="150"/>
    <frame tileid="347" duration="150"/>
    <frame tileid="507" duration="150"/>
    <frame tileid="667" duration="150"/>
    <frame tileid="827" duration="150"/>
    <frame tileid="987" duration="150"/>
    <frame tileid="1147" duration="150"/>
    <frame tileid="1307" duration="150"/>
    <frame tileid="1467" duration="150"/>
    <frame tileid="1627" duration="150"/>
    <frame tileid="1787" duration="150"/>
   </animation>
  </tile>
  <tile id="29">
   <animation>
    <frame tileid="29" duration="150"/>
    <frame tileid="189" duration="150"/>
    <frame tileid="349" duration="150"/>
    <frame tileid="509" duration="150"/>
    <frame tileid="669" duration="150"/>
    <frame tileid="829" duration="150"/>
    <frame tileid="989" duration="150"/>
    <frame tileid="1149" duration="150"/>
    <frame tileid="1309" duration="150"/>
    <frame tileid="1469" duration="150"/>
    <frame tileid="1629" duration="150"/>
    <frame tileid="1789" duration="150"/>
   </animation>
  </tile>
  <tile id="30">
   <animation>
    <frame tileid="30" duration="150"/>
    <frame tileid="190" duration="150"/>
    <frame tileid="350" duration="150"/>
    <frame tileid="510" duration="150"/>
    <frame tileid="670" duration="150"/>
    <frame tileid="830" duration="150"/>
    <frame tileid="990" duration="150"/>
    <frame tileid="1150" duration="150"/>
    <frame tileid="1310" duration="150"/>
    <frame tileid="1470" duration="150"/>
    <frame tileid="1630" duration="150"/>
    <frame tileid="1790" duration="150"/>
   </animation>
  </tile>
  <tile id="32">
   <animation>
    <frame tileid="32" duration="150"/>
    <frame tileid="192" duration="150"/>
    <frame tileid="352" duration="150"/>
    <frame tileid="512" duration="150"/>
    <frame tileid="672" duration="150"/>
    <frame tileid="832" duration="150"/>
    <frame tileid="992" duration="150"/>
    <frame tileid="1152" duration="150"/>
    <frame tileid="1312" duration="150"/>
    <frame tileid="1472" duration="150"/>
    <frame tileid="1632" duration="150"/>
    <frame tileid="1792" duration="150"/>
   </animation>
  </tile>
  <tile id="33">
   <animation>
    <frame tileid="33" duration="150"/>
    <frame tileid="193" duration="150"/>
    <frame tileid="353" duration="150"/>
    <frame tileid="513" duration="150"/>
    <frame tileid="673" duration="150"/>
    <frame tileid="833" duration="150"/>
    <frame tileid="993" duration="150"/>
    <frame tileid="1153" duration="150"/>
    <frame tileid="1313" duration="150"/>
    <frame tileid="1473" duration="150"/>
    <frame tileid="1633" duration="150"/>
    <frame tileid="1793" duration="150"/>
   </animation>
  </tile>
  <tile id="34">
   <animation>
    <frame tileid="34" duration="150"/>
    <frame tileid="194" duration="150"/>
    <frame tileid="354" duration="150"/>
    <frame tileid="514" duration="150"/>
    <frame tileid="674" duration="150"/>
    <frame tileid="834" duration="150"/>
    <frame tileid="994" duration="150"/>
    <frame tileid="1154" duration="150"/>
    <frame tileid="1314" duration="150"/>
    <frame tileid="1474" duration="150"/>
    <frame tileid="1634" duration="150"/>
    <frame tileid="1794" duration="150"/>
   </animation>
  </tile>
  <tile id="35">
   <animation>
    <frame tileid="35" duration="150"/>
    <frame tileid="195" duration="150"/>
    <frame tileid="355" duration="150"/>
    <frame tileid="515" duration="150"/>
    <frame tileid="675" duration="150"/>
    <frame tileid="835" duration="150"/>
    <frame tileid="995" duration="150"/>
    <frame tileid="1155" duration="150"/>
    <frame tileid="1315" duration="150"/>
    <frame tileid="1475" duration="150"/>
    <frame tileid="1635" duration="150"/>
    <frame tileid="1795" duration="150"/>
   </animation>
  </tile>
  <tile id="36">
   <animation>
    <frame tileid="36" duration="150"/>
    <frame tileid="196" duration="150"/>
    <frame tileid="356" duration="150"/>
    <frame tileid="516" duration="150"/>
    <frame tileid="676" duration="150"/>
    <frame tileid="836" duration="150"/>
    <frame tileid="996" duration="150"/>
    <frame tileid="1156" duration="150"/>
    <frame tileid="1316" duration="150"/>
    <frame tileid="1476" duration="150"/>
    <frame tileid="1636" duration="150"/>
    <frame tileid="1796" duration="150"/>
   </animation>
  </tile>
  <tile id="37">
   <animation>
    <frame tileid="37" duration="150"/>
    <frame tileid="197" duration="150"/>
    <frame tileid="357" duration="150"/>
    <frame tileid="517" duration="150"/>
    <frame tileid="677" duration="150"/>
    <frame tileid="837" duration="150"/>
    <frame tileid="997" duration="150"/>
    <frame tileid="1157" duration="150"/>
    <frame tileid="1317" duration="150"/>
    <frame tileid="1477" duration="150"/>
    <frame tileid="1637" duration="150"/>
    <frame tileid="1797" duration="150"/>
   </animation>
  </tile>
  <tile id="38">
   <animation>
    <frame tileid="38" duration="150"/>
    <frame tileid="198" duration="150"/>
    <frame tileid="358" duration="150"/>
    <frame tileid="518" duration="150"/>
    <frame tileid="678" duration="150"/>
    <frame tileid="838" duration="150"/>
    <frame tileid="998" duration="150"/>
    <frame tileid="1158" duration="150"/>
    <frame tileid="1318" duration="150"/>
    <frame tileid="1478" duration="150"/>
    <frame tileid="1638" duration="150"/>
    <frame tileid="1798" duration="150"/>
   </animation>
  </tile>
  <tile id="39">
   <animation>
    <frame tileid="39" duration="150"/>
    <frame tileid="199" duration="150"/>
    <frame tileid="359" duration="150"/>
    <frame tileid="519" duration="150"/>
    <frame tileid="679" duration="150"/>
    <frame tileid="839" duration="150"/>
    <frame tileid="999" duration="150"/>
    <frame tileid="1159" duration="150"/>
    <frame tileid="1319" duration="150"/>
    <frame tileid="1479" duration="150"/>
    <frame tileid="1639" duration="150"/>
    <frame tileid="1799" duration="150"/>
   </animation>
  </tile>
  <tile id="40">
   <animation>
    <frame tileid="40" duration="150"/>
    <frame tileid="200" duration="150"/>
    <frame tileid="360" duration="150"/>
    <frame tileid="520" duration="150"/>
    <frame tileid="680" duration="150"/>
    <frame tileid="840" duration="150"/>
    <frame tileid="1000" duration="150"/>
    <frame tileid="1160" duration="150"/>
    <frame tileid="1320" duration="150"/>
    <frame tileid="1480" duration="150"/>
    <frame tileid="1640" duration="150"/>
    <frame tileid="1800" duration="150"/>
   </animation>
  </tile>
  <tile id="41">
   <animation>
    <frame tileid="41" duration="150"/>
    <frame tileid="201" duration="150"/>
    <frame tileid="361" duration="150"/>
    <frame tileid="521" duration="150"/>
    <frame tileid="681" duration="150"/>
    <frame tileid="841" duration="150"/>
    <frame tileid="1001" duration="150"/>
    <frame tileid="1161" duration="150"/>
    <frame tileid="1321" duration="150"/>
    <frame tileid="1481" duration="150"/>
    <frame tileid="1641" duration="150"/>
    <frame tileid="1801" duration="150"/>
   </animation>
  </tile>
  <tile id="42">
   <animation>
    <frame tileid="42" duration="150"/>
    <frame tileid="202" duration="150"/>
    <frame tileid="362" duration="150"/>
    <frame tileid="522" duration="150"/>
    <frame tileid="682" duration="150"/>
    <frame tileid="842" duration="150"/>
    <frame tileid="1002" duration="150"/>
    <frame tileid="1162" duration="150"/>
    <frame tileid="1322" duration="150"/>
    <frame tileid="1482" duration="150"/>
    <frame tileid="1642" duration="150"/>
    <frame tileid="1802" duration="150"/>
   </animation>
  </tile>
  <tile id="43">
   <animation>
    <frame tileid="43" duration="150"/>
    <frame tileid="203" duration="150"/>
    <frame tileid="363" duration="150"/>
    <frame tileid="523" duration="150"/>
    <frame tileid="683" duration="150"/>
    <frame tileid="843" duration="150"/>
    <frame tileid="1003" duration="150"/>
    <frame tileid="1163" duration="150"/>
    <frame tileid="1323" duration="150"/>
    <frame tileid="1483" duration="150"/>
    <frame tileid="1643" duration="150"/>
    <frame tileid="1803" duration="150"/>
   </animation>
  </tile>
  <tile id="44">
   <animation>
    <frame tileid="44" duration="150"/>
    <frame tileid="204" duration="150"/>
    <frame tileid="364" duration="150"/>
    <frame tileid="524" duration="150"/>
    <frame tileid="684" duration="150"/>
    <frame tileid="844" duration="150"/>
    <frame tileid="1004" duration="150"/>
    <frame tileid="1164" duration="150"/>
    <frame tileid="1324" duration="150"/>
    <frame tileid="1484" duration="150"/>
    <frame tileid="1644" duration="150"/>
    <frame tileid="1804" duration="150"/>
   </animation>
  </tile>
  <tile id="45">
   <animation>
    <frame tileid="45" duration="150"/>
    <frame tileid="205" duration="150"/>
    <frame tileid="365" duration="150"/>
    <frame tileid="525" duration="150"/>
    <frame tileid="685" duration="150"/>
    <frame tileid="845" duration="150"/>
    <frame tileid="1005" duration="150"/>
    <frame tileid="1165" duration="150"/>
    <frame tileid="1325" duration="150"/>
    <frame tileid="1485" duration="150"/>
    <frame tileid="1645" duration="150"/>
    <frame tileid="1805" duration="150"/>
   </animation>
  </tile>
  <tile id="46">
   <animation>
    <frame tileid="46" duration="150"/>
    <frame tileid="206" duration="150"/>
    <frame tileid="366" duration="150"/>
    <frame tileid="526" duration="150"/>
    <frame tileid="686" duration="150"/>
    <frame tileid="846" duration="150"/>
    <frame tileid="1006" duration="150"/>
    <frame tileid="1166" duration="150"/>
    <frame tileid="1326" duration="150"/>
    <frame tileid="1486" duration="150"/>
    <frame tileid="1646" duration="150"/>
    <frame tileid="1806" duration="150"/>
   </animation>
  </tile>
  <tile id="47">
   <animation>
    <frame tileid="47" duration="150"/>
    <frame tileid="207" duration="150"/>
    <frame tileid="367" duration="150"/>
    <frame tileid="527" duration="150"/>
    <frame tileid="687" duration="150"/>
    <frame tileid="847" duration="150"/>
    <frame tileid="1007" duration="150"/>
    <frame tileid="1167" duration="150"/>
    <frame tileid="1327" duration="150"/>
    <frame tileid="1487" duration="150"/>
    <frame tileid="1647" duration="150"/>
    <frame tileid="1807" duration="150"/>
   </animation>
  </tile>
  <tile id="48">
   <animation>
    <frame tileid="48" duration="150"/>
    <frame tileid="208" duration="150"/>
    <frame tileid="368" duration="150"/>
    <frame tileid="528" duration="150"/>
    <frame tileid="688" duration="150"/>
    <frame tileid="848" duration="150"/>
    <frame tileid="1008" duration="150"/>
    <frame tileid="1168" duration="150"/>
    <frame tileid="1328" duration="150"/>
    <frame tileid="1488" duration="150"/>
    <frame tileid="1648" duration="150"/>
    <frame tileid="1808" duration="150"/>
   </animation>
  </tile>
  <tile id="49">
   <animation>
    <frame tileid="49" duration="150"/>
    <frame tileid="209" duration="150"/>
    <frame tileid="369" duration="150"/>
    <frame tileid="529" duration="150"/>
    <frame tileid="689" duration="150"/>
    <frame tileid="849" duration="150"/>
    <frame tileid="1009" duration="150"/>
    <frame tileid="1169" duration="150"/>
    <frame tileid="1329" duration="150"/>
    <frame tileid="1489" duration="150"/>
    <frame tileid="1649" duration="150"/>
    <frame tileid="1809" duration="150"/>
   </animation>
  </tile>
  <tile id="50">
   <animation>
    <frame tileid="50" duration="150"/>
    <frame tileid="210" duration="150"/>
    <frame tileid="370" duration="150"/>
    <frame tileid="530" duration="150"/>
    <frame tileid="690" duration="150"/>
    <frame tileid="850" duration="150"/>
    <frame tileid="1010" duration="150"/>
    <frame tileid="1170" duration="150"/>
    <frame tileid="1330" duration="150"/>
    <frame tileid="1490" duration="150"/>
    <frame tileid="1650" duration="150"/>
    <frame tileid="1810" duration="150"/>
   </animation>
  </tile>
  <tile id="51">
   <animation>
    <frame tileid="51" duration="150"/>
    <frame tileid="211" duration="150"/>
    <frame tileid="371" duration="150"/>
    <frame tileid="531" duration="150"/>
    <frame tileid="691" duration="150"/>
    <frame tileid="851" duration="150"/>
    <frame tileid="1011" duration="150"/>
    <frame tileid="1171" duration="150"/>
    <frame tileid="1331" duration="150"/>
    <frame tileid="1491" duration="150"/>
    <frame tileid="1651" duration="150"/>
    <frame tileid="1811" duration="150"/>
   </animation>
  </tile>
  <tile id="52">
   <animation>
    <frame tileid="52" duration="150"/>
    <frame tileid="212" duration="150"/>
    <frame tileid="372" duration="150"/>
    <frame tileid="532" duration="150"/>
    <frame tileid="692" duration="150"/>
    <frame tileid="852" duration="150"/>
    <frame tileid="1012" duration="150"/>
    <frame tileid="1172" duration="150"/>
    <frame tileid="1332" duration="150"/>
    <frame tileid="1492" duration="150"/>
    <frame tileid="1652" duration="150"/>
    <frame tileid="1812" duration="150"/>
   </animation>
  </tile>
  <tile id="53">
   <animation>
    <frame tileid="53" duration="150"/>
    <frame tileid="213" duration="150"/>
    <frame tileid="373" duration="150"/>
    <frame tileid="533" duration="150"/>
    <frame tileid="693" duration="150"/>
    <frame tileid="853" duration="150"/>
    <frame tileid="1013" duration="150"/>
    <frame tileid="1173" duration="150"/>
    <frame tileid="1333" duration="150"/>
    <frame tileid="1493" duration="150"/>
    <frame tileid="1653" duration="150"/>
    <frame tileid="1813" duration="150"/>
   </animation>
  </tile>
  <tile id="54">
   <animation>
    <frame tileid="54" duration="150"/>
    <frame tileid="214" duration="150"/>
    <frame tileid="374" duration="150"/>
    <frame tileid="534" duration="150"/>
    <frame tileid="694" duration="150"/>
    <frame tileid="854" duration="150"/>
    <frame tileid="1014" duration="150"/>
    <frame tileid="1174" duration="150"/>
    <frame tileid="1334" duration="150"/>
    <frame tileid="1494" duration="150"/>
    <frame tileid="1654" duration="150"/>
    <frame tileid="1814" duration="150"/>
   </animation>
  </tile>
  <tile id="55">
   <animation>
    <frame tileid="55" duration="150"/>
    <frame tileid="215" duration="150"/>
    <frame tileid="375" duration="150"/>
    <frame tileid="535" duration="150"/>
    <frame tileid="695" duration="150"/>
    <frame tileid="855" duration="150"/>
    <frame tileid="1015" duration="150"/>
    <frame tileid="1175" duration="150"/>
    <frame tileid="1335" duration="150"/>
    <frame tileid="1495" duration="150"/>
    <frame tileid="1655" duration="150"/>
    <frame tileid="1815" duration="150"/>
   </animation>
  </tile>
  <tile id="56">
   <animation>
    <frame tileid="56" duration="150"/>
    <frame tileid="216" duration="150"/>
    <frame tileid="376" duration="150"/>
    <frame tileid="536" duration="150"/>
    <frame tileid="696" duration="150"/>
    <frame tileid="856" duration="150"/>
    <frame tileid="1016" duration="150"/>
    <frame tileid="1176" duration="150"/>
    <frame tileid="1336" duration="150"/>
    <frame tileid="1496" duration="150"/>
    <frame tileid="1656" duration="150"/>
    <frame tileid="1816" duration="150"/>
   </animation>
  </tile>
  <tile id="57">
   <animation>
    <frame tileid="57" duration="150"/>
    <frame tileid="217" duration="150"/>
    <frame tileid="377" duration="150"/>
    <frame tileid="537" duration="150"/>
    <frame tileid="697" duration="150"/>
    <frame tileid="857" duration="150"/>
    <frame tileid="1017" duration="150"/>
    <frame tileid="1177" duration="150"/>
    <frame tileid="1337" duration="150"/>
    <frame tileid="1497" duration="150"/>
    <frame tileid="1657" duration="150"/>
    <frame tileid="1817" duration="150"/>
   </animation>
  </tile>
  <tile id="58">
   <animation>
    <frame tileid="58" duration="150"/>
    <frame tileid="218" duration="150"/>
    <frame tileid="378" duration="150"/>
    <frame tileid="538" duration="150"/>
    <frame tileid="698" duration="150"/>
    <frame tileid="858" duration="150"/>
    <frame tileid="1018" duration="150"/>
    <frame tileid="1178" duration="150"/>
    <frame tileid="1338" duration="150"/>
    <frame tileid="1498" duration="150"/>
    <frame tileid="1658" duration="150"/>
    <frame tileid="1818" duration="150"/>
   </animation>
  </tile>
  <tile id="59">
   <animation>
    <frame tileid="59" duration="150"/>
    <frame tileid="219" duration="150"/>
    <frame tileid="379" duration="150"/>
    <frame tileid="539" duration="150"/>
    <frame tileid="699" duration="150"/>
    <frame tileid="859" duration="150"/>
    <frame tileid="1019" duration="150"/>
    <frame tileid="1179" duration="150"/>
    <frame tileid="1339" duration="150"/>
    <frame tileid="1499" duration="150"/>
    <frame tileid="1659" duration="150"/>
    <frame tileid="1819" duration="150"/>
   </animation>
  </tile>
  <tile id="61">
   <animation>
    <frame tileid="61" duration="150"/>
    <frame tileid="221" duration="150"/>
    <frame tileid="381" duration="150"/>
    <frame tileid="541" duration="150"/>
    <frame tileid="701" duration="150"/>
    <frame tileid="861" duration="150"/>
    <frame tileid="1021" duration="150"/>
    <frame tileid="1181" duration="150"/>
    <frame tileid="1341" duration="150"/>
    <frame tileid="1501" duration="150"/>
    <frame tileid="1661" duration="150"/>
    <frame tileid="1821" duration="150"/>
   </animation>
  </tile>
  <tile id="62">
   <animation>
    <frame tileid="62" duration="150"/>
    <frame tileid="222" duration="150"/>
    <frame tileid="382" duration="150"/>
    <frame tileid="542" duration="150"/>
    <frame tileid="702" duration="150"/>
    <frame tileid="862" duration="150"/>
    <frame tileid="1022" duration="150"/>
    <frame tileid="1182" duration="150"/>
    <frame tileid="1342" duration="150"/>
    <frame tileid="1502" duration="150"/>
    <frame tileid="1662" duration="150"/>
    <frame tileid="1822" duration="150"/>
   </animation>
  </tile>
  <tile id="63">
   <animation>
    <frame tileid="63" duration="150"/>
    <frame tileid="223" duration="150"/>
    <frame tileid="383" duration="150"/>
    <frame tileid="543" duration="150"/>
    <frame tileid="703" duration="150"/>
    <frame tileid="863" duration="150"/>
    <frame tileid="1023" duration="150"/>
    <frame tileid="1183" duration="150"/>
    <frame tileid="1343" duration="150"/>
    <frame tileid="1503" duration="150"/>
    <frame tileid="1663" duration="150"/>
    <frame tileid="1823" duration="150"/>
   </animation>
  </tile>
  <tile id="64">
   <animation>
    <frame tileid="64" duration="150"/>
    <frame tileid="224" duration="150"/>
    <frame tileid="384" duration="150"/>
    <frame tileid="544" duration="150"/>
    <frame tileid="704" duration="150"/>
    <frame tileid="864" duration="150"/>
    <frame tileid="1024" duration="150"/>
    <frame tileid="1184" duration="150"/>
    <frame tileid="1344" duration="150"/>
    <frame tileid="1504" duration="150"/>
    <frame tileid="1664" duration="150"/>
    <frame tileid="1824" duration="150"/>
   </animation>
  </tile>
  <tile id="65">
   <animation>
    <frame tileid="65" duration="150"/>
    <frame tileid="225" duration="150"/>
    <frame tileid="385" duration="150"/>
    <frame tileid="545" duration="150"/>
    <frame tileid="705" duration="150"/>
    <frame tileid="865" duration="150"/>
    <frame tileid="1025" duration="150"/>
    <frame tileid="1185" duration="150"/>
    <frame tileid="1345" duration="150"/>
    <frame tileid="1505" duration="150"/>
    <frame tileid="1665" duration="150"/>
    <frame tileid="1825" duration="150"/>
   </animation>
  </tile>
  <tile id="66">
   <animation>
    <frame tileid="66" duration="150"/>
    <frame tileid="226" duration="150"/>
    <frame tileid="386" duration="150"/>
    <frame tileid="546" duration="150"/>
    <frame tileid="706" duration="150"/>
    <frame tileid="866" duration="150"/>
    <frame tileid="1026" duration="150"/>
    <frame tileid="1186" duration="150"/>
    <frame tileid="1346" duration="150"/>
    <frame tileid="1506" duration="150"/>
    <frame tileid="1666" duration="150"/>
    <frame tileid="1826" duration="150"/>
   </animation>
  </tile>
  <tile id="67">
   <animation>
    <frame tileid="67" duration="150"/>
    <frame tileid="227" duration="150"/>
    <frame tileid="387" duration="150"/>
    <frame tileid="547" duration="150"/>
    <frame tileid="707" duration="150"/>
    <frame tileid="867" duration="150"/>
    <frame tileid="1027" duration="150"/>
    <frame tileid="1187" duration="150"/>
    <frame tileid="1347" duration="150"/>
    <frame tileid="1507" duration="150"/>
    <frame tileid="1667" duration="150"/>
    <frame tileid="1827" duration="150"/>
   </animation>
  </tile>
  <tile id="68">
   <animation>
    <frame tileid="68" duration="150"/>
    <frame tileid="228" duration="150"/>
    <frame tileid="388" duration="150"/>
    <frame tileid="548" duration="150"/>
    <frame tileid="708" duration="150"/>
    <frame tileid="868" duration="150"/>
    <frame tileid="1028" duration="150"/>
    <frame tileid="1188" duration="150"/>
    <frame tileid="1348" duration="150"/>
    <frame tileid="1508" duration="150"/>
    <frame tileid="1668" duration="150"/>
    <frame tileid="1828" duration="150"/>
   </animation>
  </tile>
  <tile id="69">
   <animation>
    <frame tileid="69" duration="150"/>
    <frame tileid="229" duration="150"/>
    <frame tileid="389" duration="150"/>
    <frame tileid="549" duration="150"/>
    <frame tileid="709" duration="150"/>
    <frame tileid="869" duration="150"/>
    <frame tileid="1029" duration="150"/>
    <frame tileid="1189" duration="150"/>
    <frame tileid="1349" duration="150"/>
    <frame tileid="1509" duration="150"/>
    <frame tileid="1669" duration="150"/>
    <frame tileid="1829" duration="150"/>
   </animation>
  </tile>
  <tile id="70">
   <animation>
    <frame tileid="70" duration="150"/>
    <frame tileid="230" duration="150"/>
    <frame tileid="390" duration="150"/>
    <frame tileid="550" duration="150"/>
    <frame tileid="710" duration="150"/>
    <frame tileid="870" duration="150"/>
    <frame tileid="1030" duration="150"/>
    <frame tileid="1190" duration="150"/>
    <frame tileid="1350" duration="150"/>
    <frame tileid="1510" duration="150"/>
    <frame tileid="1670" duration="150"/>
    <frame tileid="1830" duration="150"/>
   </animation>
  </tile>
  <tile id="71">
   <animation>
    <frame tileid="71" duration="150"/>
    <frame tileid="231" duration="150"/>
    <frame tileid="391" duration="150"/>
    <frame tileid="551" duration="150"/>
    <frame tileid="711" duration="150"/>
    <frame tileid="871" duration="150"/>
    <frame tileid="1031" duration="150"/>
    <frame tileid="1191" duration="150"/>
    <frame tileid="1351" duration="150"/>
    <frame tileid="1511" duration="150"/>
    <frame tileid="1671" duration="150"/>
    <frame tileid="1831" duration="150"/>
   </animation>
  </tile>
  <tile id="73">
   <animation>
    <frame tileid="73" duration="150"/>
    <frame tileid="233" duration="150"/>
    <frame tileid="393" duration="150"/>
    <frame tileid="553" duration="150"/>
    <frame tileid="713" duration="150"/>
    <frame tileid="873" duration="150"/>
    <frame tileid="1033" duration="150"/>
    <frame tileid="1193" duration="150"/>
    <frame tileid="1353" duration="150"/>
    <frame tileid="1513" duration="150"/>
    <frame tileid="1673" duration="150"/>
    <frame tileid="1833" duration="150"/>
   </animation>
  </tile>
  <tile id="74">
   <animation>
    <frame tileid="74" duration="150"/>
    <frame tileid="234" duration="150"/>
    <frame tileid="394" duration="150"/>
    <frame tileid="554" duration="150"/>
    <frame tileid="714" duration="150"/>
    <frame tileid="874" duration="150"/>
    <frame tileid="1034" duration="150"/>
    <frame tileid="1194" duration="150"/>
    <frame tileid="1354" duration="150"/>
    <frame tileid="1514" duration="150"/>
    <frame tileid="1674" duration="150"/>
    <frame tileid="1834" duration="150"/>
   </animation>
  </tile>
  <tile id="76">
   <animation>
    <frame tileid="76" duration="150"/>
    <frame tileid="236" duration="150"/>
    <frame tileid="396" duration="150"/>
    <frame tileid="556" duration="150"/>
    <frame tileid="716" duration="150"/>
    <frame tileid="876" duration="150"/>
    <frame tileid="1036" duration="150"/>
    <frame tileid="1196" duration="150"/>
    <frame tileid="1356" duration="150"/>
    <frame tileid="1516" duration="150"/>
    <frame tileid="1676" duration="150"/>
    <frame tileid="1836" duration="150"/>
   </animation>
  </tile>
  <tile id="77">
   <animation>
    <frame tileid="77" duration="150"/>
    <frame tileid="237" duration="150"/>
    <frame tileid="397" duration="150"/>
    <frame tileid="557" duration="150"/>
    <frame tileid="717" duration="150"/>
    <frame tileid="877" duration="150"/>
    <frame tileid="1037" duration="150"/>
    <frame tileid="1197" duration="150"/>
    <frame tileid="1357" duration="150"/>
    <frame tileid="1517" duration="150"/>
    <frame tileid="1677" duration="150"/>
    <frame tileid="1837" duration="150"/>
   </animation>
  </tile>
  <tile id="78">
   <animation>
    <frame tileid="78" duration="150"/>
    <frame tileid="238" duration="150"/>
    <frame tileid="398" duration="150"/>
    <frame tileid="558" duration="150"/>
    <frame tileid="718" duration="150"/>
    <frame tileid="878" duration="150"/>
    <frame tileid="1038" duration="150"/>
    <frame tileid="1198" duration="150"/>
    <frame tileid="1358" duration="150"/>
    <frame tileid="1518" duration="150"/>
    <frame tileid="1678" duration="150"/>
    <frame tileid="1838" duration="150"/>
   </animation>
  </tile>
  <tile id="79">
   <animation>
    <frame tileid="79" duration="150"/>
    <frame tileid="239" duration="150"/>
    <frame tileid="399" duration="150"/>
    <frame tileid="559" duration="150"/>
    <frame tileid="719" duration="150"/>
    <frame tileid="879" duration="150"/>
    <frame tileid="1039" duration="150"/>
    <frame tileid="1199" duration="150"/>
    <frame tileid="1359" duration="150"/>
    <frame tileid="1519" duration="150"/>
    <frame tileid="1679" duration="150"/>
    <frame tileid="1839" duration="150"/>
   </animation>
  </tile>
  <tile id="81">
   <animation>
    <frame tileid="81" duration="150"/>
    <frame tileid="241" duration="150"/>
    <frame tileid="401" duration="150"/>
    <frame tileid="561" duration="150"/>
    <frame tileid="721" duration="150"/>
    <frame tileid="881" duration="150"/>
    <frame tileid="1041" duration="150"/>
    <frame tileid="1201" duration="150"/>
    <frame tileid="1361" duration="150"/>
    <frame tileid="1521" duration="150"/>
    <frame tileid="1681" duration="150"/>
    <frame tileid="1841" duration="150"/>
   </animation>
  </tile>
  <tile id="82">
   <animation>
    <frame tileid="82" duration="150"/>
    <frame tileid="242" duration="150"/>
    <frame tileid="402" duration="150"/>
    <frame tileid="562" duration="150"/>
    <frame tileid="722" duration="150"/>
    <frame tileid="882" duration="150"/>
    <frame tileid="1042" duration="150"/>
    <frame tileid="1202" duration="150"/>
    <frame tileid="1362" duration="150"/>
    <frame tileid="1522" duration="150"/>
    <frame tileid="1682" duration="150"/>
    <frame tileid="1842" duration="150"/>
   </animation>
  </tile>
  <tile id="84">
   <animation>
    <frame tileid="84" duration="150"/>
    <frame tileid="244" duration="150"/>
    <frame tileid="404" duration="150"/>
    <frame tileid="564" duration="150"/>
    <frame tileid="724" duration="150"/>
    <frame tileid="884" duration="150"/>
    <frame tileid="1044" duration="150"/>
    <frame tileid="1204" duration="150"/>
    <frame tileid="1364" duration="150"/>
    <frame tileid="1524" duration="150"/>
    <frame tileid="1684" duration="150"/>
    <frame tileid="1844" duration="150"/>
   </animation>
  </tile>
  <tile id="85">
   <animation>
    <frame tileid="85" duration="150"/>
    <frame tileid="245" duration="150"/>
    <frame tileid="405" duration="150"/>
    <frame tileid="565" duration="150"/>
    <frame tileid="725" duration="150"/>
    <frame tileid="885" duration="150"/>
    <frame tileid="1045" duration="150"/>
    <frame tileid="1205" duration="150"/>
    <frame tileid="1365" duration="150"/>
    <frame tileid="1525" duration="150"/>
    <frame tileid="1685" duration="150"/>
    <frame tileid="1845" duration="150"/>
   </animation>
  </tile>
  <tile id="86">
   <animation>
    <frame tileid="86" duration="150"/>
    <frame tileid="246" duration="150"/>
    <frame tileid="406" duration="150"/>
    <frame tileid="566" duration="150"/>
    <frame tileid="726" duration="150"/>
    <frame tileid="886" duration="150"/>
    <frame tileid="1046" duration="150"/>
    <frame tileid="1206" duration="150"/>
    <frame tileid="1366" duration="150"/>
    <frame tileid="1526" duration="150"/>
    <frame tileid="1686" duration="150"/>
    <frame tileid="1846" duration="150"/>
   </animation>
  </tile>
  <tile id="89">
   <animation>
    <frame tileid="89" duration="150"/>
    <frame tileid="249" duration="150"/>
    <frame tileid="409" duration="150"/>
    <frame tileid="569" duration="150"/>
    <frame tileid="729" duration="150"/>
    <frame tileid="889" duration="150"/>
    <frame tileid="1049" duration="150"/>
    <frame tileid="1209" duration="150"/>
    <frame tileid="1369" duration="150"/>
    <frame tileid="1529" duration="150"/>
    <frame tileid="1689" duration="150"/>
    <frame tileid="1849" duration="150"/>
   </animation>
  </tile>
  <tile id="90">
   <animation>
    <frame tileid="90" duration="150"/>
    <frame tileid="250" duration="150"/>
    <frame tileid="410" duration="150"/>
    <frame tileid="570" duration="150"/>
    <frame tileid="730" duration="150"/>
    <frame tileid="890" duration="150"/>
    <frame tileid="1050" duration="150"/>
    <frame tileid="1210" duration="150"/>
    <frame tileid="1370" duration="150"/>
    <frame tileid="1530" duration="150"/>
    <frame tileid="1690" duration="150"/>
    <frame tileid="1871" duration="150"/>
   </animation>
  </tile>
  <tile id="93">
   <animation>
    <frame tileid="93" duration="150"/>
    <frame tileid="253" duration="150"/>
    <frame tileid="413" duration="150"/>
    <frame tileid="573" duration="150"/>
    <frame tileid="733" duration="150"/>
    <frame tileid="893" duration="150"/>
    <frame tileid="1053" duration="150"/>
    <frame tileid="1213" duration="150"/>
    <frame tileid="1373" duration="150"/>
    <frame tileid="1533" duration="150"/>
    <frame tileid="1693" duration="150"/>
    <frame tileid="1853" duration="150"/>
   </animation>
  </tile>
  <tile id="94">
   <animation>
    <frame tileid="94" duration="150"/>
    <frame tileid="254" duration="150"/>
    <frame tileid="414" duration="150"/>
    <frame tileid="574" duration="150"/>
    <frame tileid="734" duration="150"/>
    <frame tileid="894" duration="150"/>
    <frame tileid="1054" duration="150"/>
    <frame tileid="1214" duration="150"/>
    <frame tileid="1374" duration="150"/>
    <frame tileid="1534" duration="150"/>
    <frame tileid="1694" duration="150"/>
    <frame tileid="1854" duration="150"/>
   </animation>
  </tile>
  <tile id="97">
   <animation>
    <frame tileid="97" duration="150"/>
    <frame tileid="257" duration="150"/>
    <frame tileid="417" duration="150"/>
    <frame tileid="577" duration="150"/>
    <frame tileid="737" duration="150"/>
    <frame tileid="897" duration="150"/>
    <frame tileid="1057" duration="150"/>
    <frame tileid="1217" duration="150"/>
    <frame tileid="1377" duration="150"/>
    <frame tileid="1537" duration="150"/>
    <frame tileid="1697" duration="150"/>
    <frame tileid="1857" duration="150"/>
   </animation>
  </tile>
  <tile id="98">
   <animation>
    <frame tileid="98" duration="150"/>
    <frame tileid="258" duration="150"/>
    <frame tileid="418" duration="150"/>
    <frame tileid="578" duration="150"/>
    <frame tileid="738" duration="150"/>
    <frame tileid="898" duration="150"/>
    <frame tileid="1058" duration="150"/>
    <frame tileid="1218" duration="150"/>
    <frame tileid="1378" duration="150"/>
    <frame tileid="1538" duration="150"/>
    <frame tileid="1698" duration="150"/>
    <frame tileid="1858" duration="150"/>
   </animation>
  </tile>
  <tile id="100">
   <animation>
    <frame tileid="100" duration="150"/>
    <frame tileid="260" duration="150"/>
    <frame tileid="420" duration="150"/>
    <frame tileid="580" duration="150"/>
    <frame tileid="740" duration="150"/>
    <frame tileid="900" duration="150"/>
    <frame tileid="1060" duration="150"/>
    <frame tileid="1220" duration="150"/>
    <frame tileid="1380" duration="150"/>
    <frame tileid="1540" duration="150"/>
    <frame tileid="1700" duration="150"/>
    <frame tileid="1860" duration="150"/>
   </animation>
  </tile>
  <tile id="101">
   <animation>
    <frame tileid="101" duration="150"/>
    <frame tileid="261" duration="150"/>
    <frame tileid="421" duration="150"/>
    <frame tileid="581" duration="150"/>
    <frame tileid="741" duration="150"/>
    <frame tileid="901" duration="150"/>
    <frame tileid="1061" duration="150"/>
    <frame tileid="1221" duration="150"/>
    <frame tileid="1381" duration="150"/>
    <frame tileid="1541" duration="150"/>
    <frame tileid="1701" duration="150"/>
    <frame tileid="1861" duration="150"/>
   </animation>
  </tile>
  <tile id="102">
   <animation>
    <frame tileid="102" duration="150"/>
    <frame tileid="262" duration="150"/>
    <frame tileid="422" duration="150"/>
    <frame tileid="582" duration="150"/>
    <frame tileid="742" duration="150"/>
    <frame tileid="902" duration="150"/>
    <frame tileid="1062" duration="150"/>
    <frame tileid="1222" duration="150"/>
    <frame tileid="1382" duration="150"/>
    <frame tileid="1542" duration="150"/>
    <frame tileid="1702" duration="150"/>
    <frame tileid="1862" duration="150"/>
   </animation>
  </tile>
  <tile id="103">
   <animation>
    <frame tileid="103" duration="150"/>
    <frame tileid="263" duration="150"/>
    <frame tileid="423" duration="150"/>
    <frame tileid="583" duration="150"/>
    <frame tileid="743" duration="150"/>
    <frame tileid="903" duration="150"/>
    <frame tileid="1063" duration="150"/>
    <frame tileid="1223" duration="150"/>
    <frame tileid="1383" duration="150"/>
    <frame tileid="1543" duration="150"/>
    <frame tileid="1703" duration="150"/>
    <frame tileid="1863" duration="150"/>
   </animation>
  </tile>
  <tile id="104">
   <animation>
    <frame tileid="104" duration="150"/>
    <frame tileid="264" duration="150"/>
    <frame tileid="424" duration="150"/>
    <frame tileid="584" duration="150"/>
    <frame tileid="744" duration="150"/>
    <frame tileid="904" duration="150"/>
    <frame tileid="1064" duration="150"/>
    <frame tileid="1224" duration="150"/>
    <frame tileid="1384" duration="150"/>
    <frame tileid="1544" duration="150"/>
    <frame tileid="1704" duration="150"/>
    <frame tileid="1864" duration="150"/>
   </animation>
  </tile>
  <tile id="105">
   <animation>
    <frame tileid="105" duration="150"/>
    <frame tileid="265" duration="150"/>
    <frame tileid="425" duration="150"/>
    <frame tileid="585" duration="150"/>
    <frame tileid="745" duration="150"/>
    <frame tileid="905" duration="150"/>
    <frame tileid="1065" duration="150"/>
    <frame tileid="1225" duration="150"/>
    <frame tileid="1385" duration="150"/>
    <frame tileid="1545" duration="150"/>
    <frame tileid="1705" duration="150"/>
    <frame tileid="1865" duration="150"/>
   </animation>
  </tile>
  <tile id="106">
   <animation>
    <frame tileid="106" duration="150"/>
    <frame tileid="266" duration="150"/>
    <frame tileid="426" duration="150"/>
    <frame tileid="586" duration="150"/>
    <frame tileid="746" duration="150"/>
    <frame tileid="906" duration="150"/>
    <frame tileid="1066" duration="150"/>
    <frame tileid="1226" duration="150"/>
    <frame tileid="1386" duration="150"/>
    <frame tileid="1546" duration="150"/>
    <frame tileid="1706" duration="150"/>
    <frame tileid="1866" duration="150"/>
   </animation>
  </tile>
  <tile id="107">
   <animation>
    <frame tileid="107" duration="150"/>
    <frame tileid="267" duration="150"/>
    <frame tileid="427" duration="150"/>
    <frame tileid="587" duration="150"/>
    <frame tileid="747" duration="150"/>
    <frame tileid="907" duration="150"/>
    <frame tileid="1067" duration="150"/>
    <frame tileid="1227" duration="150"/>
    <frame tileid="1387" duration="150"/>
    <frame tileid="1547" duration="150"/>
    <frame tileid="1707" duration="150"/>
    <frame tileid="1867" duration="150"/>
   </animation>
  </tile>
  <tile id="108">
   <animation>
    <frame tileid="108" duration="150"/>
    <frame tileid="268" duration="150"/>
    <frame tileid="428" duration="150"/>
    <frame tileid="588" duration="150"/>
    <frame tileid="748" duration="150"/>
    <frame tileid="908" duration="150"/>
    <frame tileid="1068" duration="150"/>
    <frame tileid="1228" duration="150"/>
    <frame tileid="1388" duration="150"/>
    <frame tileid="1548" duration="150"/>
    <frame tileid="1708" duration="150"/>
    <frame tileid="1868" duration="150"/>
   </animation>
  </tile>
  <tile id="109">
   <animation>
    <frame tileid="109" duration="150"/>
    <frame tileid="269" duration="150"/>
    <frame tileid="429" duration="150"/>
    <frame tileid="589" duration="150"/>
    <frame tileid="749" duration="150"/>
    <frame tileid="909" duration="150"/>
    <frame tileid="1069" duration="150"/>
    <frame tileid="1229" duration="150"/>
    <frame tileid="1389" duration="150"/>
    <frame tileid="1549" duration="150"/>
    <frame tileid="1709" duration="150"/>
    <frame tileid="1869" duration="150"/>
   </animation>
  </tile>
  <tile id="110">
   <animation>
    <frame tileid="110" duration="150"/>
    <frame tileid="270" duration="150"/>
    <frame tileid="430" duration="150"/>
    <frame tileid="590" duration="150"/>
    <frame tileid="750" duration="150"/>
    <frame tileid="910" duration="150"/>
    <frame tileid="1070" duration="150"/>
    <frame tileid="1230" duration="150"/>
    <frame tileid="1390" duration="150"/>
    <frame tileid="1550" duration="150"/>
    <frame tileid="1710" duration="150"/>
    <frame tileid="1870" duration="150"/>
   </animation>
  </tile>
  <tile id="111">
   <animation>
    <frame tileid="111" duration="150"/>
    <frame tileid="271" duration="150"/>
    <frame tileid="431" duration="150"/>
    <frame tileid="591" duration="150"/>
    <frame tileid="751" duration="150"/>
    <frame tileid="911" duration="150"/>
    <frame tileid="1071" duration="150"/>
    <frame tileid="1231" duration="150"/>
    <frame tileid="1391" duration="150"/>
    <frame tileid="1551" duration="150"/>
    <frame tileid="1711" duration="150"/>
    <frame tileid="1871" duration="150"/>
   </animation>
  </tile>
  <tile id="112">
   <animation>
    <frame tileid="112" duration="150"/>
    <frame tileid="272" duration="150"/>
    <frame tileid="432" duration="150"/>
    <frame tileid="592" duration="150"/>
    <frame tileid="752" duration="150"/>
    <frame tileid="912" duration="150"/>
    <frame tileid="1072" duration="150"/>
    <frame tileid="1232" duration="150"/>
    <frame tileid="1392" duration="150"/>
    <frame tileid="1552" duration="150"/>
    <frame tileid="1712" duration="150"/>
    <frame tileid="1872" duration="150"/>
   </animation>
  </tile>
  <tile id="113">
   <animation>
    <frame tileid="113" duration="150"/>
    <frame tileid="273" duration="150"/>
    <frame tileid="433" duration="150"/>
    <frame tileid="593" duration="150"/>
    <frame tileid="753" duration="150"/>
    <frame tileid="913" duration="150"/>
    <frame tileid="1073" duration="150"/>
    <frame tileid="1233" duration="150"/>
    <frame tileid="1393" duration="150"/>
    <frame tileid="1553" duration="150"/>
    <frame tileid="1713" duration="150"/>
    <frame tileid="1873" duration="150"/>
   </animation>
  </tile>
  <tile id="114">
   <animation>
    <frame tileid="114" duration="150"/>
    <frame tileid="274" duration="150"/>
    <frame tileid="434" duration="150"/>
    <frame tileid="594" duration="150"/>
    <frame tileid="754" duration="150"/>
    <frame tileid="914" duration="150"/>
    <frame tileid="1074" duration="150"/>
    <frame tileid="1234" duration="150"/>
    <frame tileid="1394" duration="150"/>
    <frame tileid="1554" duration="150"/>
    <frame tileid="1714" duration="150"/>
    <frame tileid="1874" duration="150"/>
   </animation>
  </tile>
  <tile id="115">
   <animation>
    <frame tileid="115" duration="150"/>
    <frame tileid="275" duration="150"/>
    <frame tileid="435" duration="150"/>
    <frame tileid="595" duration="150"/>
    <frame tileid="755" duration="150"/>
    <frame tileid="915" duration="150"/>
    <frame tileid="1075" duration="150"/>
    <frame tileid="1235" duration="150"/>
    <frame tileid="1395" duration="150"/>
    <frame tileid="1555" duration="150"/>
    <frame tileid="1715" duration="150"/>
    <frame tileid="1875" duration="150"/>
   </animation>
  </tile>
  <tile id="116">
   <animation>
    <frame tileid="116" duration="150"/>
    <frame tileid="276" duration="150"/>
    <frame tileid="436" duration="150"/>
    <frame tileid="596" duration="150"/>
    <frame tileid="756" duration="150"/>
    <frame tileid="916" duration="150"/>
    <frame tileid="1076" duration="150"/>
    <frame tileid="1236" duration="150"/>
    <frame tileid="1396" duration="150"/>
    <frame tileid="1556" duration="150"/>
    <frame tileid="1716" duration="150"/>
    <frame tileid="1876" duration="150"/>
   </animation>
  </tile>
  <tile id="117">
   <animation>
    <frame tileid="117" duration="150"/>
    <frame tileid="277" duration="150"/>
    <frame tileid="437" duration="150"/>
    <frame tileid="597" duration="150"/>
    <frame tileid="757" duration="150"/>
    <frame tileid="917" duration="150"/>
    <frame tileid="1077" duration="150"/>
    <frame tileid="1237" duration="150"/>
    <frame tileid="1397" duration="150"/>
    <frame tileid="1557" duration="150"/>
    <frame tileid="1717" duration="150"/>
    <frame tileid="1877" duration="150"/>
   </animation>
  </tile>
  <tile id="118">
   <animation>
    <frame tileid="118" duration="150"/>
    <frame tileid="278" duration="150"/>
    <frame tileid="438" duration="150"/>
    <frame tileid="598" duration="150"/>
    <frame tileid="758" duration="150"/>
    <frame tileid="918" duration="150"/>
    <frame tileid="1078" duration="150"/>
    <frame tileid="1238" duration="150"/>
    <frame tileid="1398" duration="150"/>
    <frame tileid="1558" duration="150"/>
    <frame tileid="1718" duration="150"/>
    <frame tileid="1878" duration="150"/>
   </animation>
  </tile>
  <tile id="119">
   <animation>
    <frame tileid="119" duration="150"/>
    <frame tileid="279" duration="150"/>
    <frame tileid="439" duration="150"/>
    <frame tileid="599" duration="150"/>
    <frame tileid="759" duration="150"/>
    <frame tileid="919" duration="150"/>
    <frame tileid="1079" duration="150"/>
    <frame tileid="1239" duration="150"/>
    <frame tileid="1399" duration="150"/>
    <frame tileid="1559" duration="150"/>
    <frame tileid="1719" duration="150"/>
    <frame tileid="1879" duration="150"/>
   </animation>
  </tile>
  <tile id="120">
   <animation>
    <frame tileid="120" duration="150"/>
    <frame tileid="280" duration="150"/>
    <frame tileid="440" duration="150"/>
    <frame tileid="600" duration="150"/>
    <frame tileid="760" duration="150"/>
    <frame tileid="920" duration="150"/>
    <frame tileid="1080" duration="150"/>
    <frame tileid="1240" duration="150"/>
    <frame tileid="1400" duration="150"/>
    <frame tileid="1560" duration="150"/>
    <frame tileid="1720" duration="150"/>
    <frame tileid="1880" duration="150"/>
   </animation>
  </tile>
  <tile id="121">
   <animation>
    <frame tileid="121" duration="150"/>
    <frame tileid="281" duration="150"/>
    <frame tileid="441" duration="150"/>
    <frame tileid="601" duration="150"/>
    <frame tileid="761" duration="150"/>
    <frame tileid="921" duration="150"/>
    <frame tileid="1081" duration="150"/>
    <frame tileid="1241" duration="150"/>
    <frame tileid="1401" duration="150"/>
    <frame tileid="1561" duration="150"/>
    <frame tileid="1721" duration="150"/>
    <frame tileid="1881" duration="150"/>
   </animation>
  </tile>
  <tile id="122">
   <animation>
    <frame tileid="122" duration="150"/>
    <frame tileid="282" duration="150"/>
    <frame tileid="442" duration="150"/>
    <frame tileid="602" duration="150"/>
    <frame tileid="762" duration="150"/>
    <frame tileid="922" duration="150"/>
    <frame tileid="1082" duration="150"/>
    <frame tileid="1242" duration="150"/>
    <frame tileid="1402" duration="150"/>
    <frame tileid="1562" duration="150"/>
    <frame tileid="1722" duration="150"/>
    <frame tileid="1882" duration="150"/>
   </animation>
  </tile>
  <tile id="123">
   <animation>
    <frame tileid="123" duration="150"/>
    <frame tileid="283" duration="150"/>
    <frame tileid="443" duration="150"/>
    <frame tileid="603" duration="150"/>
    <frame tileid="763" duration="150"/>
    <frame tileid="923" duration="150"/>
    <frame tileid="1083" duration="150"/>
    <frame tileid="1243" duration="150"/>
    <frame tileid="1403" duration="150"/>
    <frame tileid="1563" duration="150"/>
    <frame tileid="1723" duration="150"/>
    <frame tileid="1883" duration="150"/>
   </animation>
  </tile>
  <tile id="124">
   <animation>
    <frame tileid="124" duration="150"/>
    <frame tileid="284" duration="150"/>
    <frame tileid="444" duration="150"/>
    <frame tileid="604" duration="150"/>
    <frame tileid="764" duration="150"/>
    <frame tileid="924" duration="150"/>
    <frame tileid="1084" duration="150"/>
    <frame tileid="1244" duration="150"/>
    <frame tileid="1404" duration="150"/>
    <frame tileid="1564" duration="150"/>
    <frame tileid="1724" duration="150"/>
    <frame tileid="1884" duration="150"/>
   </animation>
  </tile>
  <tile id="125">
   <animation>
    <frame tileid="125" duration="150"/>
    <frame tileid="285" duration="150"/>
    <frame tileid="445" duration="150"/>
    <frame tileid="605" duration="150"/>
    <frame tileid="765" duration="150"/>
    <frame tileid="925" duration="150"/>
    <frame tileid="1085" duration="150"/>
    <frame tileid="1245" duration="150"/>
    <frame tileid="1405" duration="150"/>
    <frame tileid="1565" duration="150"/>
    <frame tileid="1725" duration="150"/>
    <frame tileid="1885" duration="150"/>
   </animation>
  </tile>
  <tile id="126">
   <animation>
    <frame tileid="126" duration="150"/>
    <frame tileid="286" duration="150"/>
    <frame tileid="446" duration="150"/>
    <frame tileid="606" duration="150"/>
    <frame tileid="766" duration="150"/>
    <frame tileid="926" duration="150"/>
    <frame tileid="1086" duration="150"/>
    <frame tileid="1246" duration="150"/>
    <frame tileid="1406" duration="150"/>
    <frame tileid="1566" duration="150"/>
    <frame tileid="1726" duration="150"/>
    <frame tileid="1886" duration="150"/>
   </animation>
  </tile>
  <tile id="127">
   <animation>
    <frame tileid="127" duration="150"/>
    <frame tileid="287" duration="150"/>
    <frame tileid="447" duration="150"/>
    <frame tileid="607" duration="150"/>
    <frame tileid="767" duration="150"/>
    <frame tileid="927" duration="150"/>
    <frame tileid="1087" duration="150"/>
    <frame tileid="1247" duration="150"/>
    <frame tileid="1407" duration="150"/>
    <frame tileid="1567" duration="150"/>
    <frame tileid="1727" duration="150"/>
    <frame tileid="1887" duration="150"/>
   </animation>
  </tile>
  <tile id="128">
   <animation>
    <frame tileid="128" duration="150"/>
    <frame tileid="288" duration="150"/>
    <frame tileid="448" duration="150"/>
    <frame tileid="608" duration="150"/>
    <frame tileid="768" duration="150"/>
    <frame tileid="928" duration="150"/>
    <frame tileid="1088" duration="150"/>
    <frame tileid="1248" duration="150"/>
    <frame tileid="1408" duration="150"/>
    <frame tileid="1568" duration="150"/>
    <frame tileid="1728" duration="150"/>
    <frame tileid="1888" duration="150"/>
   </animation>
  </tile>
  <tile id="129">
   <animation>
    <frame tileid="129" duration="150"/>
    <frame tileid="289" duration="150"/>
    <frame tileid="449" duration="150"/>
    <frame tileid="609" duration="150"/>
    <frame tileid="769" duration="150"/>
    <frame tileid="929" duration="150"/>
    <frame tileid="1089" duration="150"/>
    <frame tileid="1249" duration="150"/>
    <frame tileid="1409" duration="150"/>
    <frame tileid="1569" duration="150"/>
    <frame tileid="1729" duration="150"/>
    <frame tileid="1889" duration="150"/>
   </animation>
  </tile>
  <tile id="130">
   <animation>
    <frame tileid="130" duration="150"/>
    <frame tileid="290" duration="150"/>
    <frame tileid="450" duration="150"/>
    <frame tileid="610" duration="150"/>
    <frame tileid="770" duration="150"/>
    <frame tileid="930" duration="150"/>
    <frame tileid="1090" duration="150"/>
    <frame tileid="1250" duration="150"/>
    <frame tileid="1410" duration="150"/>
    <frame tileid="1570" duration="150"/>
    <frame tileid="1730" duration="150"/>
    <frame tileid="1890" duration="150"/>
   </animation>
  </tile>
  <tile id="131">
   <animation>
    <frame tileid="131" duration="150"/>
    <frame tileid="291" duration="150"/>
    <frame tileid="451" duration="150"/>
    <frame tileid="611" duration="150"/>
    <frame tileid="771" duration="150"/>
    <frame tileid="931" duration="150"/>
    <frame tileid="1091" duration="150"/>
    <frame tileid="1251" duration="150"/>
    <frame tileid="1411" duration="150"/>
    <frame tileid="1571" duration="150"/>
    <frame tileid="1731" duration="150"/>
    <frame tileid="1891" duration="150"/>
   </animation>
  </tile>
  <tile id="132">
   <animation>
    <frame tileid="132" duration="150"/>
    <frame tileid="292" duration="150"/>
    <frame tileid="452" duration="150"/>
    <frame tileid="612" duration="150"/>
    <frame tileid="772" duration="150"/>
    <frame tileid="932" duration="150"/>
    <frame tileid="1092" duration="150"/>
    <frame tileid="1252" duration="150"/>
    <frame tileid="1412" duration="150"/>
    <frame tileid="1572" duration="150"/>
    <frame tileid="1732" duration="150"/>
    <frame tileid="1892" duration="150"/>
   </animation>
  </tile>
  <tile id="133">
   <animation>
    <frame tileid="133" duration="150"/>
    <frame tileid="293" duration="150"/>
    <frame tileid="453" duration="150"/>
    <frame tileid="613" duration="150"/>
    <frame tileid="773" duration="150"/>
    <frame tileid="933" duration="150"/>
    <frame tileid="1093" duration="150"/>
    <frame tileid="1253" duration="150"/>
    <frame tileid="1413" duration="150"/>
    <frame tileid="1573" duration="150"/>
    <frame tileid="1733" duration="150"/>
    <frame tileid="1893" duration="150"/>
   </animation>
  </tile>
  <tile id="134">
   <animation>
    <frame tileid="134" duration="150"/>
    <frame tileid="294" duration="150"/>
    <frame tileid="454" duration="150"/>
    <frame tileid="614" duration="150"/>
    <frame tileid="774" duration="150"/>
    <frame tileid="934" duration="150"/>
    <frame tileid="1094" duration="150"/>
    <frame tileid="1254" duration="150"/>
    <frame tileid="1414" duration="150"/>
    <frame tileid="1574" duration="150"/>
    <frame tileid="1734" duration="150"/>
    <frame tileid="1894" duration="150"/>
   </animation>
  </tile>
  <tile id="135">
   <animation>
    <frame tileid="135" duration="150"/>
    <frame tileid="295" duration="150"/>
    <frame tileid="455" duration="150"/>
    <frame tileid="615" duration="150"/>
    <frame tileid="775" duration="150"/>
    <frame tileid="935" duration="150"/>
    <frame tileid="1095" duration="150"/>
    <frame tileid="1255" duration="150"/>
    <frame tileid="1415" duration="150"/>
    <frame tileid="1575" duration="150"/>
    <frame tileid="1735" duration="150"/>
    <frame tileid="1895" duration="150"/>
   </animation>
  </tile>
  <tile id="136">
   <animation>
    <frame tileid="136" duration="150"/>
    <frame tileid="296" duration="150"/>
    <frame tileid="456" duration="150"/>
    <frame tileid="616" duration="150"/>
    <frame tileid="776" duration="150"/>
    <frame tileid="936" duration="150"/>
    <frame tileid="1096" duration="150"/>
    <frame tileid="1256" duration="150"/>
    <frame tileid="1416" duration="150"/>
    <frame tileid="1576" duration="150"/>
    <frame tileid="1736" duration="150"/>
    <frame tileid="1896" duration="150"/>
   </animation>
  </tile>
  <tile id="137">
   <animation>
    <frame tileid="137" duration="150"/>
    <frame tileid="297" duration="150"/>
    <frame tileid="457" duration="150"/>
    <frame tileid="617" duration="150"/>
    <frame tileid="777" duration="150"/>
    <frame tileid="937" duration="150"/>
    <frame tileid="1097" duration="150"/>
    <frame tileid="1257" duration="150"/>
    <frame tileid="1417" duration="150"/>
    <frame tileid="1577" duration="150"/>
    <frame tileid="1737" duration="150"/>
    <frame tileid="1897" duration="150"/>
   </animation>
  </tile>
  <tile id="138">
   <animation>
    <frame tileid="138" duration="150"/>
    <frame tileid="298" duration="150"/>
    <frame tileid="458" duration="150"/>
    <frame tileid="618" duration="150"/>
    <frame tileid="778" duration="150"/>
    <frame tileid="938" duration="150"/>
    <frame tileid="1098" duration="150"/>
    <frame tileid="1258" duration="150"/>
    <frame tileid="1418" duration="150"/>
    <frame tileid="1578" duration="150"/>
    <frame tileid="1738" duration="150"/>
    <frame tileid="1898" duration="150"/>
   </animation>
  </tile>
  <tile id="139">
   <animation>
    <frame tileid="139" duration="150"/>
    <frame tileid="299" duration="150"/>
    <frame tileid="459" duration="150"/>
    <frame tileid="619" duration="150"/>
    <frame tileid="779" duration="150"/>
    <frame tileid="939" duration="150"/>
    <frame tileid="1099" duration="150"/>
    <frame tileid="1259" duration="150"/>
    <frame tileid="1419" duration="150"/>
    <frame tileid="1579" duration="150"/>
    <frame tileid="1739" duration="150"/>
    <frame tileid="1899" duration="150"/>
   </animation>
  </tile>
  <tile id="140">
   <animation>
    <frame tileid="140" duration="150"/>
    <frame tileid="300" duration="150"/>
    <frame tileid="460" duration="150"/>
    <frame tileid="620" duration="150"/>
    <frame tileid="780" duration="150"/>
    <frame tileid="940" duration="150"/>
    <frame tileid="1100" duration="150"/>
    <frame tileid="1260" duration="150"/>
    <frame tileid="1420" duration="150"/>
    <frame tileid="1580" duration="150"/>
    <frame tileid="1740" duration="150"/>
    <frame tileid="1900" duration="150"/>
   </animation>
  </tile>
  <tile id="141">
   <animation>
    <frame tileid="141" duration="150"/>
    <frame tileid="301" duration="150"/>
    <frame tileid="461" duration="150"/>
    <frame tileid="621" duration="150"/>
    <frame tileid="781" duration="150"/>
    <frame tileid="941" duration="150"/>
    <frame tileid="1101" duration="150"/>
    <frame tileid="1261" duration="150"/>
    <frame tileid="1421" duration="150"/>
    <frame tileid="1581" duration="150"/>
    <frame tileid="1741" duration="150"/>
    <frame tileid="1901" duration="150"/>
   </animation>
  </tile>
  <tile id="142">
   <animation>
    <frame tileid="142" duration="150"/>
    <frame tileid="302" duration="150"/>
    <frame tileid="462" duration="150"/>
    <frame tileid="622" duration="150"/>
    <frame tileid="782" duration="150"/>
    <frame tileid="942" duration="150"/>
    <frame tileid="1102" duration="150"/>
    <frame tileid="1262" duration="150"/>
    <frame tileid="1422" duration="150"/>
    <frame tileid="1582" duration="150"/>
    <frame tileid="1742" duration="150"/>
    <frame tileid="1902" duration="150"/>
   </animation>
  </tile>
  <tile id="144">
   <animation>
    <frame tileid="144" duration="150"/>
    <frame tileid="304" duration="150"/>
    <frame tileid="464" duration="150"/>
    <frame tileid="624" duration="150"/>
    <frame tileid="784" duration="150"/>
    <frame tileid="944" duration="150"/>
    <frame tileid="1104" duration="150"/>
    <frame tileid="1264" duration="150"/>
    <frame tileid="1424" duration="150"/>
    <frame tileid="1584" duration="150"/>
    <frame tileid="1744" duration="150"/>
    <frame tileid="1904" duration="150"/>
   </animation>
  </tile>
  <tile id="145">
   <animation>
    <frame tileid="145" duration="150"/>
    <frame tileid="305" duration="150"/>
    <frame tileid="465" duration="150"/>
    <frame tileid="625" duration="150"/>
    <frame tileid="785" duration="150"/>
    <frame tileid="945" duration="150"/>
    <frame tileid="1105" duration="150"/>
    <frame tileid="1265" duration="150"/>
    <frame tileid="1425" duration="150"/>
    <frame tileid="1585" duration="150"/>
    <frame tileid="1745" duration="150"/>
    <frame tileid="1905" duration="150"/>
   </animation>
  </tile>
  <tile id="146">
   <animation>
    <frame tileid="146" duration="150"/>
    <frame tileid="306" duration="150"/>
    <frame tileid="466" duration="150"/>
    <frame tileid="626" duration="150"/>
    <frame tileid="786" duration="150"/>
    <frame tileid="946" duration="150"/>
    <frame tileid="1106" duration="150"/>
    <frame tileid="1266" duration="150"/>
    <frame tileid="1426" duration="150"/>
    <frame tileid="1586" duration="150"/>
    <frame tileid="1746" duration="150"/>
    <frame tileid="1906" duration="150"/>
   </animation>
  </tile>
  <tile id="149">
   <animation>
    <frame tileid="149" duration="150"/>
    <frame tileid="309" duration="150"/>
    <frame tileid="469" duration="150"/>
    <frame tileid="629" duration="150"/>
    <frame tileid="789" duration="150"/>
    <frame tileid="949" duration="150"/>
    <frame tileid="1109" duration="150"/>
    <frame tileid="1269" duration="150"/>
    <frame tileid="1429" duration="150"/>
    <frame tileid="1589" duration="150"/>
    <frame tileid="1749" duration="150"/>
    <frame tileid="1909" duration="150"/>
   </animation>
  </tile>
  <tile id="150">
   <animation>
    <frame tileid="150" duration="150"/>
    <frame tileid="310" duration="150"/>
    <frame tileid="470" duration="150"/>
    <frame tileid="630" duration="150"/>
    <frame tileid="790" duration="150"/>
    <frame tileid="950" duration="150"/>
    <frame tileid="1110" duration="150"/>
    <frame tileid="1270" duration="150"/>
    <frame tileid="1430" duration="150"/>
    <frame tileid="1590" duration="150"/>
    <frame tileid="1750" duration="150"/>
    <frame tileid="1910" duration="150"/>
   </animation>
  </tile>
  <tile id="153">
   <animation>
    <frame tileid="153" duration="150"/>
    <frame tileid="313" duration="150"/>
    <frame tileid="473" duration="150"/>
    <frame tileid="633" duration="150"/>
    <frame tileid="793" duration="150"/>
    <frame tileid="953" duration="150"/>
    <frame tileid="1113" duration="150"/>
    <frame tileid="1273" duration="150"/>
    <frame tileid="1433" duration="150"/>
    <frame tileid="1593" duration="150"/>
    <frame tileid="1753" duration="150"/>
    <frame tileid="1913" duration="150"/>
   </animation>
  </tile>
  <tile id="154">
   <animation>
    <frame tileid="154" duration="150"/>
    <frame tileid="314" duration="150"/>
    <frame tileid="474" duration="150"/>
    <frame tileid="634" duration="150"/>
    <frame tileid="794" duration="150"/>
    <frame tileid="954" duration="150"/>
    <frame tileid="1114" duration="150"/>
    <frame tileid="1274" duration="150"/>
    <frame tileid="1434" duration="150"/>
    <frame tileid="1594" duration="150"/>
    <frame tileid="1754" duration="150"/>
    <frame tileid="1914" duration="150"/>
   </animation>
  </tile>
  <tile id="157">
   <animation>
    <frame tileid="157" duration="150"/>
    <frame tileid="317" duration="150"/>
    <frame tileid="477" duration="150"/>
    <frame tileid="637" duration="150"/>
    <frame tileid="797" duration="150"/>
    <frame tileid="957" duration="150"/>
    <frame tileid="1117" duration="150"/>
    <frame tileid="1277" duration="150"/>
    <frame tileid="1437" duration="150"/>
    <frame tileid="1597" duration="150"/>
    <frame tileid="1757" duration="150"/>
    <frame tileid="1917" duration="150"/>
   </animation>
  </tile>
  <tile id="158">
   <animation>
    <frame tileid="158" duration="150"/>
    <frame tileid="318" duration="150"/>
    <frame tileid="478" duration="150"/>
    <frame tileid="638" duration="150"/>
    <frame tileid="798" duration="150"/>
    <frame tileid="958" duration="150"/>
    <frame tileid="1118" duration="150"/>
    <frame tileid="1278" duration="150"/>
    <frame tileid="1438" duration="150"/>
    <frame tileid="1598" duration="150"/>
    <frame tileid="1758" duration="150"/>
    <frame tileid="1918" duration="150"/>
   </animation>
  </tile>
 </tileset>
 <layer id="1" name="Tile Layer 1" width="16" height="24">
  <data encoding="csv">
   <chunk x="-16" y="-16" width="16" height="16">
0,0,0,0,0,0,0,0,0,0,0,0,0,0,0,0,
0,0,0,0,0,0,0,0,0,0,0,0,0,0,0,0,
0,0,0,0,0,0,0,0,0,0,0,0,0,0,0,0,
0,0,0,0,0,0,0,0,0,0,0,0,0,0,0,0,
0,0,0,0,0,0,0,0,0,0,0,0,0,0,0,0,
0,0,0,0,0,0,0,0,0,0,0,0,0,0,0,0,
0,0,0,0,0,0,0,0,0,0,0,0,0,0,0,0,
0,0,0,0,0,0,1,2,0,3,4,0,5,6,0,7,
0,0,0,0,0,0,11,12,0,13,14,0,15,16,0,17,
0,0,0,0,0,0,0,0,0,0,0,0,0,0,0,0,
0,0,0,0,0,0,21,22,0,23,24,0,25,26,0,27,
0,0,0,0,0,0,31,32,0,33,34,0,35,36,0,37,
0,0,0,0,0,0,0,0,0,0,0,0,0,0,0,0,
0,0,0,0,0,0,529,530,531,532,533,534,535,536,537,538,
0,0,0,0,0,0,549,550,551,552,553,554,555,556,557,558,
0,0,0,0,0,0,569,570,571,572,573,574,575,576,577,578
</chunk>
   <chunk x="0" y="-16" width="16" height="16">
0,0,0,0,0,0,0,0,0,0,0,0,0,0,0,0,
0,0,0,0,0,0,0,0,0,0,0,0,0,0,0,0,
0,0,0,0,0,0,0,0,0,0,0,0,0,0,0,0,
0,0,0,0,0,0,0,0,0,0,0,0,0,0,0,0,
0,0,0,0,0,0,0,0,0,0,0,0,0,0,0,0,
0,0,0,0,0,0,0,0,0,0,0,0,0,0,0,0,
0,0,0,0,0,0,0,0,0,0,0,0,0,0,0,0,
8,0,9,10,0,0,481,482,0,0,0,0,0,0,0,0,
18,0,19,20,0,0,483,484,0,0,0,0,0,0,0,0,
0,0,0,0,0,0,0,0,0,0,0,0,0,0,0,0,
28,0,29,30,0,0,0,0,0,0,0,0,0,0,0,0,
38,0,39,40,0,0,0,0,0,0,0,0,0,0,0,0,
0,0,0,0,0,0,0,0,0,0,0,0,0,0,0,0,
539,540,541,542,543,544,545,546,547,548,0,0,0,0,0,0,
559,560,561,562,563,564,565,566,567,568,0,0,0,0,0,0,
579,580,581,582,583,584,585,586,587,588,0,0,0,0,0,0
</chunk>
   <chunk x="-16" y="0" width="16" height="16">
0,0,0,0,0,0,589,590,591,592,593,594,595,596,597,598,
0,0,0,0,0,0,609,610,611,612,613,614,615,616,617,618,
0,0,0,0,0,0,629,630,631,632,633,634,635,636,637,638,
0,0,0,0,0,0,649,650,651,652,653,654,655,656,657,658,
0,0,0,0,0,0,669,670,671,672,673,674,675,676,677,678,
0,0,0,0,0,0,0,0,0,0,0,0,0,0,0,0,
0,0,0,0,0,0,0,0,0,0,0,0,0,0,0,0,
0,0,0,0,0,0,0,0,0,0,0,0,0,0,0,0,
0,0,0,0,0,0,0,0,0,0,0,0,0,0,0,0,
0,0,0,0,0,0,0,0,0,0,0,0,0,0,0,0,
0,0,0,0,0,0,0,0,0,0,0,0,0,0,0,0,
0,0,0,0,0,0,0,0,0,0,0,0,0,0,0,0,
0,0,0,0,0,0,0,0,0,0,0,0,0,0,0,0,
0,0,0,0,0,0,0,0,0,0,0,0,0,0,0,0,
0,0,0,0,0,0,0,0,0,0,0,0,0,0,0,0,
0,0,0,0,0,0,0,0,0,0,0,0,0,0,0,0
</chunk>
   <chunk x="0" y="0" width="16" height="16">
599,600,601,602,603,604,605,606,607,608,0,0,0,0,0,0,
619,620,621,622,623,624,625,626,627,628,0,0,0,0,0,0,
639,640,641,642,643,644,645,646,647,648,0,0,0,0,0,0,
659,660,661,662,663,664,665,666,667,668,0,0,0,0,0,0,
679,680,681,682,683,684,685,686,687,688,0,0,0,0,0,0,
0,0,0,0,0,0,0,0,0,0,0,0,0,0,0,0,
0,0,0,0,0,0,0,0,0,0,0,0,0,0,0,0,
0,0,0,0,0,0,0,0,0,0,0,0,0,0,0,0,
0,0,0,0,0,0,0,0,0,0,0,0,0,0,0,0,
0,0,0,0,0,0,0,0,0,0,0,0,0,0,0,0,
0,0,0,0,0,0,0,0,0,0,0,0,0,0,0,0,
0,0,0,0,0,0,0,0,0,0,0,0,0,0,0,0,
0,0,0,0,0,0,0,0,0,0,0,0,0,0,0,0,
0,0,0,0,0,0,0,0,0,0,0,0,0,0,0,0,
0,0,0,0,0,0,0,0,0,0,0,0,0,0,0,0,
0,0,0,0,0,0,0,0,0,0,0,0,0,0,0,0
</chunk>
  </data>
 </layer>
</map>
